;FLAVOR:Marlin
;TIME:904
;Filament used: 1.49442m
;Layer height: 0.4
;MINX:87.789
;MINY:57.944
;MINZ:0.52
;MAXX:128.781
;MAXY:98.933
;MAXZ:20.92
;POSTPROCESSED
;Generated with Cura_SteamEngine 5.2.1
;
;

M82 ;absolute extrusion mode
M98 P0:/sys/startprint.g

G92 E0
G92 E0
G10
;LAYER_COUNT:52
;LAYER:0
M107
G0 F3600 X91.504 Y66.663 Z0.52
;TYPE:SKIRT
G11
G1 F450 X92.272 Y65.668 E0.07172
G1 X92.855 Y64.946 E0.12467
G1 X93.774 Y63.983 E0.20062
G1 X94.39 Y63.368 E0.25029
G1 X95.308 Y62.594 E0.3188
G1 X95.938 Y62.086 E0.36498
G1 X96.397 Y61.752 E0.39737
G1 X97.13 Y61.263 E0.44765
G1 X97.884 Y60.776 E0.49886
G1 X98.973 Y60.197 E0.56923
G1 X99.834 Y59.766 E0.62417
G1 X100.559 Y59.47 E0.66886
G1 X101.833 Y58.983 E0.74668
G1 X103.038 Y58.643 E0.81812
G1 X103.981 Y58.4 E0.87368
G1 X105.276 Y58.181 E0.94862
G1 X106.172 Y58.049 E1.0003
G1 X107.456 Y57.976 E1.07368
G1 X108.28 Y57.944 E1.12073
G1 X109.617 Y58.002 E1.19709
G1 X110.469 Y58.06 E1.24582
G1 X111.688 Y58.244 E1.31616
G1 X112.596 Y58.402 E1.36875
G1 X113.267 Y58.571 E1.40823
G1 X114.716 Y58.978 E1.49411
G1 X115.35 Y59.212 E1.53267
G1 X116.83 Y59.805 E1.62364
G1 X117.87 Y60.34 E1.69038
G1 X118.718 Y60.796 E1.74531
G1 X119.714 Y61.445 E1.81314
G1 X120.525 Y61.999 E1.86918
G1 X121.458 Y62.757 E1.93777
G1 X122.195 Y63.384 E1.99299
G1 X123.149 Y64.348 E2.07037
G1 X123.576 Y64.798 E2.10577
G1 X123.973 Y65.26 E2.14053
G1 X124.48 Y65.9 E2.18711
G1 X125.075 Y66.68 E2.24309
G1 X125.694 Y67.647 E2.3086
G1 X126.235 Y68.537 E2.36803
G1 X126.75 Y69.573 E2.43404
G1 X127.217 Y70.565 E2.4966
G1 X127.629 Y71.701 E2.56555
G1 X127.921 Y72.542 E2.61635
G1 X128.254 Y73.865 E2.69419
G1 X128.432 Y74.642 E2.73968
G1 X128.536 Y75.329 E2.77932
G1 X128.723 Y76.806 E2.86427
G1 X128.77 Y78.122 E2.93941
G1 X128.781 Y78.982 E2.98848
G1 X128.735 Y79.71 E3.0301
G1 X128.626 Y80.954 E3.10136
G1 X128.545 Y81.536 E3.13489
G1 X128.377 Y82.45 E3.18791
G1 X128.237 Y83.143 E3.22825
G1 X128.035 Y83.905 E3.27323
G1 X127.585 Y85.362 E3.36024
G1 X127.32 Y86.029 E3.40119
G1 X126.728 Y87.404 E3.48661
G1 X126.108 Y88.547 E3.56081
G1 X125.657 Y89.333 E3.61251
G1 X124.999 Y90.293 E3.67892
G1 X124.345 Y91.198 E3.74263
G1 X123.582 Y92.072 E3.80883
G1 X122.96 Y92.764 E3.86192
G1 X122.076 Y93.596 E3.93119
G1 X121.373 Y94.229 E3.98516
G1 X120.3 Y95.04 E4.06191
G1 X119.755 Y95.432 E4.10021
G1 X119.268 Y95.748 E4.13334
G1 X118.501 Y96.204 E4.18425
G1 X117.727 Y96.646 E4.23511
G1 X116.523 Y97.205 E4.31085
G1 X115.682 Y97.571 E4.36319
G1 X114.587 Y97.94 E4.42912
G1 X113.592 Y98.253 E4.48863
G1 X112.4 Y98.515 E4.55827
G1 X111.514 Y98.692 E4.60982
G1 X110.328 Y98.831 E4.67796
G1 X109.387 Y98.92 E4.73189
G1 X108.526 Y98.933 E4.78102
G1 X107.13 Y98.92 E4.86068
G1 X105.889 Y98.793 E4.93186
G1 X105.008 Y98.686 E4.9825
G1 X103.717 Y98.419 E5.05772
G1 X102.877 Y98.224 E5.10692
G1 X101.764 Y97.868 E5.1736
G1 X100.833 Y97.547 E5.22979
G1 X100.077 Y97.219 E5.27681
G1 X98.828 Y96.639 E5.35539
G1 X98.119 Y96.236 E5.40192
G1 X96.972 Y95.546 E5.4783
G1 X96.338 Y95.091 E5.52282
G1 X95.211 Y94.24 E5.6034
G1 X94.581 Y93.677 E5.65161
G1 X93.596 Y92.75 E5.72879
G1 X93.026 Y92.118 E5.77735
G1 X92.152 Y91.101 E5.85386
G1 X91.385 Y90.028 E5.92912
G1 X90.896 Y89.313 E5.97855
G1 X90.258 Y88.181 E6.05269
G1 X89.839 Y87.399 E6.10331
G1 X89.338 Y86.239 E6.17541
G1 X88.962 Y85.314 E6.23238
G1 X88.601 Y84.129 E6.30306
G1 X88.361 Y83.287 E6.35302
G1 X88.097 Y81.941 E6.43128
G1 X87.945 Y81.053 E6.48269
G1 X87.842 Y79.821 E6.55323
G1 X87.789 Y78.995 E6.60046
G1 X87.795 Y78.281 E6.6412
G1 X87.848 Y76.784 E6.72667
G1 X88.013 Y75.483 E6.8015
G1 X88.136 Y74.655 E6.84926
G1 X88.287 Y73.981 E6.88867
G1 X88.652 Y72.534 E6.97382
G1 X89.076 Y71.323 E7.04703
G1 X89.402 Y70.458 E7.09978
G1 X89.957 Y69.29 E7.17356
G1 X90.343 Y68.521 E7.22266
G1 X90.755 Y67.839 E7.26812
G1 X91.41 Y66.81 E7.33772
G0 F405 X91.504 Y66.663
G0 F3600 X92.081 Y67.061
G1 F450 X92.873 Y66.036 E7.41163
G1 X93.377 Y65.413 E7.45736
G1 X94.211 Y64.538 E7.52633
G1 X94.872 Y63.877 E7.57967
G1 X95.759 Y63.129 E7.64587
G1 X96.606 Y62.454 E7.70767
G1 X97.51 Y61.851 E7.76967
G1 X98.239 Y61.38 E7.81919
G1 X99.302 Y60.815 E7.88788
G1 X100.121 Y60.405 E7.94014
G1 X100.809 Y60.124 E7.98255
G1 X102.053 Y59.648 E8.05855
G1 X103.305 Y59.296 E8.13275
G1 X104.132 Y59.084 E8.18147
G1 X105.379 Y58.874 E8.25362
G1 X106.26 Y58.744 E8.30443
G1 X107.425 Y58.678 E8.37101
G1 X108.288 Y58.644 E8.42029
G1 X109.485 Y58.696 E8.48866
G1 X110.402 Y58.758 E8.5411
G1 X111.584 Y58.936 E8.6093
G1 X112.456 Y59.089 E8.65982
G1 X113.096 Y59.25 E8.69747
G1 X114.5 Y59.645 E8.7807
G1 X115.196 Y59.903 E8.82305
G1 X116.532 Y60.439 E8.90519
G1 X117.602 Y60.99 E8.97386
G1 X118.354 Y61.394 E9.02257
G1 X119.394 Y62.073 E9.09343
G1 X120.103 Y62.559 E9.14248
G1 X121.078 Y63.351 E9.21415
G1 X121.708 Y63.888 E9.26139
G1 X122.641 Y64.83 E9.33704
G1 X123.222 Y65.442 E9.38519
G1 X123.969 Y66.384 E9.45379
G1 X124.496 Y67.075 E9.50337
G1 X125.148 Y68.094 E9.5724
G1 X125.618 Y68.869 E9.62412
G1 X126.156 Y69.953 E9.69317
G1 X126.568 Y70.832 E9.74856
G1 X126.968 Y71.93 E9.81523
G1 X127.248 Y72.735 E9.86387
G1 X127.571 Y74.021 E9.93952
G1 X127.743 Y74.772 E9.98348
G1 X127.855 Y75.516 E10.02641
G1 X128.025 Y76.865 E10.10399
G1 X128.07 Y78.131 E10.17628
G1 X128.081 Y78.962 E10.2237
G1 X128.03 Y79.75 E10.26875
G1 X127.929 Y80.892 E10.33417
G1 X127.857 Y81.409 E10.36395
G1 X127.691 Y82.311 E10.41628
G1 X127.551 Y83.004 E10.45662
G1 X127.361 Y83.716 E10.49867
G1 X126.924 Y85.129 E10.58306
G1 X126.632 Y85.859 E10.62792
G1 X126.091 Y87.111 E10.70575
G1 X125.501 Y88.199 E10.77637
G1 X125.069 Y88.951 E10.82585
G1 X124.371 Y89.968 E10.89623
G1 X123.795 Y90.763 E10.95225
G1 X123.062 Y91.604 E11.0159
G1 X122.46 Y92.274 E11.0673
G1 X121.596 Y93.087 E11.13499
G1 X120.924 Y93.69 E11.18651
G1 X119.891 Y94.472 E11.26043
G1 X119.346 Y94.864 E11.29874
G1 X118.91 Y95.147 E11.3284
G1 X118.154 Y95.596 E11.37857
G1 X117.398 Y96.028 E11.42825
G1 X116.32 Y96.529 E11.49608
G1 X115.425 Y96.92 E11.55181
G1 X114.299 Y97.298 E11.61958
G1 X113.412 Y97.577 E11.67263
G1 X112.327 Y97.816 E11.73603
G1 X111.419 Y97.998 E11.78887
G1 X110.17 Y98.143 E11.86061
G1 X109.338 Y98.221 E11.90829
G1 X108.619 Y98.233 E11.94932
G1 X107.167 Y98.221 E12.03217
G1 X106.04 Y98.106 E12.09681
G1 X105.124 Y97.994 E12.14947
G1 X103.875 Y97.737 E12.22223
G1 X103.065 Y97.549 E12.26967
G1 X101.977 Y97.201 E12.33485
G1 X101.075 Y96.889 E12.38931
G1 X100.372 Y96.584 E12.43304
G1 X99.146 Y96.014 E12.51018
G1 X98.48 Y95.636 E12.55388
G1 X97.357 Y94.96 E12.62867
G1 X96.746 Y94.522 E12.67156
G1 X95.665 Y93.707 E12.74881
G1 X95.061 Y93.167 E12.79504
G1 X94.096 Y92.259 E12.87064
G1 X93.557 Y91.662 E12.91653
G1 X92.705 Y90.67 E12.99115
G1 X91.963 Y89.633 E13.0639
G1 X91.488 Y88.938 E13.11194
G1 X90.911 Y87.917 E13.17885
G1 X90.475 Y87.105 E13.23144
G1 X89.987 Y85.976 E13.30162
G1 X89.619 Y85.07 E13.35742
G1 X89.274 Y83.937 E13.425
G1 X89.041 Y83.119 E13.47353
G1 X88.802 Y81.908 E13.54396
G1 X88.642 Y80.974 E13.59803
G1 X88.541 Y79.776 E13.66662
G1 X88.489 Y78.967 E13.71288
G1 X88.497 Y78.195 E13.75693
G1 X88.546 Y76.84 E13.8343
G1 X88.705 Y75.586 E13.90642
G1 X88.824 Y74.784 E13.95268
G1 X88.991 Y74.045 E13.99591
G1 X89.32 Y72.746 E14.07237
G1 X89.731 Y71.57 E14.14345
G1 X90.049 Y70.728 E14.19481
G1 X90.549 Y69.673 E14.26142
G1 X90.957 Y68.859 E14.31338
G1 X91.346 Y68.215 E14.35631
G1 X91.987 Y67.208 E14.42442
G0 F405 X92.081 Y67.061
G10
;MESH:pulley-motor-flatsmaller.STL
G0 F3600 X102.49 Y72.718
G0 X115.16 Y80.047
;TYPE:WALL-OUTER
G11
G1 F900 X114.871 Y80.183 E14.44264
G1 X114.453 Y80.297 E14.46736
G1 X113.288 Y80.297 E14.53384
G1 X113.049 Y80.879 E14.56974
G1 X112.604 Y81.606 E14.61837
G1 X112.032 Y82.266 E14.66821
G1 X111.342 Y82.837 E14.71931
G1 X110.565 Y83.287 E14.77054
G1 X109.751 Y83.593 E14.82016
G1 X108.854 Y83.767 E14.8723
G1 X107.952 Y83.786 E14.92378
G1 X107.385 Y83.706 E14.95645
G1 X106.81 Y84.705 E15.02222
G1 X106.524 Y84.996 E15.0455
G1 X106.018 Y85.31 E15.07948
G1 X105.409 Y85.447 E15.1151
G1 X104.806 Y85.382 E15.1497
G1 X104.257 Y85.121 E15.18439
G1 X103.823 Y84.704 E15.21873
G1 X103.566 Y84.2 E15.25101
G1 X103.477 Y83.849 E15.27167
G1 X103.49 Y83.257 E15.30546
G1 X103.604 Y82.854 E15.32935
G1 X104.178 Y81.855 E15.39509
G1 X103.825 Y81.402 E15.42786
G1 X103.393 Y80.614 E15.47914
G1 X103.102 Y79.781 E15.52949
G1 X102.956 Y78.917 E15.57948
G1 X102.953 Y78.007 E15.63141
G1 X103.097 Y77.131 E15.68206
G1 X103.38 Y76.312 E15.7315
G1 X103.825 Y75.491 E15.78479
G1 X104.178 Y75.038 E15.81756
G1 X103.6 Y74.034 E15.88366
G1 X103.494 Y73.643 E15.90677
G1 X103.486 Y73.599 E15.90932
G1 X103.484 Y72.982 E15.94453
G1 X103.682 Y72.426 E15.97821
G1 X103.896 Y72.105 E16.00022
G1 X104.391 Y71.686 E16.03722
G1 X104.984 Y71.47 E16.07323
G1 X105.59 Y71.469 E16.10781
G1 X105.988 Y71.577 E16.13134
G1 X106.476 Y71.86 E16.16353
G1 X106.801 Y72.174 E16.18932
G1 X107.385 Y73.187 E16.25603
G1 X107.952 Y73.108 E16.2887
G1 X108.862 Y73.127 E16.34063
G1 X109.765 Y73.305 E16.39315
G1 X110.547 Y73.598 E16.4408
G1 X111.308 Y74.033 E16.49081
G1 X112.007 Y74.603 E16.54228
G1 X112.587 Y75.264 E16.59245
G1 X113.049 Y76.014 E16.64271
G1 X113.288 Y76.597 E16.67867
G1 X114.456 Y76.597 E16.74531
G1 X114.853 Y76.704 E16.76877
G1 X115.193 Y76.868 E16.79031
G1 X115.657 Y77.259 E16.82493
G1 X115.976 Y77.824 E16.86195
G1 X116.086 Y78.445 E16.89794
G1 X115.974 Y79.074 E16.93439
G1 X115.646 Y79.646 E16.97202
G1 X115.295 Y79.936 E16.99799
G0 F810 X115.16 Y80.047
G0 F3600 X114.871 Y80.183
G0 X114.793 Y80.204
G0 X114.923 Y80.688
G0 X116.198 Y80.097
;TYPE:WALL-INNER
G1 F900 X115.568 Y80.625 E17.0449
G1 X115.124 Y80.836 E17.07295
G1 X114.542 Y80.997 E17.1074
G1 X113.761 Y80.997 E17.15196
G1 X113.646 Y81.244 E17.16751
G1 X113.165 Y82.032 E17.22019
G1 X112.489 Y82.799 E17.27852
G1 X111.724 Y83.428 E17.33503
G1 X110.855 Y83.925 E17.39215
G1 X109.921 Y84.276 E17.44909
G1 X108.947 Y84.464 E17.50569
G1 X108.03 Y84.489 E17.55803
G1 X107.756 Y84.466 E17.57372
G1 X107.372 Y85.131 E17.61753
G1 X106.978 Y85.528 E17.64945
G1 X106.279 Y85.975 E17.69679
G1 X105.434 Y86.153 E17.74606
G1 X104.608 Y86.065 E17.79346
G1 X103.837 Y85.692 E17.84233
G1 X103.265 Y85.135 E17.88789
G1 X102.892 Y84.42 E17.9339
G1 X102.772 Y83.89 E17.96491
G1 X102.792 Y83.156 E18.0068
G1 X102.955 Y82.578 E18.04107
G1 X103.337 Y81.914 E18.08478
G1 X103.178 Y81.687 E18.10059
G1 X102.741 Y80.878 E18.15306
G1 X102.415 Y79.92 E18.2108
G1 X102.255 Y78.944 E18.26723
G1 X102.252 Y77.941 E18.32446
G1 X102.417 Y76.965 E18.38094
G1 X102.743 Y76.01 E18.43852
G1 X103.178 Y75.206 E18.49068
G1 X103.336 Y74.979 E18.50646
G1 X102.951 Y74.311 E18.55045
G1 X102.815 Y73.814 E18.57985
G1 X102.784 Y73.645 E18.58966
G1 X102.784 Y72.848 E18.63513
G1 X103.034 Y72.162 E18.67679
G1 X103.396 Y71.603 E18.71479
G1 X104.025 Y71.073 E18.76172
G1 X104.849 Y70.775 E18.81172
G1 X105.626 Y70.77 E18.85606
G1 X106.098 Y70.873 E18.88362
G1 X106.316 Y70.959 E18.89699
G1 X106.876 Y71.286 E18.93399
G1 X107.363 Y71.749 E18.97234
G1 X107.756 Y72.428 E19.0171
G1 X108.028 Y72.405 E19.03268
G1 X108.93 Y72.43 E19.08416
G1 X109.916 Y72.619 E19.14145
G1 X110.862 Y72.968 E19.19898
G1 X111.713 Y73.461 E19.2551
G1 X112.504 Y74.105 E19.3133
G1 X113.169 Y74.867 E19.371
G1 X113.646 Y75.649 E19.42327
G1 X113.761 Y75.897 E19.43887
G1 X114.542 Y75.897 E19.48343
G1 X115.07 Y76.038 E19.51461
G1 X115.615 Y76.31 E19.54937
G1 X116.207 Y76.81 E19.59358
G1 X116.641 Y77.568 E19.64342
G1 X116.795 Y78.432 E19.6935
G1 X116.64 Y79.329 E19.74544
G1 X116.285 Y79.946 E19.78605
G0 F810 X116.198 Y80.097
G10
G0 F3600 X114.768 Y81.28
G0 X110.679 Y93.311
G0 X109.141 Y94.533
;TYPE:WALL-OUTER
G11
G1 F900 X110.846 Y94.349 E19.8839
G1 X112.51 Y93.991 E19.98102
G1 X114.156 Y93.449 E20.0799
G1 X115.712 Y92.741 E20.17744
G1 X117.187 Y91.869 E20.27521
G1 X118.562 Y90.852 E20.3728
G1 X119.827 Y89.683 E20.47108
G1 X120.956 Y88.393 E20.56889
G1 X121.941 Y86.991 E20.66666
G1 X122.771 Y85.491 E20.76447
G1 X123.441 Y83.897 E20.86313
G1 X123.932 Y82.267 E20.96027
G1 X124.25 Y80.583 E21.05805
G1 X124.388 Y78.874 E21.15588
G1 X124.349 Y77.383 E21.24098
G1 X124.342 Y77.161 E21.25366
G1 X124.114 Y75.46 E21.35158
G1 X123.711 Y73.811 E21.44844
G1 X123.125 Y72.183 E21.54717
G1 X122.375 Y70.64 E21.64506
G1 X121.467 Y69.189 E21.74273
G1 X120.406 Y67.838 E21.84074
G1 X119.21 Y66.61 E21.93855
G1 X117.892 Y65.517 E22.03625
G1 X116.464 Y64.569 E22.13405
G1 X114.939 Y63.777 E22.2321
G1 X113.329 Y63.146 E22.33077
G1 X111.689 Y62.702 E22.42771
G1 X109.993 Y62.429 E22.52573
G1 X108.284 Y62.338 E22.62338
G1 X106.576 Y62.429 E22.72097
G1 X104.88 Y62.702 E22.81899
G1 X103.239 Y63.148 E22.91602
G1 X101.629 Y63.777 E23.01465
G1 X100.105 Y64.568 E23.11262
G1 X98.677 Y65.517 E23.21045
G1 X97.359 Y66.61 E23.30815
G1 X96.161 Y67.84 E23.40612
G1 X95.102 Y69.189 E23.50398
G1 X94.194 Y70.64 E23.60164
G1 X93.444 Y72.185 E23.69964
G1 X92.858 Y73.811 E23.79826
G1 X92.455 Y75.464 E23.89534
G1 X92.227 Y77.163 E23.99315
G1 X92.181 Y78.876 E24.09093
G1 X92.319 Y80.583 E24.18864
G1 X92.637 Y82.267 E24.28643
G1 X93.128 Y83.897 E24.38356
G1 X93.798 Y85.491 E24.48222
G1 X94.628 Y86.991 E24.58004
G1 X95.613 Y88.393 E24.6778
G1 X96.742 Y89.683 E24.77562
G1 X98.007 Y90.852 E24.8739
G1 X99.382 Y91.869 E24.97148
G1 X100.857 Y92.741 E25.06925
G1 X102.413 Y93.449 E25.16679
G1 X104.059 Y93.993 E25.26571
G1 X105.723 Y94.349 E25.3628
G1 X107.428 Y94.533 E25.46065
G1 X108.966 Y94.533 E25.54841
G0 F810 X109.141 Y94.533
G0 F3600 X109.538 Y94.491
G0 X109.486 Y93.993
G0 X104.325 Y93.017
G0 X102.438 Y92.35
G0 X100.93 Y91.609
G0 X98.523 Y89.953
G0 X97.34 Y88.833
G0 X96.301 Y87.613
G0 X95.387 Y86.276
G0 X94.581 Y84.745
G0 X94.014 Y83.334
G0 X93.529 Y81.55
G0 X93.297 Y80.148
G0 X93.2 Y78.615
G0 X93.267 Y77.013
G0 X93.494 Y75.581
G0 X94.09 Y72.457
;TYPE:WALL-INNER
G1 F900 X93.529 Y74.013 E25.64278
G1 X93.144 Y75.594 E25.73563
G1 X92.926 Y77.219 E25.82918
G1 X92.882 Y78.857 E25.92268
G1 X93.013 Y80.489 E26.0161
G1 X93.318 Y82.101 E26.10971
G1 X93.788 Y83.66 E26.20262
G1 X94.429 Y85.185 E26.29701
G1 X95.222 Y86.619 E26.39051
G1 X96.165 Y87.96 E26.48405
G1 X97.244 Y89.194 E26.57758
G1 X98.454 Y90.312 E26.67158
G1 X99.769 Y91.285 E26.76491
G1 X101.181 Y92.119 E26.85849
G1 X102.669 Y92.796 E26.95176
G1 X104.243 Y93.317 E27.04637
G1 X105.834 Y93.657 E27.1392
G1 X107.466 Y93.833 E27.23286
G1 X109.103 Y93.833 E27.32626
G1 X110.735 Y93.657 E27.41992
G1 X112.326 Y93.315 E27.51277
G1 X113.901 Y92.796 E27.6074
G1 X115.388 Y92.119 E27.70062
G1 X116.8 Y91.285 E27.79419
G1 X118.115 Y90.312 E27.88753
G1 X119.325 Y89.194 E27.98153
G1 X120.404 Y87.96 E28.07506
G1 X121.347 Y86.619 E28.1686
G1 X122.14 Y85.185 E28.2621
G1 X122.781 Y83.66 E28.35649
G1 X123.251 Y82.101 E28.4494
G1 X123.555 Y80.489 E28.543
G1 X123.687 Y78.855 E28.63654
G1 X123.649 Y77.402 E28.71947
G1 X123.643 Y77.217 E28.73003
G1 X123.425 Y75.59 E28.8237
G1 X123.04 Y74.013 E28.91632
G1 X122.479 Y72.455 E29.01081
G1 X121.762 Y70.98 E29.10439
G1 X120.893 Y69.592 E29.19782
G1 X119.878 Y68.3 E29.29157
G1 X118.734 Y67.125 E29.38514
G1 X117.474 Y66.079 E29.47858
G1 X116.108 Y65.173 E29.57211
G1 X114.649 Y64.415 E29.66592
G1 X113.109 Y63.812 E29.76029
G1 X111.541 Y63.388 E29.85297
G1 X109.919 Y63.126 E29.94672
G1 X108.284 Y63.039 E30.04014
G1 X106.65 Y63.126 E30.13351
G1 X105.028 Y63.388 E30.22726
G1 X103.459 Y63.814 E30.32002
G1 X101.919 Y64.415 E30.41435
G1 X100.461 Y65.172 E30.50809
G1 X99.095 Y66.08 E30.60168
G1 X97.835 Y67.125 E30.69508
G1 X96.689 Y68.302 E30.78881
G1 X95.676 Y69.592 E30.8824
G1 X94.807 Y70.98 E30.97584
G1 X94.166 Y72.3 E31.05957
G0 F810 X94.09 Y72.457
G10
G0 F3600 X93.811 Y74.337
G0 X102.075 Y76.988
G0 X113.678 Y82.455
;TYPE:SKIN
G11
G1 F900 X112.969 Y83.269 E31.12116
G1 X112.113 Y83.969 E31.18425
G1 X111.149 Y84.528 E31.24784
G1 X110.102 Y84.914 E31.31151
G1 X109.049 Y85.122 E31.37275
G1 X108.12 Y85.152 E31.42579
G1 X107.824 Y85.619 E31.45734
G1 X107.415 Y86.032 E31.4905
G1 X106.593 Y86.563 E31.54634
G1 X105.761 Y86.772 E31.59529
G1 X105.312 Y86.808 E31.62099
G1 X104.459 Y86.717 E31.66994
G1 X104.375 Y86.691 E31.67495
G1 X103.612 Y86.322 E31.72331
