;FLAVOR:Marlin
;TIME:908
;Filament used: 1.49476m
;Layer height: 0.4
;MINX:86.469
;MINY:99.258
;MINZ:0.52
;MAXX:127.461
;MAXY:140.248
;MAXZ:20.92
;POSTPROCESSED
;Generated with Cura_SteamEngine 5.2.1
;
;

M82 ;absolute extrusion mode
M98 P0:/sys/startprint.g

G92 E0
G92 E0
G10
;LAYER_COUNT:52
;LAYER:0
M107
G0 F3600 X93.07 Y104.685 Z0.52
;TYPE:SKIRT
G11
G1 F450 X93.675 Y104.168 E0.04541
G1 X94.735 Y103.306 E0.12336
G1 X95.316 Y102.906 E0.16361
G1 X96.533 Y102.11 E0.24659
G1 X97.297 Y101.699 E0.29609
G1 X98.511 Y101.082 E0.37379
G1 X99.731 Y100.594 E0.44876
G1 X100.606 Y100.266 E0.50208
G1 X101.798 Y99.938 E0.57262
G1 X102.725 Y99.7 E0.62723
G1 X103.936 Y99.5 E0.69727
G1 X104.803 Y99.374 E0.74726
G1 X106.08 Y99.294 E0.82026
G1 X106.981 Y99.258 E0.87171
G1 X108.311 Y99.319 E0.94768
G1 X109.139 Y99.375 E0.99504
G1 X109.881 Y99.482 E1.03781
G1 X111.251 Y99.712 E1.11708
G1 X111.999 Y99.9 E1.16108
G1 X113.418 Y100.301 E1.24522
G1 X114.641 Y100.767 E1.3199
G1 X115.428 Y101.088 E1.36839
G1 X116.063 Y101.403 E1.40884
G1 X117.433 Y102.129 E1.49731
G1 X118.407 Y102.767 E1.56374
G1 X119.21 Y103.317 E1.61928
G1 X120.244 Y104.159 E1.69536
G1 X120.868 Y104.692 E1.74219
G1 X121.766 Y105.596 E1.81489
G1 X122.257 Y106.112 E1.85554
G1 X122.654 Y106.575 E1.89034
G1 X123.161 Y107.215 E1.93692
G1 X123.755 Y107.994 E1.99282
G1 X124.425 Y109.043 E2.06384
G1 X124.895 Y109.819 E2.11561
G1 X125.471 Y110.973 E2.1892
G1 X125.891 Y111.871 E2.24577
G1 X126.308 Y113.014 E2.31519
G1 X126.601 Y113.856 E2.36606
G1 X126.916 Y115.103 E2.43944
G1 X127.112 Y115.955 E2.48933
G1 X127.305 Y117.305 E2.56714
G1 X127.411 Y118.183 E2.6176
G1 X127.45 Y119.437 E2.68919
G1 X127.461 Y120.313 E2.73918
G1 X127.369 Y121.606 E2.81314
G1 X127.285 Y122.494 E2.86403
G1 X127.073 Y123.681 E2.93283
G1 X126.864 Y124.71 E2.99275
G1 X126.503 Y125.925 E3.06507
G1 X126.254 Y126.71 E3.11206
G1 X125.795 Y127.833 E3.18128
G1 X125.399 Y128.737 E3.23759
G1 X124.798 Y129.847 E3.30962
G1 X124.341 Y130.644 E3.36204
G1 X123.615 Y131.699 E3.43511
G1 X123.077 Y132.44 E3.48736
G1 X122.248 Y133.406 E3.55999
G1 X121.649 Y134.072 E3.6111
G1 X120.755 Y134.913 E3.68114
G1 X120.053 Y135.544 E3.73499
G1 X118.981 Y136.355 E3.81169
G1 X118.436 Y136.747 E3.85
G1 X117.949 Y137.063 E3.88312
G1 X117.182 Y137.519 E3.93404
G1 X116.408 Y137.961 E3.9849
G1 X115.204 Y138.52 E4.06064
G1 X114.353 Y138.89 E4.11359
G1 X113.167 Y139.288 E4.18497
G1 X112.359 Y139.543 E4.23331
G1 X111.109 Y139.826 E4.30644
G1 X110.373 Y139.974 E4.34927
G1 X109.614 Y140.081 E4.39301
G1 X108.064 Y140.235 E4.48189
G1 X107.3 Y140.248 E4.52549
G1 X106.065 Y140.238 E4.59596
G1 X105.479 Y140.203 E4.62945
G1 X104.546 Y140.106 E4.68297
G1 X103.642 Y139.996 E4.73494
G1 X102.426 Y139.741 E4.80583
G1 X101.579 Y139.545 E4.85543
G1 X100.702 Y139.268 E4.90791
G1 X99.496 Y138.856 E4.98063
G1 X98.269 Y138.312 E5.05721
G1 X97.688 Y138.039 E5.09384
G1 X97.17 Y137.764 E5.1273
G1 X96.323 Y137.268 E5.18331
G1 X95.491 Y136.753 E5.23914
G1 X94.581 Y136.081 E5.30369
G1 X93.876 Y135.542 E5.35432
G1 X93.359 Y135.082 E5.39381
G1 X92.207 Y133.999 E5.48403
G1 X91.401 Y133.083 E5.55365
G1 X90.833 Y132.417 E5.60359
G1 X90.354 Y131.755 E5.65021
G1 X89.591 Y130.65 E5.72683
G1 X89.162 Y129.901 E5.77608
G1 X88.536 Y128.748 E5.85094
G1 X88.186 Y127.954 E5.90046
G1 X87.741 Y126.872 E5.96721
G1 X87.494 Y126.148 E6.01086
G1 X87.048 Y124.627 E6.1013
G1 X86.866 Y123.731 E6.15347
G1 X86.643 Y122.486 E6.22564
G1 X86.536 Y121.298 E6.2937
G1 X86.469 Y120.29 E6.35134
G1 X86.49 Y119.097 E6.41942
G1 X86.531 Y118.085 E6.47721
G1 X86.675 Y116.932 E6.54351
G1 X86.817 Y115.972 E6.59888
G1 X86.968 Y115.296 E6.6384
G1 X87.333 Y113.849 E6.72355
G1 X87.757 Y112.638 E6.79677
G1 X88.083 Y111.773 E6.84951
G1 X88.638 Y110.605 E6.9233
G1 X89.024 Y109.836 E6.97239
G1 X89.436 Y109.154 E7.01786
G1 X90.176 Y107.993 E7.09641
G1 X90.648 Y107.37 E7.14101
G1 X91.538 Y106.256 E7.22237
G1 X92.385 Y105.369 E7.29235
G1 X92.947 Y104.808 E7.33766
G0 F405 X93.07 Y104.685
G0 F3600 X93.54 Y105.204
G1 F450 X94.117 Y104.711 E7.38096
G1 X95.055 Y103.948 E7.44995
G1 X95.626 Y103.541 E7.48996
G1 X96.888 Y102.714 E7.57605
G1 X97.614 Y102.323 E7.6231
G1 X98.804 Y101.718 E7.69928
G1 X99.977 Y101.249 E7.77136
G1 X100.815 Y100.935 E7.82242
G1 X101.972 Y100.615 E7.89091
G1 X102.852 Y100.389 E7.94276
G1 X104.037 Y100.193 E8.01129
G1 X104.875 Y100.071 E8.05961
G1 X106.108 Y99.994 E8.1301
G1 X106.988 Y99.959 E8.18035
G1 X108.188 Y100.013 E8.24889
G1 X109.074 Y100.073 E8.29956
G1 X109.765 Y100.172 E8.33939
G1 X111.104 Y100.397 E8.41686
G1 X111.926 Y100.605 E8.46524
G1 X113.2 Y100.966 E8.5408
G1 X114.303 Y101.386 E8.60814
G1 X115.144 Y101.728 E8.65994
G1 X115.834 Y102.072 E8.70394
G1 X117.07 Y102.728 E8.78378
G1 X118.082 Y103.392 E8.85284
G1 X118.786 Y103.875 E8.90156
G1 X119.789 Y104.691 E8.97533
G1 X120.385 Y105.2 E9.02005
G1 X121.323 Y106.145 E9.09603
G1 X121.749 Y106.594 E9.13134
G1 X122.105 Y107.01 E9.16258
G1 X122.65 Y107.699 E9.21271
G1 X123.18 Y108.395 E9.26263
G1 X123.826 Y109.406 E9.33108
G1 X124.284 Y110.162 E9.38152
G1 X124.837 Y111.27 E9.45218
G1 X125.247 Y112.147 E9.50741
G1 X125.647 Y113.244 E9.57404
G1 X125.928 Y114.051 E9.6228
G1 X126.233 Y115.26 E9.69394
G1 X126.425 Y116.092 E9.74266
G1 X126.61 Y117.389 E9.81742
G1 X126.712 Y118.232 E9.86587
G1 X126.75 Y119.446 E9.93517
G1 X126.761 Y120.295 E9.98362
G1 X126.679 Y121.46 E10.05026
G1 X126.591 Y122.401 E10.10418
G1 X126.384 Y123.558 E10.17125
G1 X126.183 Y124.544 E10.22866
G1 X125.836 Y125.714 E10.2983
G1 X125.598 Y126.466 E10.3433
G1 X125.147 Y127.568 E10.41124
G1 X124.768 Y128.433 E10.46513
G1 X124.233 Y129.424 E10.52939
G1 X123.754 Y130.261 E10.58441
G1 X123.049 Y131.287 E10.65544
G1 X122.532 Y131.999 E10.70565
G1 X121.727 Y132.938 E10.77622
G1 X121.148 Y133.582 E10.82564
G1 X120.275 Y134.403 E10.89402
G1 X119.606 Y135.004 E10.94533
G1 X118.572 Y135.787 E11.01933
G1 X118.027 Y136.179 E11.05764
G1 X117.591 Y136.462 E11.0873
G1 X116.835 Y136.911 E11.13747
G1 X116.079 Y137.343 E11.18715
G1 X115.001 Y137.844 E11.25498
G1 X114.108 Y138.234 E11.31058
G1 X112.957 Y138.62 E11.37985
G1 X112.167 Y138.869 E11.42711
G1 X111.054 Y139.122 E11.49224
G1 X110.108 Y139.313 E11.5473
G1 X109.428 Y139.398 E11.58641
G1 X108.032 Y139.536 E11.66645
G1 X107.306 Y139.548 E11.70788
G1 X106.071 Y139.538 E11.77835
G1 X105.55 Y139.506 E11.80813
G1 X104.631 Y139.411 E11.86085
G1 X103.959 Y139.329 E11.89948
G1 X103.461 Y139.244 E11.9283
G1 X102.584 Y139.059 E11.97944
G1 X101.755 Y138.868 E12.02799
G1 X101.002 Y138.63 E12.07305
G1 X99.744 Y138.201 E12.14888
G1 X98.566 Y137.678 E12.22243
G1 X97.985 Y137.405 E12.25905
G1 X97.523 Y137.16 E12.28889
G1 X96.739 Y136.702 E12.3407
G1 X95.891 Y136.179 E12.39755
G1 X95.006 Y135.525 E12.46034
G1 X94.319 Y135 E12.50967
G1 X93.754 Y134.495 E12.55291
G1 X92.712 Y133.513 E12.63461
G1 X91.934 Y132.629 E12.7018
G1 X91.38 Y131.979 E12.75053
G1 X90.93 Y131.357 E12.79434
G1 X90.181 Y130.273 E12.86952
G1 X89.777 Y129.567 E12.91593
G1 X89.165 Y128.44 E12.98911
G1 X88.868 Y127.768 E13.03103
G1 X88.336 Y126.477 E13.1107
G1 X88.132 Y125.841 E13.14881
G1 X87.729 Y124.46 E13.23089
G1 X87.555 Y123.608 E13.28051
G1 X87.339 Y122.402 E13.35042
G1 X87.227 Y121.155 E13.42186
G1 X87.169 Y120.278 E13.47201
G1 X87.192 Y119.028 E13.54334
G1 X87.229 Y118.15 E13.59348
G1 X87.38 Y116.942 E13.66295
G1 X87.505 Y116.099 E13.71157
G1 X87.672 Y115.36 E13.7548
G1 X88.001 Y114.061 E13.83126
G1 X88.412 Y112.885 E13.90234
G1 X88.73 Y112.043 E13.9537
G1 X89.23 Y110.988 E14.02032
G1 X89.638 Y110.174 E14.07227
G1 X90.027 Y109.53 E14.1152
G1 X90.755 Y108.387 E14.19252
G1 X91.138 Y107.88 E14.22878
G1 X92.069 Y106.712 E14.314
G1 X92.891 Y105.852 E14.38188
G1 X93.417 Y105.327 E14.42429
G0 F405 X93.54 Y105.204
G10
;MESH:pulley-motor-flatsmaller.STL
G0 F3600 X101.019 Y117.485
G0 X102.071 Y121.922
;TYPE:WALL-OUTER
G11
G1 F900 X101.782 Y121.093 E14.47438
G1 X101.636 Y120.232 E14.52421
G1 X101.633 Y119.322 E14.57613
G1 X101.777 Y118.449 E14.62662
G1 X102.071 Y117.601 E14.67783
G1 X102.475 Y116.855 E14.72624
G1 X102.859 Y116.353 E14.7623
G1 X102.278 Y115.343 E14.82878
G1 X102.172 Y114.947 E14.85217
G1 X102.142 Y114.596 E14.87227
G1 X102.252 Y113.974 E14.90832
G1 X102.548 Y113.457 E14.94231
G1 X102.836 Y113.169 E14.96555
G1 X103.357 Y112.869 E14.99985
G1 X103.992 Y112.757 E15.03664
G1 X104.632 Y112.872 E15.07374
G1 X105.155 Y113.173 E15.10818
G1 X105.488 Y113.499 E15.13477
G1 X106.066 Y114.503 E15.20087
G1 X106.633 Y114.423 E15.23354
G1 X107.54 Y114.443 E15.28531
G1 X108.388 Y114.605 E15.33457
G1 X109.228 Y114.914 E15.38564
G1 X109.989 Y115.349 E15.43565
G1 X110.688 Y115.918 E15.48708
G1 X111.267 Y116.58 E15.53726
G1 X111.73 Y117.329 E15.5875
G1 X111.969 Y117.912 E15.62346
G1 X113.131 Y117.912 E15.68976
G1 X113.584 Y118.04 E15.71662
G1 X114.107 Y118.341 E15.75105
G1 X114.523 Y118.839 E15.78807
G1 X114.735 Y119.426 E15.82368
G1 X114.739 Y120.05 E15.85929
G1 X114.725 Y120.123 E15.86353
G1 X114.524 Y120.67 E15.89678
G1 X114.318 Y120.969 E15.9175
G1 X113.841 Y121.362 E15.95276
G1 X113.552 Y121.498 E15.97099
G1 X113.133 Y121.612 E15.99577
G1 X111.969 Y121.612 E16.06218
G1 X111.73 Y122.195 E16.09813
G1 X111.282 Y122.922 E16.14686
G1 X110.713 Y123.581 E16.19654
G1 X110.023 Y124.152 E16.24764
G1 X109.246 Y124.602 E16.29887
G1 X108.396 Y124.918 E16.35062
G1 X107.535 Y125.082 E16.40063
G1 X106.633 Y125.101 E16.45211
G1 X106.066 Y125.021 E16.48478
G1 X105.491 Y126.02 E16.55055
G1 X105.207 Y126.309 E16.57367
G1 X104.697 Y126.625 E16.6079
G1 X104.151 Y126.752 E16.63989
G1 X103.775 Y126.75 E16.66134
G1 X103.2 Y126.589 E16.69541
G1 X102.693 Y126.234 E16.73073
G1 X102.347 Y125.761 E16.76417
G1 X102.227 Y125.472 E16.78202
G1 X102.139 Y124.871 E16.81668
G1 X102.283 Y124.172 E16.8574
G1 X102.859 Y123.171 E16.9233
G1 X102.506 Y122.716 E16.95616
G1 X102.155 Y122.075 E16.99785
G0 F810 X102.071 Y121.922
G0 F3600 X101.94 Y121.544
G0 X101.467 Y121.706
G0 X101.193 Y120.242
G0 X101.869 Y115.511
G0 X101.829 Y113.825
G0 X103.205 Y112.449
G0 X104.779 Y112.449
G0 X107.596 Y114.005
G0 X110.394 Y114.777
;TYPE:WALL-INNER
G1 F900 X111.185 Y115.421 E17.05605
G1 X111.847 Y116.18 E17.11352
G1 X112.327 Y116.963 E17.16592
G1 X112.442 Y117.212 E17.18157
G1 X113.216 Y117.212 E17.22574
G1 X113.83 Y117.374 E17.26197
G1 X114.467 Y117.743 E17.30397
G1 X114.656 Y117.908 E17.31829
G1 X115.134 Y118.473 E17.36052
G1 X115.439 Y119.316 E17.41167
G1 X115.437 Y120.106 E17.45675
G1 X115.395 Y120.325 E17.46947
G1 X115.171 Y120.951 E17.50741
G1 X114.842 Y121.442 E17.54113
G1 X114.249 Y121.94 E17.58531
G1 X113.805 Y122.151 E17.61336
G1 X113.22 Y122.312 E17.64798
G1 X112.442 Y122.312 E17.69238
G1 X112.326 Y122.561 E17.70805
G1 X111.848 Y123.342 E17.7603
G1 X111.17 Y124.114 E17.81892
G1 X110.405 Y124.743 E17.87543
G1 X109.536 Y125.24 E17.93255
G1 X108.6 Y125.592 E17.98961
G1 X107.629 Y125.779 E18.04603
G1 X106.711 Y125.804 E18.09843
G1 X106.437 Y125.781 E18.11412
G1 X106.053 Y126.446 E18.15794
G1 X105.661 Y126.842 E18.18973
G1 X104.989 Y127.269 E18.23516
G1 X104.301 Y127.436 E18.27556
G1 X103.673 Y127.443 E18.31139
G1 X103.064 Y127.278 E18.34739
G1 X102.819 Y127.173 E18.3626
G1 X102.321 Y126.832 E18.39704
G1 X102.133 Y126.653 E18.41185
G1 X101.758 Y126.145 E18.44788
G1 X101.561 Y125.689 E18.47622
G1 X101.425 Y124.844 E18.52506
G1 X101.618 Y123.923 E18.57875
G1 X102.017 Y123.229 E18.62443
G1 X101.859 Y123.002 E18.64021
G1 X101.434 Y122.212 E18.69139
G1 X101.095 Y121.232 E18.75056
G1 X100.935 Y120.259 E18.80683
G1 X100.932 Y119.265 E18.86354
G1 X101.097 Y118.283 E18.92036
G1 X101.435 Y117.309 E18.97919
G1 X101.859 Y116.521 E19.03024
G1 X102.017 Y116.295 E19.04598
G1 X101.63 Y115.621 E19.09032
G1 X101.487 Y115.093 E19.12154
G1 X101.442 Y114.519 E19.15439
G1 X101.58 Y113.746 E19.19919
G1 X101.964 Y113.071 E19.2435
G1 X102.37 Y112.63 E19.27771
G1 X103.117 Y112.201 E19.32686
G1 X103.827 Y112.075 E19.368
G1 X104.104 Y112.068 E19.38381
G1 X104.868 Y112.2 E19.42805
G1 X105.555 Y112.599 E19.47338
G1 X106.047 Y113.069 E19.51221
G1 X106.437 Y113.743 E19.55664
G1 X106.711 Y113.72 E19.57233
G1 X107.629 Y113.745 E19.62473
G1 X108.597 Y113.935 E19.68101
G1 X109.543 Y114.284 E19.73855
G1 X110.243 Y114.69 E19.78472
G0 F810 X110.394 Y114.777
G10
G0 F3600 X113.188 Y117.473
G0 X114.904 Y118.611
G0 X115.178 Y120.16
G0 X114.089 Y121.732
G0 X111.636 Y123.186
G0 X110.407 Y124.404
G0 X107.771 Y126.088
G0 X107.976 Y134.775
G0 X107.821 Y135.848
;TYPE:WALL-OUTER
G11
G1 F900 X109.527 Y135.665 E19.88262
G1 X111.19 Y135.306 E19.97969
G1 X112.837 Y134.764 E20.07863
G1 X114.393 Y134.056 E20.17617
G1 X115.868 Y133.184 E20.27394
G1 X117.243 Y132.167 E20.37152
G1 X118.508 Y130.998 E20.4698
G1 X119.636 Y129.709 E20.56754
G1 X120.621 Y128.307 E20.6653
G1 X121.452 Y126.806 E20.7632
G1 X122.121 Y125.212 E20.86183
G1 X122.612 Y123.582 E20.95897
G1 X122.931 Y121.898 E21.05676
G1 X123.068 Y120.189 E21.15459
G1 X123.029 Y118.696 E21.23981
G1 X123.022 Y118.475 E21.25242
G1 X122.795 Y116.775 E21.35028
G1 X122.391 Y115.126 E21.44716
G1 X121.805 Y113.498 E21.54588
G1 X121.055 Y111.955 E21.64377
G1 X120.148 Y110.504 E21.74141
G1 X119.087 Y109.153 E21.83943
G1 X117.891 Y107.925 E21.93723
G1 X116.572 Y106.832 E22.03498
G1 X115.144 Y105.885 E22.13275
G1 X113.62 Y105.093 E22.23074
G1 X112.01 Y104.462 E22.32941
G1 X110.37 Y104.017 E22.42637
G1 X108.674 Y103.745 E22.52438
G1 X106.965 Y103.653 E22.62204
G1 X105.256 Y103.745 E22.71969
G1 X103.561 Y104.017 E22.81764
G1 X101.92 Y104.464 E22.91469
G1 X100.31 Y105.093 E23.01331
G1 X98.786 Y105.884 E23.11129
G1 X97.358 Y106.832 E23.20909
G1 X96.039 Y107.925 E23.30683
G1 X94.841 Y109.155 E23.4048
G1 X93.783 Y110.504 E23.50262
G1 X92.875 Y111.955 E23.60029
G1 X92.125 Y113.5 E23.69828
G1 X91.539 Y115.126 E23.7969
G1 X91.136 Y116.779 E23.89398
G1 X90.908 Y118.478 E23.99179
G1 X90.862 Y120.191 E24.08957
G1 X90.999 Y121.898 E24.18728
G1 X91.318 Y123.582 E24.28507
G1 X91.809 Y125.212 E24.38221
G1 X92.478 Y126.806 E24.48085
G1 X93.309 Y128.307 E24.57874
G1 X94.294 Y129.709 E24.67651
G1 X95.423 Y130.998 E24.77428
G1 X96.688 Y132.167 E24.87256
G1 X98.062 Y133.184 E24.9701
G1 X99.537 Y134.056 E25.06786
G1 X101.094 Y134.764 E25.16546
G1 X102.741 Y135.308 E25.26443
G1 X104.403 Y135.665 E25.36142
G1 X106.109 Y135.848 E25.45932
G1 X107.646 Y135.848 E25.54702
G0 F810 X107.821 Y135.848
G0 F3600 X108.218 Y135.806
G0 X108.166 Y135.308
G0 X103.182 Y134.369
G0 X101.242 Y133.721
G0 X99.86 Y133.072
G0 X98.378 Y132.162
G0 X97.027 Y131.105
G0 X94.981 Y128.928
G0 X93.979 Y127.432
G0 X93.304 Y126.16
G0 X92.695 Y124.65
G0 X92.211 Y122.868
G0 X91.978 Y121.464
G0 X91.881 Y119.932
G0 X91.948 Y118.328
G0 X92.176 Y116.896
G0 X92.771 Y113.772
;TYPE:WALL-INNER
G1 F900 X92.21 Y115.328 E25.6414
G1 X91.825 Y116.909 E25.73425
G1 X91.606 Y118.534 E25.8278
G1 X91.563 Y120.172 E25.9213
G1 X91.694 Y121.804 E26.01472
G1 X91.999 Y123.415 E26.10827
G1 X92.469 Y124.975 E26.20124
G1 X93.109 Y126.5 E26.2956
G1 X93.903 Y127.935 E26.38918
G1 X94.846 Y129.276 E26.48272
G1 X95.925 Y130.509 E26.57621
G1 X97.135 Y131.627 E26.67021
G1 X98.449 Y132.6 E26.7635
G1 X99.861 Y133.434 E26.85707
G1 X101.35 Y134.111 E26.9504
G1 X102.925 Y134.632 E27.04506
G1 X104.514 Y134.973 E27.13779
G1 X106.146 Y135.148 E27.23144
G1 X107.784 Y135.148 E27.3249
G1 X109.416 Y134.973 E27.41856
G1 X111.006 Y134.63 E27.51137
G1 X112.582 Y134.111 E27.60604
G1 X114.069 Y133.434 E27.69927
G1 X115.481 Y132.6 E27.79284
G1 X116.796 Y131.627 E27.88618
G1 X118.006 Y130.509 E27.98018
G1 X119.084 Y129.276 E28.07363
G1 X120.027 Y127.935 E28.16717
G1 X120.821 Y126.5 E28.26075
G1 X121.461 Y124.975 E28.35511
G1 X121.931 Y123.415 E28.44808
G1 X122.236 Y121.804 E28.54163
G1 X122.367 Y120.171 E28.63511
G1 X122.329 Y118.715 E28.71821
G1 X122.323 Y118.531 E28.72872
G1 X122.106 Y116.905 E28.82232
G1 X121.72 Y115.328 E28.91496
G1 X121.159 Y113.77 E29.00944
G1 X120.442 Y112.295 E29.10302
G1 X119.574 Y110.907 E29.19643
G1 X118.559 Y109.615 E29.29018
G1 X117.415 Y108.44 E29.38375
G1 X116.154 Y107.395 E29.47719
G1 X114.788 Y106.489 E29.57072
G1 X113.33 Y105.731 E29.66448
G1 X111.79 Y105.128 E29.75885
G1 X110.222 Y104.703 E29.85155
