;FLAVOR:Marlin
;TIME:905
;Filament used: 1.49435m
;Layer height: 0.4
;MINX:43.118
;MINY:57.944
;MINZ:0.52
;MAXX:84.11
;MAXY:98.933
;MAXZ:20.92
;POSTPROCESSED
;Generated with Cura_SteamEngine 5.2.1
;
;

M82 ;absolute extrusion mode
M98 P0:/sys/startprint.g

G92 E0
G92 E0
G10
;LAYER_COUNT:52
;LAYER:0
M107
G0 F3600 X50.638 Y62.594 Z0.52
;TYPE:SKIRT
G11
G1 F450 X51.268 Y62.086 E0.04618
G1 X51.727 Y61.752 E0.07857
G1 X52.46 Y61.263 E0.12884
G1 X53.214 Y60.776 E0.18006
G1 X54.303 Y60.197 E0.25043
G1 X55.164 Y59.766 E0.30537
G1 X55.889 Y59.47 E0.35006
G1 X57.163 Y58.983 E0.42788
G1 X58.368 Y58.643 E0.49932
G1 X59.315 Y58.399 E0.55512
G1 X60.483 Y58.2 E0.62272
G1 X61.44 Y58.058 E0.67793
G1 X62.779 Y57.976 E0.75447
G1 X63.616 Y57.944 E0.80226
G1 X64.947 Y58.002 E0.87828
G1 X65.799 Y58.06 E0.92701
G1 X67.018 Y58.244 E0.99735
G1 X67.926 Y58.402 E1.04994
G1 X68.597 Y58.571 E1.08942
G1 X70.046 Y58.978 E1.1753
G1 X70.68 Y59.212 E1.21386
G1 X72.068 Y59.767 E1.29915
G1 X72.81 Y60.137 E1.34646
G1 X74.009 Y60.773 E1.4239
G1 X75.123 Y61.498 E1.49974
G1 X75.933 Y62.054 E1.5558
G1 X76.889 Y62.841 E1.62645
G1 X77.512 Y63.373 E1.6732
G1 X78.415 Y64.281 E1.74627
G1 X78.906 Y64.797 E1.78691
G1 X79.303 Y65.26 E1.82171
G1 X79.81 Y65.9 E1.8683
G1 X80.406 Y66.681 E1.92435
G1 X81.094 Y67.761 E1.99742
G1 X81.544 Y68.504 E2.04698
G1 X82.12 Y69.658 E2.12057
G1 X82.54 Y70.556 E2.17714
G1 X82.957 Y71.699 E2.24656
G1 X83.25 Y72.541 E2.29743
G1 X83.565 Y73.788 E2.37082
G1 X83.76 Y74.634 E2.42036
G1 X83.943 Y75.904 E2.49357
G1 X84.051 Y76.8 E2.54506
G1 X84.086 Y77.633 E2.59264
G1 X84.11 Y78.964 E2.66859
G1 X84.068 Y79.668 E2.70883
G1 X83.936 Y81.166 E2.79464
G1 X83.722 Y82.366 E2.86419
G1 X83.515 Y83.384 E2.92346
G1 X83.177 Y84.527 E2.99147
G1 X82.895 Y85.418 E3.0448
G1 X82.395 Y86.633 E3.11977
G1 X82.049 Y87.42 E3.16882
G1 X81.438 Y88.547 E3.24197
G1 X80.942 Y89.412 E3.29886
G1 X80.226 Y90.438 E3.37025
G1 X79.755 Y91.089 E3.4161
G1 X78.91 Y92.076 E3.49023
G1 X78.306 Y92.749 E3.54183
G1 X77.409 Y93.594 E3.61215
G1 X76.693 Y94.236 E3.66702
G1 X76.073 Y94.712 E3.71162
G1 X75.108 Y95.416 E3.77977
G1 X74.598 Y95.748 E3.8145
G1 X73.831 Y96.204 E3.86541
G1 X73.057 Y96.646 E3.91627
G1 X71.853 Y97.205 E3.99201
G1 X71.002 Y97.575 E4.04496
G1 X69.816 Y97.973 E4.11634
G1 X69.002 Y98.229 E4.16503
G1 X67.836 Y98.494 E4.23325
G1 X67.024 Y98.657 E4.28051
G1 X66.46 Y98.743 E4.31306
G1 X65.555 Y98.842 E4.36501
G1 X64.637 Y98.927 E4.41761
G1 X63.387 Y98.933 E4.48894
G1 X62.445 Y98.92 E4.54269
G1 X61.165 Y98.787 E4.61612
G1 X60.261 Y98.676 E4.66809
G1 X59.152 Y98.443 E4.73275
G1 X58.213 Y98.226 E4.78774
G1 X57.005 Y97.838 E4.86013
G1 X56.162 Y97.547 E4.91102
G1 X55.407 Y97.219 E4.95799
G1 X54.15 Y96.635 E5.03707
G1 X53.521 Y96.278 E5.07834
G1 X52.287 Y95.536 E5.1605
G1 X51.72 Y95.131 E5.20026
G1 X50.537 Y94.238 E5.28483
G1 X49.913 Y93.679 E5.33263
G1 X48.913 Y92.739 E5.41094
G1 X48.045 Y91.762 E5.48551
G1 X47.477 Y91.094 E5.53554
G1 X46.715 Y90.028 E5.61031
G1 X46.224 Y89.31 E5.65994
G1 X45.625 Y88.25 E5.72941
G1 X45.184 Y87.43 E5.78254
G1 X44.653 Y86.205 E5.85872
G1 X44.383 Y85.539 E5.89972
G1 X44.143 Y84.833 E5.94227
G1 X43.692 Y83.294 E6.03378
G1 X43.427 Y81.945 E6.11222
G1 X43.276 Y81.065 E6.16317
G1 X43.172 Y79.821 E6.2344
G1 X43.118 Y78.992 E6.2818
G1 X43.126 Y78.246 E6.32437
G1 X43.178 Y76.783 E6.4079
G1 X43.343 Y75.483 E6.48267
G1 X43.469 Y74.637 E6.53147
G1 X43.748 Y73.441 E6.60154
G1 X43.987 Y72.52 E6.65584
G1 X44.406 Y71.323 E6.7282
G1 X44.732 Y70.458 E6.78094
G1 X45.287 Y69.29 E6.85473
G1 X45.673 Y68.521 E6.90383
G1 X46.085 Y67.839 E6.94929
G1 X46.834 Y66.663 E7.02884
G1 X47.602 Y65.668 E7.10056
G1 X48.185 Y64.946 E7.15351
G1 X49.104 Y63.983 E7.22947
G1 X49.72 Y63.368 E7.27913
G1 X50.505 Y62.706 E7.33772
G0 F405 X50.638 Y62.594
G0 F3600 X51.089 Y63.129
G1 F450 X51.936 Y62.454 E7.39952
G1 X52.84 Y61.851 E7.46153
G1 X53.569 Y61.38 E7.51105
G1 X54.632 Y60.815 E7.57974
G1 X55.451 Y60.405 E7.632
G1 X56.139 Y60.124 E7.6744
G1 X57.383 Y59.648 E7.7504
G1 X58.635 Y59.296 E7.82461
G1 X59.465 Y59.083 E7.8735
G1 X60.6 Y58.89 E7.93919
G1 X61.514 Y58.756 E7.9919
G1 X62.806 Y58.675 E8.06577
G1 X63.612 Y58.644 E8.11179
G1 X64.816 Y58.696 E8.18055
G1 X65.732 Y58.758 E8.23294
G1 X66.914 Y58.936 E8.30114
G1 X67.786 Y59.089 E8.35166
G1 X68.426 Y59.25 E8.38931
G1 X69.831 Y59.645 E8.47259
G1 X70.525 Y59.903 E8.51483
G1 X71.786 Y60.409 E8.59236
G1 X72.401 Y60.714 E8.63153
G1 X73.659 Y61.381 E8.71278
G1 X74.727 Y62.075 E8.78545
G1 X75.505 Y62.609 E8.83929
G1 X76.435 Y63.374 E8.908
G1 X77.031 Y63.882 E8.95269
G1 X77.972 Y64.83 E9.0289
G1 X78.398 Y65.279 E9.06422
G1 X78.754 Y65.695 E9.09546
G1 X79.299 Y66.384 E9.14558
G1 X79.834 Y67.086 E9.19595
G1 X80.454 Y68.057 E9.26168
G1 X80.933 Y68.847 E9.3144
G1 X81.486 Y69.955 E9.38505
G1 X81.896 Y70.832 E9.44029
G1 X82.296 Y71.929 E9.50692
G1 X82.577 Y72.736 E9.55568
G1 X82.882 Y73.945 E9.62682
G1 X83.075 Y74.782 E9.67583
G1 X83.248 Y75.988 E9.74535
G1 X83.353 Y76.857 E9.79529
G1 X83.384 Y77.56 E9.83544
G1 X83.41 Y78.95 E9.91477
G1 X83.362 Y79.724 E9.95902
G1 X83.242 Y81.074 E10.03635
G1 X83.033 Y82.243 E10.10411
G1 X82.834 Y83.222 E10.16111
G1 X82.51 Y84.316 E10.22622
G1 X82.237 Y85.178 E10.27781
G1 X81.786 Y86.277 E10.34559
G1 X81.419 Y87.114 E10.39774
G1 X80.872 Y88.126 E10.46338
G1 X80.353 Y89.032 E10.52295
G1 X79.658 Y90.027 E10.5922
G1 X79.196 Y90.666 E10.6372
G1 X78.389 Y91.608 E10.70797
G1 X77.804 Y92.259 E10.75791
G1 X76.865 Y93.144 E10.83154
G1 X76.26 Y93.686 E10.87788
G1 X75.731 Y94.093 E10.91597
G1 X74.5 Y94.992 E11.00294
G1 X73.484 Y95.596 E11.07039
G1 X72.728 Y96.028 E11.12007
G1 X71.65 Y96.529 E11.1879
G1 X70.757 Y96.919 E11.2435
G1 X69.606 Y97.305 E11.31277
G1 X68.819 Y97.553 E11.35985
G1 X67.597 Y97.829 E11.43133
G1 X66.887 Y97.971 E11.47264
G1 X66.383 Y98.047 E11.50173
G1 X65.49 Y98.145 E11.55299
G1 X64.603 Y98.227 E11.60381
G1 X63.397 Y98.233 E11.67263
G1 X62.482 Y98.22 E11.72484
G1 X61.25 Y98.092 E11.79551
G1 X60.373 Y97.984 E11.84593
G1 X59.296 Y97.758 E11.90872
G1 X58.391 Y97.548 E11.96173
G1 X57.307 Y97.201 E12.02668
G1 X56.405 Y96.889 E12.08114
G1 X55.702 Y96.584 E12.12486
G1 X54.474 Y96.013 E12.20213
G1 X53.867 Y95.669 E12.24194
G1 X52.685 Y94.959 E12.32062
G1 X52.057 Y94.51 E12.36467
G1 X50.982 Y93.698 E12.44154
G1 X50.392 Y93.169 E12.48675
G1 X49.423 Y92.258 E12.56264
G1 X48.578 Y91.309 E12.63514
G1 X48.034 Y90.67 E12.68303
G1 X47.293 Y89.633 E12.75575
G1 X46.82 Y88.94 E12.80362
G1 X46.2 Y87.842 E12.87557
G1 X45.814 Y87.123 E12.92214
G1 X45.301 Y85.942 E12.99561
G1 X45.031 Y85.276 E13.03661
G1 X44.809 Y84.617 E13.07629
G1 X44.373 Y83.13 E13.16471
G1 X44.117 Y81.826 E13.24053
G1 X43.972 Y80.98 E13.28951
G1 X43.871 Y79.776 E13.35845
G1 X43.819 Y78.965 E13.40482
G1 X43.828 Y78.165 E13.45047
G1 X43.876 Y76.84 E13.52612
G1 X44.035 Y75.586 E13.59824
G1 X44.156 Y74.775 E13.64503
G1 X44.45 Y73.518 E13.71869
G1 X44.655 Y72.731 E13.76509
G1 X45.061 Y71.57 E13.83527
G1 X45.379 Y70.728 E13.88663
G1 X45.879 Y69.673 E13.95324
G1 X46.287 Y68.859 E14.0052
G1 X46.676 Y68.215 E14.04812
G1 X47.411 Y67.061 E14.12619
G1 X48.203 Y66.036 E14.2001
G1 X48.707 Y65.413 E14.24583
G1 X49.541 Y64.538 E14.3148
G1 X50.202 Y63.877 E14.36814
G1 X50.956 Y63.241 E14.42442
G0 F405 X51.089 Y63.129
G10
;MESH:pulley-motor-flatsmaller.STL
G0 F3600 X57.83 Y73.916
G0 X62.715 Y83.706
;TYPE:WALL-OUTER
G11
G1 F900 X62.14 Y84.705 E14.49019
G1 X61.854 Y84.996 E14.51347
G1 X61.347 Y85.31 E14.5475
G1 X60.739 Y85.447 E14.58306
G1 X60.134 Y85.382 E14.61778
G1 X59.608 Y85.13 E14.65106
G1 X59.325 Y84.895 E14.67205
G1 X58.981 Y84.426 E14.70523
G1 X58.807 Y83.848 E14.73968
G1 X58.82 Y83.257 E14.7734
G1 X58.934 Y82.853 E14.79736
G1 X59.508 Y81.856 E14.863
G1 X59.155 Y81.401 E14.89586
G1 X58.723 Y80.614 E14.94708
G1 X58.431 Y79.778 E14.99761
G1 X58.285 Y78.917 E15.04744
G1 X58.282 Y78.007 E15.09936
G1 X58.426 Y77.134 E15.14985
G1 X58.709 Y76.312 E15.19945
G1 X59.155 Y75.492 E15.25271
G1 X59.508 Y75.037 E15.28557
G1 X58.928 Y74.03 E15.35188
G1 X58.821 Y73.632 E15.37539
G1 X58.791 Y73.281 E15.3955
G1 X58.901 Y72.659 E15.43154
G1 X59.22 Y72.1 E15.46826
G1 X59.719 Y71.687 E15.50522
G1 X60.316 Y71.47 E15.54146
G1 X60.92 Y71.469 E15.57593
G1 X61.318 Y71.577 E15.59946
G1 X61.806 Y71.86 E15.63165
G1 X62.131 Y72.174 E15.65743
G1 X62.715 Y73.187 E15.72415
G1 X63.34 Y73.105 E15.76012
G1 X64.224 Y73.132 E15.81058
G1 X65.095 Y73.305 E15.86125
G1 X65.877 Y73.598 E15.9089
G1 X66.638 Y74.033 E15.95891
G1 X67.337 Y74.603 E16.01038
G1 X67.916 Y75.264 E16.06052
G1 X68.379 Y76.014 E16.11081
G1 X68.618 Y76.597 E16.14676
G1 X69.784 Y76.597 E16.21329
G1 X70.165 Y76.698 E16.23578
G1 X70.523 Y76.868 E16.25839
G1 X70.957 Y77.234 E16.29079
G1 X71.174 Y77.532 E16.31182
G1 X71.384 Y78.111 E16.34696
G1 X71.388 Y78.769 E16.38451
G1 X71.173 Y79.355 E16.42013
G1 X70.967 Y79.654 E16.44084
G1 X70.49 Y80.047 E16.47611
G1 X70.201 Y80.183 E16.49433
G1 X69.782 Y80.297 E16.51911
G1 X68.618 Y80.297 E16.58553
G1 X68.379 Y80.879 E16.62142
G1 X67.933 Y81.606 E16.67009
G1 X67.362 Y82.266 E16.71989
G1 X66.672 Y82.837 E16.77099
G1 X65.895 Y83.287 E16.82222
G1 X65.081 Y83.593 E16.87184
G1 X64.184 Y83.767 E16.92398
G1 X63.282 Y83.786 E16.97546
G1 X62.888 Y83.73 E16.99816
G0 F810 X62.715 Y83.706
G0 F3600 X62.516 Y84.052
G10
G0 X62.947 Y84.301
G0 X62.893 Y93.483
G0 X64.47 Y94.533
G11
G1 F900 X66.176 Y94.349 E17.09607
G1 X67.839 Y93.991 E17.19313
G1 X69.486 Y93.449 E17.29207
G1 X71.042 Y92.741 E17.38961
G1 X72.517 Y91.869 E17.48738
G1 X73.892 Y90.852 E17.58496
G1 X75.157 Y89.683 E17.68324
G1 X76.285 Y88.393 E17.78102
G1 X77.271 Y86.991 E17.87882
G1 X78.101 Y85.491 E17.97663
G1 X78.771 Y83.897 E18.07529
G1 X79.261 Y82.267 E18.17241
G1 X79.58 Y80.583 E18.2702
G1 X79.717 Y78.874 E18.36803
G1 X79.679 Y77.384 E18.45308
G1 X79.672 Y77.16 E18.46586
G1 X79.444 Y75.461 E18.56367
G1 X79.04 Y73.811 E18.6606
G1 X78.454 Y72.183 E18.75933
G1 X77.704 Y70.64 E18.85722
G1 X76.797 Y69.189 E18.95486
G1 X75.736 Y67.838 E19.05287
G1 X74.54 Y66.61 E19.15068
G1 X73.221 Y65.517 E19.24842
G1 X71.792 Y64.569 E19.34627
G1 X70.269 Y63.777 E19.44422
G1 X68.659 Y63.146 E19.54289
G1 X67.019 Y62.702 E19.63983
G1 X65.323 Y62.429 E19.73785
G1 X63.614 Y62.338 E19.8355
G1 X61.905 Y62.429 E19.93315
G1 X60.21 Y62.702 E20.03111
G1 X58.569 Y63.148 E20.12814
G1 X56.959 Y63.777 E20.22677
G1 X55.435 Y64.568 E20.32474
G1 X54.007 Y65.517 E20.42257
G1 X52.689 Y66.61 E20.52027
G1 X51.491 Y67.84 E20.61824
G1 X50.432 Y69.189 E20.7161
G1 X49.524 Y70.64 E20.81377
G1 X48.774 Y72.185 E20.91176
G1 X48.188 Y73.811 E21.01038
G1 X47.785 Y75.464 E21.10746
G1 X47.557 Y77.163 E21.20527
G1 X47.511 Y78.876 E21.30305
G1 X47.649 Y80.583 E21.40076
G1 X47.967 Y82.267 E21.49855
G1 X48.458 Y83.897 E21.59568
G1 X49.127 Y85.491 E21.69432
G1 X49.958 Y86.991 E21.79216
G1 X50.943 Y88.393 E21.88993
G1 X52.072 Y89.683 E21.98774
G1 X53.337 Y90.852 E22.08602
G1 X54.711 Y91.869 E22.18356
G1 X56.187 Y92.741 E22.28138
G1 X57.743 Y93.449 E22.37892
G1 X59.389 Y93.993 E22.47784
G1 X61.052 Y94.349 E22.57488
G1 X62.758 Y94.533 E22.67278
G1 X64.295 Y94.533 E22.76048
G0 F810 X64.47 Y94.533
G0 F3600 X64.867 Y94.491
G10
G0 X64.815 Y93.993
G0 X62.815 Y93.483
G0 X61.219 Y86.418
G0 X58.614 Y71.753
;TYPE:WALL-INNER
G11
G1 F900 X58.815 Y71.527 E22.77774
G1 X59.354 Y71.075 E22.81788
G1 X60.179 Y70.775 E22.86797
G1 X60.956 Y70.77 E22.9123
G1 X61.427 Y70.873 E22.93981
G1 X61.646 Y70.959 E22.95324
G1 X62.206 Y71.286 E22.99024
G1 X62.693 Y71.749 E23.02858
G1 X63.086 Y72.428 E23.07334
G1 X63.358 Y72.405 E23.08892
G1 X64.26 Y72.43 E23.1404
G1 X64.356 Y72.444 E23.14594
G1 X65.246 Y72.619 E23.1977
G1 X66.192 Y72.968 E23.25523
G1 X67.043 Y73.461 E23.31135
G1 X67.834 Y74.106 E23.36958
G1 X68.486 Y74.853 E23.42616
G1 X68.976 Y75.648 E23.47944
G1 X69.091 Y75.897 E23.49509
G1 X69.872 Y75.897 E23.53965
G1 X70.399 Y76.038 E23.57078
G1 X70.945 Y76.31 E23.60559
G1 X71.451 Y76.738 E23.6434
G1 X71.797 Y77.196 E23.67615
G1 X72.088 Y78.001 E23.725
G1 X72.086 Y78.886 E23.77549
G1 X71.818 Y79.642 E23.82126
G1 X71.492 Y80.127 E23.8546
G1 X70.895 Y80.626 E23.899
G1 X70.454 Y80.836 E23.92687
G1 X69.867 Y80.997 E23.9616
G1 X69.091 Y80.997 E24.00588
G1 X68.976 Y81.245 E24.02148
G1 X68.505 Y82.01 E24.07274
G1 X67.851 Y82.773 E24.13008
G1 X67.054 Y83.428 E24.18894
G1 X66.185 Y83.925 E24.24606
G1 X65.251 Y84.276 E24.30299
G1 X64.277 Y84.464 E24.35959
G1 X63.36 Y84.489 E24.41193
G1 X63.086 Y84.466 E24.42762
G1 X62.702 Y85.131 E24.47144
G1 X62.308 Y85.528 E24.50335
G1 X61.607 Y85.975 E24.55079
G1 X60.764 Y86.153 E24.59995
G1 X59.94 Y86.065 E24.64724
G1 X59.252 Y85.733 E24.69082
G1 X58.783 Y85.339 E24.72577
G1 X58.403 Y84.825 E24.76225
G1 X58.299 Y84.588 E24.77702
G1 X58.112 Y83.934 E24.81583
G1 X58.12 Y83.164 E24.85976
G1 X58.285 Y82.578 E24.8945
G1 X58.666 Y81.914 E24.93818
G1 X58.508 Y81.687 E24.95396
G1 X58.075 Y80.888 E25.00582
G1 X57.744 Y79.918 E25.0643
G1 X57.584 Y78.944 E25.12062
G1 X57.581 Y77.95 E25.17733
G1 X57.746 Y76.968 E25.23415
G1 X58.072 Y76.011 E25.29184
G1 X58.508 Y75.206 E25.34407
G1 X58.666 Y74.979 E25.35986
G1 X58.28 Y74.308 E25.40402
G1 X58.136 Y73.778 E25.43536
G1 X58.091 Y73.204 E25.46821
G1 X58.229 Y72.431 E25.51302
G1 X58.528 Y71.905 E25.54754
G0 F810 X58.614 Y71.753
G10
G0 F3600 X57.781 Y73.055
G0 X50.354 Y71.336
G0 X49.42 Y72.457
G11
G1 F900 X48.859 Y74.013 E25.64192
G1 X48.474 Y75.594 E25.73476
G1 X48.255 Y77.219 E25.82832
G1 X48.212 Y78.857 E25.92182
G1 X48.344 Y80.489 E26.01524
G1 X48.648 Y82.101 E26.10884
G1 X49.118 Y83.66 E26.20175
G1 X49.758 Y85.185 E26.29612
G1 X50.552 Y86.619 E26.38964
G1 X51.495 Y87.96 E26.48318
G1 X52.574 Y89.194 E26.57672
G1 X53.784 Y90.312 E26.67072
G1 X55.098 Y91.285 E26.76401
G1 X56.511 Y92.119 E26.85763
G1 X57.999 Y92.796 E26.95091
G1 X59.573 Y93.317 E27.04551
G1 X61.163 Y93.657 E27.13828
G1 X62.796 Y93.833 E27.232
G1 X64.432 Y93.833 E27.32535
G1 X66.065 Y93.657 E27.41906
G1 X67.655 Y93.315 E27.51186
G1 X69.231 Y92.796 E27.60654
G1 X70.718 Y92.119 E27.69976
G1 X72.13 Y91.285 E27.79333
G1 X73.445 Y90.312 E27.88667
G1 X74.655 Y89.194 E27.98067
G1 X75.733 Y87.96 E28.07417
G1 X76.677 Y86.619 E28.16774
G1 X77.47 Y85.185 E28.26124
G1 X78.111 Y83.66 E28.35563
G1 X78.58 Y82.101 E28.44852
G1 X78.885 Y80.489 E28.54213
G1 X79.016 Y78.855 E28.63566
G1 X78.979 Y77.402 E28.7186
G1 X78.973 Y77.216 E28.72922
G1 X78.755 Y75.591 E28.82277
G1 X78.369 Y74.013 E28.91546
G1 X77.808 Y72.455 E29.00994
G1 X77.091 Y70.98 E29.10352
G1 X76.223 Y69.592 E29.19693
G1 X75.208 Y68.3 E29.29068
G1 X74.064 Y67.125 E29.38425
G1 X72.803 Y66.079 E29.47773
G1 X71.436 Y65.173 E29.57131
G1 X69.979 Y64.415 E29.66502
G1 X68.439 Y63.812 E29.75939
G1 X66.871 Y63.388 E29.85207
G1 X65.249 Y63.126 E29.94582
G1 X63.614 Y63.039 E30.03924
G1 X61.979 Y63.126 E30.13266
G1 X60.358 Y63.388 E30.22636
G1 X58.789 Y63.814 E30.31912
G1 X57.249 Y64.415 E30.41345
G1 X55.791 Y65.172 E30.50718
G1 X54.425 Y66.079 E30.60074
G1 X53.165 Y67.125 E30.69418
G1 X52.019 Y68.302 E30.78792
G1 X51.006 Y69.592 E30.8815
G1 X50.137 Y70.98 E30.97494
G1 X49.496 Y72.3 E31.05867
G0 F810 X49.42 Y72.457
G10
G0 F3600 X50.354 Y71.336
G0 X57.849 Y72.674
G0 X57.609 Y74.392
;TYPE:SKIN
G11
G1 F900 X57.484 Y73.918 E31.08664
G1 X57.423 Y73.16 E31.13003
G1 X57.565 Y72.359 E31.17645
G1 X57.69 Y72.025 E31.1968
G1 X58.16 Y71.21 E31.25048
G1 X59.015 Y70.492 E31.31418
G1 X59.786 Y70.207 E31.36108
G1 X60.23 Y70.105 E31.38708
G1 X60.986 Y70.105 E31.43021
G1 X61.373 Y70.17 E31.45261
G1 X61.961 Y70.372 E31.48808
G1 X62.644 Y70.772 E31.53324
G1 X62.69 Y70.809 E31.53661
G1 X63.157 Y71.273 E31.57417
G1 X63.448 Y71.741 E31.60562
G1 X64.322 Y71.765 E31.65551
G1 X65.454 Y71.978 E31.72123
G1 X66.472 Y72.363 E31.78333
G1 X67.44 Y72.922 E31.84711
G1 X68.273 Y73.603 E31.90851
G1 X69.046 Y74.488 E31.97555
G1 X69.507 Y75.238 E32.02578
G1 X70.066 Y75.26 E32.0577
G1 X70.612 Y75.406 E32.08995
G1 X71.33 Y75.764 E32.13573
G1 X71.918 Y76.264 E32.17977
G1 X72.384 Y76.868 E32.2233
G1 X72.65 Y77.59 E32.2672
G1 X72.748 Y77.981 E32.2902
G1 X72.75 Y78.843 E32.33939
G1 X72.702 Y79.137 E32.35639
G1 X72.421 Y79.926 E32.40417
G1 X71.992 Y80.576 E32.44861
G1 X71.236 Y81.2 E32.50454
