;FLAVOR:Marlin
;TIME:905
;Filament used: 1.49441m
;Layer height: 0.4
;MINX:152.479
;MINY:8.829
;MINZ:0.52
;MAXX:193.471
;MAXY:49.819
;MAXZ:20.92
;POSTPROCESSED
;Generated with Cura_SteamEngine 5.2.1
;
;

M82 ;absolute extrusion mode
M98 P0:/sys/startprint.g

G92 E0
G92 E0
G10
;LAYER_COUNT:52
;LAYER:0
M107
G0 F3600 X152.827 Y25.535 Z0.52
;TYPE:SKIRT
G11
G1 F450 X152.982 Y24.844 E0.04041
G1 X153.139 Y24.201 E0.07817
G1 X153.36 Y23.36 E0.12779
G1 X153.733 Y22.297 E0.19207
G1 X154.093 Y21.341 E0.25036
G1 X154.629 Y20.216 E0.32146
G1 X155.053 Y19.373 E0.3753
G1 X155.739 Y18.257 E0.45005
G1 X156.191 Y17.557 E0.49759
G1 X157.03 Y16.469 E0.57599
G1 X157.538 Y15.839 E0.62216
G1 X158.453 Y14.881 E0.69775
G1 X159.067 Y14.267 E0.7473
G1 X159.616 Y13.797 E0.78854
G1 X160.744 Y12.879 E0.87152
G1 X161.352 Y12.46 E0.91365
G1 X162.537 Y11.685 E0.99444
G1 X163.307 Y11.27 E1.04435
G1 X164.521 Y10.653 E1.12205
G1 X165.742 Y10.165 E1.19708
G1 X166.526 Y9.871 E1.24486
G1 X167.209 Y9.671 E1.28546
G1 X168.651 Y9.292 E1.37054
G1 X169.969 Y9.068 E1.44682
G1 X170.869 Y8.936 E1.49872
G1 X172.089 Y8.865 E1.56845
G1 X172.991 Y8.829 E1.61996
G1 X174.321 Y8.89 E1.69593
G1 X175.168 Y8.947 E1.74436
G1 X176.371 Y9.129 E1.81379
G1 X177.326 Y9.297 E1.86911
G1 X178.607 Y9.635 E1.94471
G1 X179.453 Y9.881 E1.99498
G1 X180.562 Y10.303 E2.06268
G1 X181.438 Y10.658 E2.11662
G1 X182.169 Y11.023 E2.16324
G1 X183.371 Y11.659 E2.24083
G1 X184.484 Y12.384 E2.31662
G1 X185.222 Y12.89 E2.36768
G1 X186.183 Y13.672 E2.43837
G1 X186.946 Y14.324 E2.49564
G1 X187.78 Y15.174 E2.56358
G1 X188.462 Y15.893 E2.62013
G1 X189.258 Y16.9 E2.69337
G1 X189.807 Y17.62 E2.74503
G1 X190.431 Y18.611 E2.81185
G1 X190.911 Y19.401 E2.8646
G1 X191.435 Y20.448 E2.9314
G1 X191.902 Y21.441 E2.99401
G1 X192.312 Y22.565 E3.06228
G1 X192.607 Y23.414 E3.11357
G1 X192.807 Y24.186 E3.15907
G1 X193.122 Y25.527 E3.23767
G1 X193.29 Y26.692 E3.30483
G1 X193.413 Y27.711 E3.36339
G1 X193.46 Y29.007 E3.43739
G1 X193.471 Y29.868 E3.48652
G1 X193.425 Y30.596 E3.52814
G1 X193.316 Y31.84 E3.5994
G1 X193.234 Y32.425 E3.6331
G1 X193.059 Y33.376 E3.68828
G1 X192.895 Y34.187 E3.73549
G1 X192.706 Y34.857 E3.77521
G1 X192.269 Y36.268 E3.85949
G1 X191.764 Y37.501 E3.93552
G1 X191.406 Y38.317 E3.98636
G1 X190.837 Y39.367 E4.0545
G1 X190.341 Y40.231 E4.11135
G1 X189.684 Y41.186 E4.17749
G1 X189.037 Y42.081 E4.2405
G1 X188.272 Y42.96 E4.30699
G1 X187.663 Y43.637 E4.35895
G1 X187.064 Y44.208 E4.40617
G1 X186.056 Y45.121 E4.48377
G1 X185.008 Y45.914 E4.55876
G1 X184.304 Y46.421 E4.60826
G1 X183.716 Y46.781 E4.6476
G1 X182.434 Y47.523 E4.73212
G1 X181.712 Y47.865 E4.7777
G1 X180.445 Y48.427 E4.85679
G1 X179.25 Y48.835 E4.92884
G1 X178.332 Y49.125 E4.98377
G1 X177.125 Y49.395 E5.05434
G1 X176.388 Y49.544 E5.09724
G1 X175.624 Y49.652 E5.14127
G1 X174.074 Y49.806 E5.23015
G1 X173.31 Y49.819 E5.27374
G1 X172.075 Y49.809 E5.34421
G1 X171.489 Y49.774 E5.37771
G1 X170.556 Y49.677 E5.43123
G1 X169.884 Y49.595 E5.46986
G1 X169.319 Y49.499 E5.50256
G1 X168.392 Y49.303 E5.55662
G1 X167.569 Y49.112 E5.60483
G1 X166.457 Y48.756 E5.67145
G1 X165.489 Y48.423 E5.72986
G1 X164.286 Y47.886 E5.80503
G1 X163.518 Y47.523 E5.8535
G1 X162.864 Y47.153 E5.89638
G1 X161.646 Y46.422 E5.97743
G1 X161.082 Y46.019 E6.01698
G1 X159.883 Y45.113 E6.10273
G1 X158.936 Y44.254 E6.17568
G1 X158.28 Y43.63 E6.22734
G1 X157.736 Y43.029 E6.2736
G1 X156.963 Y42.128 E6.34133
G1 X156.585 Y41.636 E6.37673
G1 X156.065 Y40.9 E6.42815
G1 X155.6 Y40.219 E6.47521
G1 X155.181 Y39.49 E6.52318
G1 X154.534 Y38.298 E6.60057
G1 X154.028 Y37.126 E6.67341
G1 X153.683 Y36.276 E6.72575
G1 X153.303 Y35.052 E6.79888
G1 X153.051 Y34.166 E6.85144
G1 X152.812 Y32.961 E6.92153
G1 X152.681 Y32.21 E6.96503
G1 X152.612 Y31.656 E6.99689
G1 X152.537 Y30.762 E7.04808
G1 X152.479 Y29.872 E7.09897
G1 X152.485 Y29.167 E7.13919
G1 X152.538 Y27.668 E7.22478
G1 X152.694 Y26.428 E7.29609
G1 X152.802 Y25.708 E7.33763
G0 F405 X152.827 Y25.535
G0 F3600 X153.519 Y25.648
G1 F450 X153.662 Y25.01 E7.37494
G1 X153.816 Y24.379 E7.412
G1 X154.029 Y23.57 E7.45973
G1 X154.421 Y22.455 E7.52717
G1 X154.739 Y21.613 E7.57852
G1 X155.294 Y20.45 E7.65205
G1 X155.664 Y19.717 E7.6989
G1 X156.327 Y18.637 E7.77121
G1 X156.767 Y17.955 E7.81752
G1 X157.575 Y16.908 E7.89298
G1 X158.066 Y16.299 E7.93762
G1 X158.893 Y15.432 E8.00599
G1 X159.542 Y14.782 E8.0584
G1 X160.071 Y14.329 E8.09813
G1 X161.062 Y13.522 E8.17106
G1 X161.663 Y13.094 E8.21316
G1 X162.896 Y12.287 E8.29724
G1 X163.624 Y11.894 E8.34444
G1 X164.814 Y11.289 E8.42061
G1 X165.988 Y10.82 E8.49275
G1 X166.744 Y10.537 E8.53881
G1 X167.497 Y10.318 E8.58355
G1 X168.799 Y9.977 E8.66035
G1 X170.071 Y9.76 E8.73398
G1 X170.72 Y9.665 E8.7714
G1 X171.269 Y9.612 E8.80287
G1 X172.059 Y9.567 E8.84802
G1 X172.999 Y9.53 E8.9017
G1 X174.198 Y9.584 E8.97018
G1 X175.089 Y9.644 E9.02114
G1 X176.348 Y9.835 E9.0938
G1 X177.174 Y9.981 E9.14166
G1 X178.329 Y10.284 E9.20979
G1 X179.228 Y10.544 E9.26319
G1 X180.379 Y10.983 E9.33348
G1 X181.142 Y11.292 E9.38045
G1 X181.766 Y11.603 E9.42023
G1 X183.021 Y12.267 E9.50124
G1 X184.088 Y12.961 E9.57387
G1 X184.799 Y13.448 E9.62304
G1 X185.741 Y14.215 E9.69236
G1 X186.467 Y14.835 E9.74683
G1 X187.272 Y15.655 E9.8124
G1 X187.93 Y16.349 E9.86696
G1 X188.662 Y17.273 E9.93423
G1 X189.229 Y18.017 E9.9876
G1 X189.833 Y18.975 E10.05222
G1 X190.296 Y19.737 E10.10309
G1 X190.809 Y20.762 E10.1685
G1 X191.258 Y21.718 E10.22876
G1 X191.651 Y22.795 E10.29418
G1 X191.933 Y23.606 E10.34317
G1 X192.125 Y24.346 E10.38679
G1 X192.435 Y25.663 E10.46399
G1 X192.597 Y26.791 E10.52901
G1 X192.715 Y27.772 E10.58539
G1 X192.76 Y29.016 E10.65642
G1 X192.771 Y29.848 E10.7039
G1 X192.72 Y30.636 E10.74895
G1 X192.619 Y31.778 E10.81437
G1 X192.546 Y32.299 E10.84438
G1 X192.373 Y33.237 E10.89881
G1 X192.214 Y34.021 E10.94445
G1 X192.032 Y34.668 E10.9828
G1 X191.612 Y36.026 E11.06391
G1 X191.123 Y37.22 E11.13753
G1 X190.778 Y38.006 E11.18651
G1 X190.179 Y39.11 E11.25818
G1 X189.753 Y39.85 E11.3069
G1 X189.061 Y40.854 E11.37647
G1 X188.492 Y41.64 E11.43184
G1 X187.751 Y42.492 E11.49627
G1 X187.155 Y43.155 E11.54713
G1 X186.66 Y43.628 E11.5862
G1 X185.605 Y44.585 E11.66747
G1 X184.663 Y45.298 E11.73488
G1 X183.91 Y45.841 E11.78785
G1 X183.278 Y46.227 E11.83011
G1 X182.107 Y46.904 E11.90729
G1 X181.507 Y47.189 E11.94519
G1 X180.185 Y47.777 E12.02775
G1 X179.115 Y48.143 E12.09227
G1 X178.143 Y48.45 E12.15043
G1 X176.986 Y48.709 E12.21808
G1 X176.13 Y48.882 E12.26791
G1 X175.438 Y48.969 E12.30771
G1 X174.042 Y49.107 E12.38775
G1 X173.316 Y49.119 E12.42918
G1 X172.081 Y49.109 E12.49965
G1 X171.56 Y49.077 E12.52943
G1 X170.641 Y48.982 E12.58215
G1 X169.677 Y48.859 E12.6376
G1 X168.55 Y48.621 E12.70333
G1 X167.759 Y48.437 E12.74966
G1 X166.599 Y48.065 E12.81917
G1 X165.739 Y47.768 E12.87109
G1 X164.585 Y47.253 E12.94319
G1 X163.845 Y46.904 E12.98987
G1 X163.224 Y46.553 E13.03058
G1 X162.035 Y45.839 E13.10971
G1 X161.414 Y45.394 E13.1533
G1 X160.326 Y44.571 E13.23114
G1 X159.419 Y43.747 E13.30106
G1 X158.781 Y43.141 E13.35127
G1 X158.267 Y42.573 E13.39498
G1 X157.494 Y41.672 E13.46272
G1 X157.156 Y41.232 E13.49438
G1 X156.643 Y40.505 E13.54515
G1 X156.193 Y39.845 E13.59073
G1 X155.796 Y39.157 E13.63605
G1 X155.17 Y38.003 E13.71096
G1 X154.677 Y36.862 E13.78188
G1 X154.339 Y36.03 E13.83312
G1 X153.976 Y34.861 E13.90296
G1 X153.734 Y34.011 E13.95339
G1 X153.484 Y32.747 E14.02691
G1 X153.334 Y31.884 E14.07689
G1 X153.23 Y30.641 E14.14806
G1 X153.179 Y29.856 E14.19295
G1 X153.187 Y29.081 E14.23717
G1 X153.236 Y27.731 E14.31425
G1 X153.387 Y26.532 E14.3832
G1 X153.494 Y25.821 E14.42423
G0 F405 X153.519 Y25.648
G10
;MESH:pulley-motor-flatsmaller.STL
G0 F3600 X167.184 Y32.006
G0 X171.519 Y35.556
;TYPE:WALL-OUTER
G11
G1 F900 X171.231 Y35.866 E14.44837
G1 X171.171 Y35.912 E14.45269
G1 X170.687 Y36.201 E14.48485
G1 X170.095 Y36.335 E14.51948
G1 X169.543 Y36.275 E14.55117
G1 X169.19 Y36.149 E14.57255
G1 X168.746 Y35.839 E14.60345
G1 X168.501 Y35.573 E14.62409
G1 X168.236 Y35.039 E14.6581
G1 X168.149 Y34.444 E14.69241
G1 X168.294 Y33.738 E14.73354
G1 X168.868 Y32.742 E14.79913
G1 X168.515 Y32.287 E14.83199
G1 X168.081 Y31.494 E14.88357
G1 X167.792 Y30.664 E14.93372
G1 X167.646 Y29.803 E14.98354
G1 X167.643 Y28.893 E15.03547
G1 X167.787 Y28.021 E15.0859
G1 X168.085 Y27.162 E15.13778
G1 X168.515 Y26.379 E15.18875
G1 X168.868 Y25.924 E15.22161
G1 X168.288 Y24.917 E15.28791
G1 X168.176 Y24.486 E15.31332
G1 X168.174 Y23.869 E15.34853
G1 X168.388 Y23.269 E15.38487
G1 X168.586 Y22.993 E15.40426
G1 X169.061 Y22.583 E15.44006
G1 X169.672 Y22.357 E15.47723
G1 X170.326 Y22.356 E15.51455
G1 X170.901 Y22.566 E15.54947
G1 X171.199 Y22.773 E15.57018
G1 X171.499 Y23.073 E15.59439
G1 X172.076 Y24.073 E15.66026
G1 X172.643 Y23.994 E15.69293
G1 X173.55 Y24.014 E15.74469
G1 X174.423 Y24.181 E15.79541
G1 X175.238 Y24.485 E15.84504
G1 X175.999 Y24.92 E15.89505
G1 X176.698 Y25.49 E15.94652
G1 X177.276 Y26.15 E15.99658
G1 X177.739 Y26.9 E16.04687
G1 X177.979 Y27.483 E16.08284
G1 X179.144 Y27.483 E16.14932
G1 X179.593 Y27.612 E16.17597
G1 X180.118 Y27.912 E16.21047
G1 X180.53 Y28.408 E16.24726
G1 X180.745 Y28.997 E16.28304
G1 X180.749 Y29.655 E16.32059
G1 X180.522 Y30.272 E16.3581
G1 X180.103 Y30.763 E16.39493
G1 X179.56 Y31.07 E16.43052
G1 X179.142 Y31.183 E16.45523
G1 X177.979 Y31.183 E16.52159
G1 X177.739 Y31.766 E16.55756
G1 X177.295 Y32.492 E16.60612
G1 X176.723 Y33.153 E16.65599
G1 X176.033 Y33.723 E16.70706
G1 X175.256 Y34.173 E16.75829
G1 X174.406 Y34.489 E16.81004
G1 X173.544 Y34.653 E16.8601
G1 X172.643 Y34.672 E16.91152
G1 X172.076 Y34.593 E16.94419
G1 X171.606 Y35.405 E16.99772
G0 F810 X171.519 Y35.556
G0 F3600 X171.247 Y35.849
G0 X171.604 Y36.197
G0 X175.547 Y34.81
;TYPE:WALL-INNER
G1 F900 X174.611 Y35.162 E17.05478
G1 X173.635 Y35.35 E17.11149
G1 X172.721 Y35.375 E17.16367
G1 X172.446 Y35.352 E17.17941
G1 X172.063 Y36.013 E17.223
G1 X171.716 Y36.371 E17.25145
G1 X171.536 Y36.509 E17.26439
G1 X170.891 Y36.878 E17.30679
G1 X170.124 Y37.04 E17.35152
G1 X169.371 Y36.961 E17.39472
G1 X168.827 Y36.745 E17.42812
G1 X168.33 Y36.402 E17.46257
G1 X168.003 Y36.065 E17.48937
G1 X167.856 Y35.848 E17.50432
G1 X167.57 Y35.257 E17.54179
G1 X167.435 Y34.415 E17.59044
G1 X167.64 Y33.47 E17.64562
G1 X168.026 Y32.8 E17.68974
G1 X167.868 Y32.573 E17.70552
G1 X167.44 Y31.783 E17.75678
G1 X167.105 Y30.805 E17.81577
G1 X166.945 Y29.83 E17.87215
G1 X166.942 Y28.835 E17.92892
G1 X167.107 Y27.855 E17.98563
G1 X167.433 Y26.897 E18.04337
G1 X167.868 Y26.093 E18.09552
G1 X168.026 Y25.866 E18.11131
G1 X167.642 Y25.196 E18.15537
G1 X167.474 Y24.583 E18.19164
G1 X167.474 Y23.736 E18.23996
G1 X167.724 Y23.049 E18.28168
G1 X168.085 Y22.493 E18.3195
G1 X168.635 Y22.028 E18.3606
G1 X168.81 Y21.926 E18.37216
G1 X169.538 Y21.662 E18.41634
G1 X170.315 Y21.657 E18.46068
G1 X170.576 Y21.704 E18.47581
G1 X171.197 Y21.932 E18.51356
G1 X171.667 Y22.253 E18.54603
G1 X172.063 Y22.649 E18.57799
G1 X172.447 Y23.314 E18.6218
G1 X172.721 Y23.291 E18.63749
G1 X173.636 Y23.315 E18.68972
G1 X174.607 Y23.505 E18.74617
G1 X175.554 Y23.855 E18.80378
G1 X176.404 Y24.348 E18.85985
G1 X177.192 Y24.988 E18.91777
G1 X177.865 Y25.768 E18.97655
G1 X178.336 Y26.535 E19.02791
G1 X178.452 Y26.783 E19.04353
G1 X179.231 Y26.783 E19.08798
G1 X179.836 Y26.946 E19.12373
G1 X180.478 Y27.314 E19.16595
G1 X180.666 Y27.479 E19.18023
G1 X181.143 Y28.046 E19.2225
G1 X181.449 Y28.885 E19.27346
G1 X181.447 Y29.773 E19.32413
G1 X181.147 Y30.616 E19.37518
G1 X180.57 Y31.301 E19.42629
G1 X179.856 Y31.712 E19.4733
G1 X179.227 Y31.883 E19.51049
G1 X178.452 Y31.883 E19.55471
G1 X178.336 Y32.131 E19.57033
G1 X177.868 Y32.894 E19.6214
G1 X177.206 Y33.664 E19.67934
G1 X176.419 Y34.312 E19.73751
G1 X175.698 Y34.724 E19.78489
G0 F810 X175.547 Y34.81
G10
G0 F3600 X175.142 Y44.223
G0 X173.831 Y45.419
;TYPE:WALL-OUTER
G11
G1 F900 X175.537 Y45.236 E19.8828
G1 X177.2 Y44.877 E19.97987
G1 X178.846 Y44.336 E20.07873
G1 X180.402 Y43.627 E20.1763
G1 X181.877 Y42.756 E20.27404
G1 X183.252 Y41.738 E20.37165
G1 X184.517 Y40.57 E20.4699
G1 X185.646 Y39.28 E20.56771
G1 X186.631 Y37.878 E20.66548
G1 X187.462 Y36.378 E20.76332
G1 X188.131 Y34.784 E20.86196
G1 X188.622 Y33.154 E20.95909
G1 X188.94 Y31.469 E21.05693
G1 X189.078 Y29.76 E21.15476
G1 X189.039 Y28.268 E21.23992
G1 X189.032 Y28.047 E21.25254
G1 X188.804 Y26.347 E21.35041
G1 X188.401 Y24.697 E21.44732
G1 X187.815 Y23.069 E21.54605
G1 X187.065 Y21.526 E21.64394
G1 X186.157 Y20.076 E21.74156
G1 X185.096 Y18.724 E21.83962
G1 X183.9 Y17.497 E21.93739
G1 X182.582 Y16.403 E22.03512
G1 X181.154 Y15.456 E22.13289
G1 X179.63 Y14.664 E22.23089
G1 X178.02 Y14.033 E22.32956
G1 X176.379 Y13.588 E22.42657
G1 X174.684 Y13.316 E22.52452
G1 X172.975 Y13.224 E22.62218
G1 X171.266 Y13.316 E22.71983
G1 X169.57 Y13.588 E22.81784
G1 X167.93 Y14.035 E22.91483
G1 X166.32 Y14.664 E23.01346
G1 X164.796 Y15.456 E23.11146
G1 X163.368 Y16.403 E23.20923
G1 X162.049 Y17.497 E23.307
G1 X160.851 Y18.726 E23.40493
G1 X159.792 Y20.076 E23.50283
G1 X158.885 Y21.526 E23.60042
G1 X158.134 Y23.071 E23.69844
G1 X157.548 Y24.696 E23.79701
G1 X157.145 Y26.351 E23.8942
G1 X156.917 Y28.049 E23.99195
G1 X156.871 Y29.762 E24.08973
G1 X157.009 Y31.469 E24.18745
G1 X157.328 Y33.154 E24.2853
G1 X157.818 Y34.784 E24.38241
G1 X158.488 Y36.378 E24.48107
G1 X159.318 Y37.878 E24.57889
G1 X160.304 Y39.28 E24.67669
G1 X161.432 Y40.57 E24.77447
G1 X162.697 Y41.738 E24.87271
G1 X164.072 Y42.756 E24.97033
G1 X165.548 Y43.627 E25.06811
G1 X167.103 Y44.336 E25.16563
G1 X168.749 Y44.879 E25.26453
G1 X170.413 Y45.236 E25.36163
G1 X172.119 Y45.419 E25.45953
G1 X173.656 Y45.419 E25.54723
G0 F810 X173.831 Y45.419
G0 F3600 X174.228 Y45.377
G0 X174.176 Y44.879
G0 X169.188 Y43.939
G0 X167.125 Y43.236
G0 X164.385 Y41.731
G0 X163.143 Y40.775
G0 X162.039 Y39.73
G0 X160.992 Y38.5
G0 X159.988 Y37.003
G0 X159.314 Y35.734
G0 X158.703 Y34.22
G0 X158.22 Y32.438
G0 X157.988 Y31.037
G0 X157.89 Y29.501
G0 X157.957 Y27.898
G0 X158.185 Y26.467
G0 X158.78 Y23.343
;TYPE:WALL-INNER
G1 F900 X158.22 Y24.898 E25.64154
G1 X157.834 Y26.481 E25.73451
G1 X157.616 Y28.105 E25.828
G1 X157.572 Y29.743 E25.9215
G1 X157.704 Y31.375 E26.01492
G1 X158.009 Y32.988 E26.10859
G1 X158.478 Y34.547 E26.20148
G1 X159.119 Y36.072 E26.29587
G1 X159.912 Y37.506 E26.38937
G1 X160.855 Y38.847 E26.48291
G1 X161.935 Y40.082 E26.57652
G1 X163.144 Y41.198 E26.6704
G1 X164.459 Y42.172 E26.76377
G1 X165.872 Y43.005 E26.85736
G1 X167.359 Y43.683 E26.95061
G1 X168.933 Y44.203 E27.0452
G1 X170.524 Y44.544 E27.13804
G1 X172.156 Y44.719 E27.23169
G1 X173.794 Y44.719 E27.32516
G1 X175.425 Y44.544 E27.41875
G1 X177.016 Y44.201 E27.51162
G1 X178.59 Y43.683 E27.60617
G1 X180.078 Y43.005 E27.69947
G1 X181.49 Y42.172 E27.79301
G1 X182.805 Y41.198 E27.88638
G1 X184.015 Y40.081 E27.98035
G1 X185.094 Y38.847 E28.07388
G1 X186.037 Y37.506 E28.16742
G1 X186.831 Y36.072 E28.26094
G1 X187.471 Y34.547 E28.35531
G1 X187.941 Y32.988 E28.44822
G1 X188.245 Y31.375 E28.54188
G1 X188.377 Y29.741 E28.63541
G1 X188.339 Y28.287 E28.7184
G1 X188.333 Y28.103 E28.72891
G1 X188.115 Y26.477 E28.82252
G1 X187.73 Y24.899 E28.9152
G1 X187.169 Y23.341 E29.00968
G1 X186.452 Y21.866 E29.10326
G1 X185.583 Y20.479 E29.19665
G1 X184.568 Y19.186 E29.29044
G1 X183.424 Y18.012 E29.38397
G1 X182.164 Y16.965 E29.47745
G1 X180.798 Y16.06 E29.57095
G1 X179.34 Y15.302 E29.66471
G1 X177.8 Y14.699 E29.75907
G1 X176.231 Y14.274 E29.85183
G1 X174.61 Y14.013 E29.94551
G1 X172.975 Y13.925 E30.03894
G1 X171.34 Y14.013 E30.13236
G1 X169.718 Y14.273 E30.22609
G1 X168.15 Y14.701 E30.31883
G1 X166.61 Y15.302 E30.41316
G1 X165.152 Y16.06 E30.50692
G1 X163.786 Y16.965 E30.60042
G1 X162.525 Y18.012 E30.69394
G1 X161.379 Y19.188 E30.78763
G1 X160.366 Y20.479 E30.88126
G1 X159.498 Y21.866 E30.97462
G1 X158.856 Y23.186 E31.05837
G0 F810 X158.78 Y23.343
G10
G0 F3600 X159.714 Y22.221
G0 X167.18 Y23.605
G0 X182.109 Y28.868
;TYPE:SKIN
G11
G1 F900 X182.111 Y29.731 E31.10762
G1 X182.062 Y30.027 E31.12474
G1 X181.789 Y30.797 E31.17135
G1 X181.536 Y31.189 E31.19797
G1 X180.993 Y31.827 E31.24577
