;FLAVOR:Marlin
;TIME:905
;Filament used: 1.49456m
;Layer height: 0.4
;MINX:151.116
;MINY:99.258
;MINZ:0.52
;MAXX:192.108
;MAXY:140.248
;MAXZ:20.92
;POSTPROCESSED
;Generated with Cura_SteamEngine 5.2.1
;
;

M82 ;absolute extrusion mode
M98 P0:/sys/startprint.g

G92 E0
G92 E0
G10
;LAYER_COUNT:52
;LAYER:0
M107
G0 F3600 X154.823 Y107.993 Z0.52
;TYPE:SKIRT
G11
G1 F450 X155.295 Y107.37 E0.0446
G1 X156.185 Y106.256 E0.12596
G1 X157.032 Y105.369 E0.19594
G1 X157.717 Y104.685 E0.25117
G1 X158.322 Y104.168 E0.29658
G1 X159.382 Y103.306 E0.37453
G1 X159.963 Y102.906 E0.41478
G1 X161.18 Y102.11 E0.49776
G1 X161.944 Y101.699 E0.54726
G1 X163.158 Y101.082 E0.62496
G1 X164.378 Y100.594 E0.69993
G1 X165.253 Y100.266 E0.75325
G1 X166.445 Y99.938 E0.82379
G1 X167.372 Y99.7 E0.8784
G1 X168.583 Y99.5 E0.94844
G1 X169.45 Y99.374 E0.99843
G1 X170.727 Y99.294 E1.07143
G1 X171.628 Y99.258 E1.12288
G1 X172.958 Y99.319 E1.19885
G1 X173.805 Y99.376 E1.24729
G1 X175.008 Y99.558 E1.31671
G1 X175.963 Y99.726 E1.37204
G1 X177.244 Y100.064 E1.44763
G1 X178.09 Y100.31 E1.49791
G1 X179.199 Y100.732 E1.56561
G1 X180.075 Y101.087 E1.61954
G1 X180.806 Y101.452 E1.66616
G1 X182.008 Y102.088 E1.74376
G1 X183.121 Y102.813 E1.81955
G1 X183.857 Y103.317 E1.87045
G1 X184.891 Y104.159 E1.94653
G1 X185.515 Y104.692 E1.99336
G1 X186.413 Y105.596 E2.06606
G1 X187.073 Y106.29 E2.12071
G1 X187.834 Y107.248 E2.19052
G1 X188.443 Y108.047 E2.24784
G1 X189.069 Y109.04 E2.31482
G1 X189.561 Y109.85 E2.36889
G1 X190.077 Y110.888 E2.43504
G1 X190.544 Y111.88 E2.4976
G1 X190.956 Y113.016 E2.56655
G1 X191.248 Y113.857 E2.61734
G1 X191.581 Y115.18 E2.69519
G1 X191.759 Y115.957 E2.74067
G1 X191.863 Y116.644 E2.78031
G1 X192.05 Y118.121 E2.86526
G1 X192.097 Y119.437 E2.9404
G1 X192.108 Y120.313 E2.99039
G1 X192.016 Y121.606 E3.06435
G1 X191.932 Y122.494 E3.11524
G1 X191.72 Y123.681 E3.18405
G1 X191.511 Y124.71 E3.24396
G1 X191.15 Y125.925 E3.31628
G1 X190.901 Y126.71 E3.36327
G1 X190.442 Y127.833 E3.43249
G1 X190.046 Y128.737 E3.48881
G1 X189.445 Y129.847 E3.56083
G1 X188.988 Y130.644 E3.61325
G1 X188.262 Y131.699 E3.68632
G1 X187.724 Y132.44 E3.73857
G1 X186.895 Y133.406 E3.8112
G1 X186.296 Y134.072 E3.86231
G1 X185.402 Y134.913 E3.93235
G1 X184.7 Y135.544 E3.98621
G1 X183.628 Y136.355 E4.06291
G1 X183.083 Y136.747 E4.10121
G1 X182.596 Y137.063 E4.13434
G1 X181.829 Y137.519 E4.18525
G1 X181.065 Y137.955 E4.23544
G1 X180.443 Y138.251 E4.27475
G1 X178.998 Y138.891 E4.36492
G1 X177.912 Y139.256 E4.43029
G1 X177.013 Y139.54 E4.48409
G1 X176.187 Y139.733 E4.53249
G1 X175.037 Y139.97 E4.59948
G1 X174.263 Y140.081 E4.6441
G1 X172.71 Y140.235 E4.73315
G1 X171.946 Y140.248 E4.77675
G1 X170.712 Y140.238 E4.84716
G1 X170.126 Y140.203 E4.88065
G1 X169.193 Y140.106 E4.93418
G1 X168.289 Y139.996 E4.98614
G1 X167.073 Y139.741 E5.05703
G1 X166.222 Y139.544 E5.10687
G1 X165.367 Y139.274 E5.15803
G1 X164.143 Y138.856 E5.23183
G1 X162.916 Y138.312 E5.30841
G1 X162.335 Y138.039 E5.34504
G1 X161.817 Y137.764 E5.37851
G1 X160.97 Y137.268 E5.43451
G1 X160.285 Y136.851 E5.48027
G1 X159.583 Y136.346 E5.52961
G1 X158.542 Y135.559 E5.60407
G1 X157.896 Y134.981 E5.65354
G1 X156.911 Y134.054 E5.73071
G1 X156.068 Y133.107 E5.80306
G1 X155.475 Y132.412 E5.85518
G1 X154.717 Y131.349 E5.92968
G1 X154.229 Y130.636 E5.97898
G1 X153.809 Y129.901 E6.02728
G1 X153.183 Y128.748 E6.10214
G1 X152.833 Y127.954 E6.15165
G1 X152.388 Y126.872 E6.21841
G1 X152.141 Y126.148 E6.26205
G1 X151.695 Y124.627 E6.3525
G1 X151.513 Y123.731 E6.40466
G1 X151.29 Y122.486 E6.47683
G1 X151.183 Y121.298 E6.54489
G1 X151.116 Y120.29 E6.60253
G1 X151.137 Y119.097 E6.67062
G1 X151.178 Y118.09 E6.72812
G1 X151.341 Y116.798 E6.80243
G1 X151.464 Y115.97 E6.85019
G1 X151.615 Y115.296 E6.8896
G1 X151.98 Y113.849 E6.97475
G1 X152.404 Y112.638 E7.04796
G1 X152.73 Y111.773 E7.10071
G1 X153.285 Y110.605 E7.17449
G1 X153.671 Y109.836 E7.22359
G1 X154.083 Y109.154 E7.26905
G1 X154.729 Y108.14 E7.33765
G0 F405 X154.823 Y107.993
G0 F3600 X155.402 Y108.387
G1 F450 X155.785 Y107.88 E7.37391
G1 X156.716 Y106.712 E7.45913
G1 X157.538 Y105.852 E7.52701
G1 X158.187 Y105.204 E7.57934
G1 X158.764 Y104.711 E7.62265
G1 X159.702 Y103.948 E7.69164
G1 X160.273 Y103.541 E7.73165
G1 X161.535 Y102.714 E7.81774
G1 X162.261 Y102.323 E7.86479
G1 X163.451 Y101.718 E7.94096
G1 X164.624 Y101.249 E8.01304
G1 X165.462 Y100.935 E8.0641
G1 X166.619 Y100.615 E8.1326
G1 X167.499 Y100.389 E8.18444
G1 X168.684 Y100.193 E8.25297
G1 X169.522 Y100.071 E8.30129
G1 X170.755 Y99.994 E8.37178
G1 X171.635 Y99.959 E8.42203
G1 X172.835 Y100.013 E8.49057
G1 X173.726 Y100.073 E8.54153
G1 X174.985 Y100.264 E8.61419
G1 X175.811 Y100.41 E8.66205
G1 X176.966 Y100.713 E8.73018
G1 X177.865 Y100.973 E8.78358
G1 X179.016 Y101.412 E8.85387
G1 X179.779 Y101.721 E8.90084
G1 X180.403 Y102.032 E8.94062
G1 X181.658 Y102.696 E9.02163
G1 X182.725 Y103.39 E9.09426
G1 X183.432 Y103.874 E9.14315
G1 X184.436 Y104.691 E9.21701
G1 X185.032 Y105.2 E9.26173
G1 X185.97 Y106.145 E9.3377
G1 X186.607 Y106.825 E9.39087
G1 X187.324 Y107.732 E9.45684
G1 X187.862 Y108.438 E9.50748
G1 X188.47 Y109.403 E9.57256
G1 X188.948 Y110.19 E9.6251
G1 X189.483 Y111.268 E9.69377
G1 X189.895 Y112.147 E9.74916
G1 X190.295 Y113.245 E9.81584
G1 X190.575 Y114.05 E9.86447
G1 X190.898 Y115.336 E9.94013
G1 X191.07 Y116.087 E9.98409
G1 X191.182 Y116.831 E10.02702
G1 X191.352 Y118.18 E10.1046
G1 X191.397 Y119.446 E10.17688
G1 X191.408 Y120.295 E10.22533
G1 X191.326 Y121.46 E10.29196
G1 X191.238 Y122.401 E10.34589
G1 X191.031 Y123.558 E10.41295
G1 X190.83 Y124.544 E10.47037
G1 X190.483 Y125.714 E10.54
G1 X190.245 Y126.466 E10.58501
G1 X189.794 Y127.568 E10.65295
G1 X189.415 Y128.433 E10.70684
G1 X188.88 Y129.424 E10.7711
G1 X188.401 Y130.261 E10.82612
G1 X187.696 Y131.287 E10.89715
G1 X187.179 Y131.999 E10.94736
G1 X186.374 Y132.938 E11.01793
G1 X185.795 Y133.582 E11.06734
G1 X184.922 Y134.403 E11.13572
G1 X184.253 Y135.004 E11.18704
G1 X183.219 Y135.787 E11.26104
G1 X182.674 Y136.179 E11.29935
G1 X182.238 Y136.462 E11.32901
G1 X181.482 Y136.911 E11.37918
G1 X180.746 Y137.331 E11.42753
G1 X180.143 Y137.618 E11.46563
G1 X178.741 Y138.238 E11.5531
G1 X177.629 Y138.612 E11.62004
G1 X176.833 Y138.863 E11.66767
G1 X176.138 Y139.027 E11.70841
G1 X174.896 Y139.284 E11.78078
G1 X174.174 Y139.387 E11.82239
G1 X172.681 Y139.536 E11.90801
G1 X171.952 Y139.548 E11.94961
G1 X170.718 Y139.538 E12.02002
G1 X170.197 Y139.506 E12.0498
G1 X169.278 Y139.411 E12.10252
G1 X168.606 Y139.329 E12.14115
G1 X168.108 Y139.244 E12.16997
G1 X167.231 Y139.059 E12.22112
G1 X166.408 Y138.869 E12.26931
G1 X165.593 Y138.611 E12.31809
G1 X164.391 Y138.201 E12.39055
G1 X163.213 Y137.678 E12.46409
G1 X162.632 Y137.405 E12.50072
G1 X162.17 Y137.16 E12.53056
G1 X161.386 Y136.702 E12.58237
G1 X160.677 Y136.27 E12.62974
G1 X160.005 Y135.788 E12.67693
G1 X158.989 Y135.02 E12.7496
G1 X158.375 Y134.471 E12.7966
G1 X157.421 Y133.572 E12.87139
G1 X156.601 Y132.653 E12.94167
G1 X156.03 Y131.984 E12.99185
G1 X155.295 Y130.954 E13.06405
G1 X154.82 Y130.26 E13.11204
G1 X154.424 Y129.567 E13.15758
G1 X153.812 Y128.44 E13.23075
G1 X153.515 Y127.768 E13.27268
G1 X152.983 Y126.477 E13.35235
G1 X152.779 Y125.841 E13.39046
G1 X152.376 Y124.46 E13.47254
G1 X152.202 Y123.608 E13.52216
G1 X151.986 Y122.402 E13.59207
G1 X151.874 Y121.155 E13.66351
G1 X151.816 Y120.278 E13.71366
G1 X151.839 Y119.028 E13.78499
G1 X151.876 Y118.144 E13.83548
G1 X152.033 Y116.901 E13.90696
G1 X152.152 Y116.099 E13.95323
G1 X152.319 Y115.36 E13.99646
G1 X152.648 Y114.061 E14.07292
G1 X153.059 Y112.885 E14.144
G1 X153.377 Y112.043 E14.19535
G1 X153.877 Y110.988 E14.26197
G1 X154.285 Y110.174 E14.31392
G1 X154.674 Y109.53 E14.35685
G1 X155.308 Y108.534 E14.42422
G0 F405 X155.402 Y108.387
G10
;MESH:pulley-motor-flatsmaller.STL
G0 F3600 X166.269 Y116.275
G0 X173.893 Y124.602
;TYPE:WALL-OUTER
G11
G1 F900 X173.631 Y124.7 E14.44018
G1 X173.043 Y124.918 E14.47596
G1 X172.182 Y125.082 E14.52597
G1 X171.28 Y125.101 E14.57745
G1 X170.713 Y125.021 E14.61012
G1 X170.138 Y126.02 E14.67589
G1 X169.854 Y126.309 E14.69901
G1 X169.344 Y126.625 E14.73324
G1 X168.798 Y126.752 E14.76523
G1 X168.422 Y126.75 E14.78668
G1 X167.85 Y126.59 E14.82057
G1 X167.34 Y126.234 E14.85606
G1 X166.994 Y125.761 E14.8895
G1 X166.874 Y125.472 E14.90736
G1 X166.786 Y124.872 E14.94196
G1 X166.93 Y124.171 E14.98279
G1 X167.506 Y123.171 E15.04864
G1 X167.152 Y122.716 E15.08153
G1 X166.717 Y121.923 E15.13314
G1 X166.429 Y121.093 E15.18327
G1 X166.283 Y120.232 E15.2331
G1 X166.28 Y119.322 E15.28502
G1 X166.424 Y118.449 E15.33551
G1 X166.707 Y117.627 E15.38511
G1 X167.121 Y116.855 E15.43509
G1 X167.506 Y116.353 E15.47119
G1 X166.923 Y115.341 E15.53783
G1 X166.813 Y114.914 E15.56299
G1 X166.811 Y114.296 E15.59825
G1 X167.039 Y113.673 E15.63611
G1 X167.451 Y113.187 E15.67246
G1 X168.004 Y112.869 E15.70886
G1 X168.639 Y112.757 E15.74565
G1 X169.279 Y112.872 E15.78275
G1 X169.802 Y113.173 E15.81718
G1 X170.135 Y113.499 E15.84377
G1 X170.713 Y114.503 E15.90988
G1 X171.28 Y114.423 E15.94255
G1 X172.187 Y114.443 E15.99431
G1 X173.06 Y114.61 E16.04503
G1 X173.875 Y114.914 E16.09466
G1 X174.636 Y115.349 E16.14468
G1 X175.335 Y115.918 E16.1961
G1 X175.914 Y116.58 E16.24629
G1 X176.377 Y117.329 E16.29653
G1 X176.616 Y117.912 E16.33248
G1 X177.778 Y117.912 E16.39878
G1 X178.231 Y118.04 E16.42564
G1 X178.754 Y118.341 E16.46007
G1 X179.17 Y118.839 E16.4971
G1 X179.382 Y119.426 E16.53271
G1 X179.386 Y120.084 E16.57026
G1 X179.171 Y120.67 E16.60587
G1 X178.965 Y120.969 E16.62659
G1 X178.488 Y121.362 E16.66185
G1 X178.199 Y121.498 E16.68008
G1 X177.78 Y121.612 E16.70485
G1 X176.616 Y121.612 E16.77127
G1 X176.377 Y122.195 E16.80722
G1 X175.929 Y122.922 E16.85595
G1 X175.36 Y123.581 E16.90563
G1 X174.67 Y124.152 E16.95673
G1 X174.044 Y124.515 E16.99802
G0 F810 X173.893 Y124.602
G0 F3600 X173.631 Y124.7
G0 X173.518 Y124.742
G0 X173.691 Y125.211
G0 X174.913 Y124.52
G0 X177.837 Y122.051
G0 X179.188 Y121.354
G0 X180.084 Y120.201
;TYPE:WALL-INNER
G1 F900 X179.818 Y120.95 E17.04337
G1 X179.49 Y121.442 E17.07711
G1 X178.896 Y121.94 E17.12134
G1 X178.452 Y122.151 E17.14939
G1 X177.867 Y122.312 E17.18401
G1 X177.089 Y122.312 E17.2284
G1 X176.973 Y122.561 E17.24407
G1 X176.495 Y123.342 E17.29632
G1 X175.817 Y124.114 E17.35495
G1 X175.052 Y124.743 E17.41146
G1 X174.183 Y125.24 E17.46858
G1 X173.877 Y125.356 E17.48725
G1 X173.247 Y125.592 E17.52564
G1 X172.276 Y125.779 E17.58206
G1 X171.358 Y125.804 E17.63446
G1 X171.084 Y125.781 E17.65015
G1 X170.7 Y126.446 E17.69396
G1 X170.308 Y126.842 E17.72576
G1 X169.636 Y127.269 E17.77118
G1 X168.948 Y127.436 E17.81158
G1 X168.32 Y127.443 E17.84742
G1 X167.711 Y127.278 E17.88342
G1 X167.465 Y127.173 E17.89868
G1 X166.968 Y126.832 E17.93307
G1 X166.78 Y126.653 E17.94788
G1 X166.405 Y126.145 E17.98391
G1 X166.208 Y125.689 E18.01225
G1 X166.072 Y124.847 E18.06092
G1 X166.267 Y123.92 E18.11497
G1 X166.664 Y123.229 E18.16044
G1 X166.506 Y123.002 E18.17622
G1 X166.081 Y122.215 E18.22726
G1 X165.742 Y121.232 E18.28659
G1 X165.582 Y120.259 E18.34285
G1 X165.579 Y119.265 E18.39957
G1 X165.744 Y118.283 E18.45639
G1 X166.07 Y117.325 E18.51413
G1 X166.506 Y116.521 E18.56631
G1 X166.664 Y116.295 E18.58205
G1 X166.276 Y115.619 E18.62652
G1 X166.111 Y115.01 E18.66252
G1 X166.111 Y114.164 E18.71079
G1 X166.362 Y113.476 E18.75258
G1 X166.496 Y113.233 E18.76841
G1 X167.001 Y112.639 E18.8129
G1 X167.764 Y112.201 E18.8631
G1 X168.474 Y112.075 E18.90424
G1 X168.751 Y112.068 E18.92005
G1 X169.515 Y112.2 E18.96429
G1 X170.202 Y112.599 E19.00962
G1 X170.694 Y113.069 E19.04845
G1 X171.084 Y113.743 E19.09288
G1 X171.358 Y113.72 E19.10857
G1 X172.276 Y113.744 E19.16097
G1 X173.244 Y113.934 E19.21725
G1 X174.191 Y114.284 E19.27486
G1 X175.041 Y114.777 E19.33093
G1 X175.832 Y115.421 E19.38913
G1 X176.494 Y116.18 E19.44659
G1 X176.974 Y116.963 E19.499
G1 X177.089 Y117.212 E19.51465
G1 X177.863 Y117.212 E19.55881
G1 X178.477 Y117.374 E19.59504
G1 X179.114 Y117.744 E19.63708
G1 X179.303 Y117.908 E19.65135
G1 X179.781 Y118.473 E19.69358
G1 X180.086 Y119.316 E19.74473
G1 X180.084 Y120.026 E19.78524
G0 F810 X180.084 Y120.201
G10
G0 F3600 X177.733 Y122.643
G0 X173.78 Y134.652
G0 X172.468 Y135.848
;TYPE:WALL-OUTER
G11
G1 F900 X174.174 Y135.665 E19.88315
G1 X175.837 Y135.306 E19.98022
G1 X177.483 Y134.764 E20.0791
G1 X179.04 Y134.056 E20.17669
G1 X180.515 Y133.184 E20.27446
G1 X181.89 Y132.167 E20.37205
G1 X183.155 Y130.998 E20.47033
G1 X184.283 Y129.709 E20.56806
G1 X185.268 Y128.307 E20.66583
G1 X186.099 Y126.806 E20.76372
G1 X186.768 Y125.212 E20.86236
G1 X187.259 Y123.582 E20.95949
G1 X187.578 Y121.898 E21.05729
G1 X187.715 Y120.189 E21.15511
G1 X187.676 Y118.697 E21.24027
G1 X187.669 Y118.476 E21.25289
G1 X187.441 Y116.775 E21.35081
G1 X187.038 Y115.126 E21.44767
G1 X186.452 Y113.498 E21.5464
G1 X185.702 Y111.955 E21.64429
G1 X184.794 Y110.504 E21.74196
G1 X183.734 Y109.153 E21.83994
G1 X182.538 Y107.925 E21.93775
G1 X181.219 Y106.832 E22.03549
G1 X179.791 Y105.885 E22.13326
G1 X178.267 Y105.093 E22.23126
G1 X176.657 Y104.462 E22.32992
G1 X175.016 Y104.017 E22.42694
G1 X173.321 Y103.745 E22.52489
G1 X171.612 Y103.653 E22.62255
G1 X169.903 Y103.745 E22.7202
G1 X168.208 Y104.017 E22.81815
G1 X166.567 Y104.464 E22.9152
G1 X164.957 Y105.093 E23.01382
G1 X163.433 Y105.885 E23.11182
G1 X162.005 Y106.832 E23.20959
G1 X160.686 Y107.925 E23.30733
G1 X159.488 Y109.155 E23.4053
G1 X158.43 Y110.504 E23.50312
G1 X157.522 Y111.955 E23.60079
G1 X156.771 Y113.5 E23.69881
G1 X156.186 Y115.126 E23.79741
G1 X155.783 Y116.779 E23.89449
G1 X155.555 Y118.478 E23.9923
G1 X155.509 Y120.191 E24.09008
G1 X155.646 Y121.898 E24.18779
G1 X155.965 Y123.582 E24.28559
G1 X156.456 Y125.212 E24.38272
G1 X157.125 Y126.806 E24.48136
G1 X157.956 Y128.307 E24.57925
G1 X158.941 Y129.709 E24.67702
G1 X160.069 Y130.998 E24.77475
G1 X161.334 Y132.167 E24.87303
G1 X162.709 Y133.184 E24.97061
G1 X164.184 Y134.056 E25.06838
G1 X165.741 Y134.764 E25.16598
G1 X167.388 Y135.308 E25.26495
G1 X169.05 Y135.665 E25.36194
G1 X170.756 Y135.848 E25.45984
G1 X172.293 Y135.848 E25.54754
G0 F810 X172.468 Y135.848
G0 F3600 X172.865 Y135.806
G0 X172.813 Y135.308
G0 X167.829 Y134.369
G0 X165.892 Y133.722
G0 X164.507 Y133.072
G0 X163.027 Y132.162
G0 X161.674 Y131.105
G0 X159.628 Y128.93
G0 X158.627 Y127.434
G0 X157.95 Y126.159
G0 X157.342 Y124.65
G0 X156.858 Y122.868
G0 X156.625 Y121.464
G0 X156.528 Y119.932
G0 X156.595 Y118.328
G0 X156.823 Y116.896
G0 X157.417 Y113.772
;TYPE:WALL-INNER
G1 F900 X156.857 Y115.328 E25.6419
G1 X156.472 Y116.909 E25.73475
G1 X156.253 Y118.534 E25.8283
G1 X156.21 Y120.172 E25.9218
G1 X156.341 Y121.804 E26.01522
G1 X156.646 Y123.415 E26.10877
G1 X157.116 Y124.975 E26.20174
G1 X157.756 Y126.5 E26.2961
G1 X158.55 Y127.935 E26.38968
G1 X159.492 Y129.276 E26.48319
G1 X160.571 Y130.509 E26.57667
G1 X161.781 Y131.627 E26.67068
G1 X163.097 Y132.6 E26.76406
G1 X164.508 Y133.434 E26.85758
G1 X165.997 Y134.111 E26.95091
G1 X167.572 Y134.632 E27.04557
G1 X169.161 Y134.973 E27.1383
G1 X170.793 Y135.148 E27.23195
G1 X172.431 Y135.148 E27.32541
G1 X174.063 Y134.973 E27.41907
G1 X175.653 Y134.63 E27.51188
G1 X177.228 Y134.111 E27.6065
G1 X178.716 Y133.434 E27.69978
G1 X180.128 Y132.6 E27.79335
G1 X181.443 Y131.627 E27.88669
G1 X182.653 Y130.509 E27.98069
G1 X183.731 Y129.276 E28.07414
G1 X184.674 Y127.935 E28.16768
G1 X185.468 Y126.5 E28.26125
G1 X186.108 Y124.975 E28.35562
G1 X186.578 Y123.415 E28.44858
G1 X186.883 Y121.804 E28.54214
G1 X187.014 Y120.171 E28.63562
G1 X186.976 Y118.716 E28.71866
G1 X186.97 Y118.532 E28.72917
G1 X186.752 Y116.905 E28.82283
G1 X186.367 Y115.328 E28.91546
G1 X185.806 Y113.77 E29.00994
G1 X185.089 Y112.295 E29.10352
G1 X184.22 Y110.907 E29.19696
G1 X183.206 Y109.615 E29.29067
G1 X182.062 Y108.44 E29.38424
G1 X180.801 Y107.395 E29.47769
G1 X179.435 Y106.489 E29.57122
G1 X177.977 Y105.731 E29.66498
G1 X176.437 Y105.128 E29.75935
G1 X174.868 Y104.703 E29.8521
G1 X173.247 Y104.442 E29.94578
G1 X171.612 Y104.354 E30.03921
G1 X169.977 Y104.442 E30.13263
G1 X168.356 Y104.702 E30.22631
