;FLAVOR:Marlin
;TIME:907
;Filament used: 1.49436m
;Layer height: 0.4
;MINX:151.116
;MINY:57.944
;MINZ:0.52
;MAXX:192.108
;MAXY:98.933
;MAXZ:20.92
;POSTPROCESSED
;Generated with Cura_SteamEngine 5.2.1
;
;

M82 ;absolute extrusion mode
M98 P0:/sys/startprint.g

G92 E0
G92 E0
G10
;LAYER_COUNT:52
;LAYER:0
M107
G0 F3600 X152.73 Y70.458 Z0.52
;TYPE:SKIRT
G11
G1 F450 X153.285 Y69.29 E0.07379
G1 X153.671 Y68.521 E0.12288
G1 X154.083 Y67.839 E0.16834
G1 X154.823 Y66.678 E0.2469
G1 X155.295 Y66.055 E0.2915
G1 X156.185 Y64.941 E0.37286
G1 X157.032 Y64.054 E0.44284
G1 X157.717 Y63.37 E0.49807
G1 X158.322 Y62.853 E0.54348
G1 X159.388 Y61.986 E0.62188
G1 X159.996 Y61.568 E0.66398
G1 X161.196 Y60.784 E0.74577
G1 X162.303 Y60.196 E0.81729
G1 X163.162 Y59.766 E0.8721
G1 X163.887 Y59.47 E0.91679
G1 X165.161 Y58.983 E0.99461
G1 X166.366 Y58.643 E1.06605
G1 X167.313 Y58.399 E1.12185
G1 X168.481 Y58.2 E1.18945
G1 X169.438 Y58.058 E1.24466
G1 X170.777 Y57.976 E1.3212
G1 X171.614 Y57.944 E1.36899
G1 X172.945 Y58.002 E1.44501
G1 X173.775 Y58.059 E1.49248
G1 X174.571 Y58.173 E1.53836
G1 X175.925 Y58.402 E1.61672
G1 X176.685 Y58.595 E1.66146
G1 X178.048 Y58.978 E1.74224
G1 X179.197 Y59.415 E1.81238
G1 X180.076 Y59.771 E1.8665
G1 X180.806 Y60.136 E1.91306
G1 X181.992 Y60.764 E1.98964
G1 X182.709 Y61.225 E2.03828
G1 X183.912 Y62.04 E2.12119
G1 X184.887 Y62.841 E2.19318
G1 X185.51 Y63.373 E2.23993
G1 X186.413 Y64.281 E2.313
G1 X187.073 Y64.975 E2.36764
G1 X187.834 Y65.933 E2.43745
G1 X188.443 Y66.732 E2.49478
G1 X189.069 Y67.725 E2.56175
G1 X189.561 Y68.535 E2.61583
G1 X190.077 Y69.573 E2.68197
G1 X190.544 Y70.565 E2.74453
G1 X190.956 Y71.701 E2.81348
G1 X191.248 Y72.542 E2.86428
G1 X191.581 Y73.865 E2.94212
G1 X191.759 Y74.642 E2.9876
G1 X191.863 Y75.329 E3.02725
G1 X192.05 Y76.806 E3.1122
G1 X192.097 Y78.122 E3.18734
G1 X192.108 Y78.998 E3.23732
G1 X192.016 Y80.291 E3.31129
G1 X191.932 Y81.179 E3.36218
G1 X191.72 Y82.366 E3.43098
G1 X191.511 Y83.395 E3.49089
G1 X191.15 Y84.61 E3.56322
G1 X190.901 Y85.395 E3.61021
G1 X190.442 Y86.518 E3.67943
G1 X190.044 Y87.427 E3.73605
G1 X189.474 Y88.48 E3.80437
G1 X188.978 Y89.344 E3.86121
G1 X188.321 Y90.299 E3.92735
G1 X187.683 Y91.183 E3.98956
G1 X186.881 Y92.107 E4.05937
G1 X186.302 Y92.751 E4.10878
G1 X185.404 Y93.597 E4.17918
G1 X184.679 Y94.247 E4.23474
G1 X183.629 Y95.04 E4.30982
G1 X183.084 Y95.432 E4.34812
G1 X182.596 Y95.748 E4.3813
G1 X181.829 Y96.204 E4.43221
G1 X181.065 Y96.64 E4.4824
G1 X180.443 Y96.936 E4.52171
G1 X178.998 Y97.576 E4.61188
G1 X177.912 Y97.941 E4.67725
G1 X177.001 Y98.229 E4.73177
G1 X175.735 Y98.514 E4.80581
G1 X175.022 Y98.657 E4.84731
G1 X174.458 Y98.743 E4.87986
G1 X173.553 Y98.842 E4.93181
G1 X172.635 Y98.927 E4.98441
G1 X171.385 Y98.933 E5.05573
G1 X170.443 Y98.92 E5.10949
G1 X169.163 Y98.787 E5.18292
G1 X168.259 Y98.676 E5.23488
G1 X167.15 Y98.443 E5.29954
G1 X166.211 Y98.226 E5.35453
G1 X165.003 Y97.838 E5.42693
G1 X164.138 Y97.539 E5.47915
G1 X162.916 Y96.997 E5.55543
G1 X162.335 Y96.724 E5.59206
G1 X161.817 Y96.449 E5.62552
G1 X160.97 Y95.953 E5.68152
G1 X160.285 Y95.536 E5.72728
G1 X159.583 Y95.031 E5.77662
G1 X158.538 Y94.241 E5.85137
G1 X157.989 Y93.752 E5.89332
G1 X156.936 Y92.764 E5.97571
G1 X156.069 Y91.793 E6.04999
G1 X155.481 Y91.101 E6.1018
G1 X154.775 Y90.116 E6.17095
G1 X154.22 Y89.307 E6.22693
G1 X153.623 Y88.25 E6.29619
G1 X153.182 Y87.43 E6.34932
G1 X152.651 Y86.205 E6.4255
G1 X152.381 Y85.539 E6.46651
G1 X152.141 Y84.833 E6.50905
G1 X151.695 Y83.312 E6.59949
G1 X151.513 Y82.416 E6.65166
G1 X151.29 Y81.171 E6.72383
G1 X151.183 Y79.983 E6.79189
G1 X151.116 Y78.975 E6.84953
G1 X151.137 Y77.782 E6.91761
G1 X151.178 Y76.775 E6.97512
G1 X151.341 Y75.483 E7.04942
G1 X151.464 Y74.655 E7.09719
G1 X151.615 Y73.981 E7.1366
G1 X151.98 Y72.534 E7.22175
G1 X152.404 Y71.323 E7.29496
G1 X152.669 Y70.621 E7.33777
G0 F405 X152.73 Y70.458
G0 F3600 X153.377 Y70.728
G1 F450 X153.877 Y69.673 E7.40439
G1 X154.285 Y68.859 E7.45634
G1 X154.674 Y68.215 E7.49927
G1 X155.402 Y67.072 E7.57659
G1 X155.785 Y66.565 E7.61285
G1 X156.716 Y65.397 E7.69808
G1 X157.538 Y64.537 E7.76596
G1 X158.187 Y63.889 E7.81828
G1 X158.764 Y63.396 E7.86159
G1 X159.807 Y62.547 E7.93832
G1 X160.379 Y62.154 E7.97792
G1 X161.548 Y61.39 E8.05761
G1 X162.631 Y60.815 E8.12757
G1 X163.448 Y60.406 E8.1797
G1 X164.137 Y60.124 E8.22218
G1 X165.381 Y59.648 E8.29818
G1 X166.633 Y59.296 E8.37239
G1 X167.463 Y59.083 E8.42128
G1 X168.598 Y58.89 E8.48697
G1 X169.512 Y58.756 E8.53968
G1 X170.804 Y58.675 E8.61355
G1 X171.61 Y58.644 E8.65957
G1 X172.814 Y58.696 E8.72833
G1 X173.708 Y58.756 E8.77946
G1 X174.365 Y58.849 E8.81732
G1 X175.774 Y59.086 E8.89884
G1 X176.495 Y59.269 E8.94129
G1 X177.833 Y59.645 E9.02059
G1 X178.948 Y60.069 E9.08865
G1 X179.778 Y60.405 E9.13975
G1 X180.403 Y60.716 E9.17958
G1 X181.648 Y61.375 E9.25996
G1 X182.245 Y61.757 E9.3004
G1 X183.491 Y62.6 E9.38623
G1 X184.433 Y63.374 E9.4558
G1 X185.029 Y63.882 E9.50048
G1 X185.97 Y64.83 E9.5767
G1 X186.607 Y65.51 E9.62986
G1 X187.324 Y66.417 E9.69583
G1 X187.862 Y67.123 E9.74648
G1 X188.47 Y68.088 E9.81156
G1 X188.948 Y68.875 E9.8641
G1 X189.483 Y69.953 E9.93277
G1 X189.895 Y70.832 E9.98816
G1 X190.295 Y71.93 E10.05484
G1 X190.575 Y72.735 E10.10347
G1 X190.898 Y74.021 E10.17912
G1 X191.07 Y74.772 E10.22308
G1 X191.182 Y75.516 E10.26601
G1 X191.352 Y76.865 E10.34359
G1 X191.397 Y78.131 E10.41588
G1 X191.408 Y78.98 E10.46432
G1 X191.326 Y80.145 E10.53096
G1 X191.238 Y81.086 E10.58489
G1 X191.031 Y82.243 E10.65195
G1 X190.83 Y83.229 E10.70937
G1 X190.483 Y84.399 E10.779
G1 X190.245 Y85.151 E10.82401
G1 X189.794 Y86.253 E10.89195
G1 X189.416 Y87.117 E10.94576
G1 X188.816 Y88.223 E11.01755
G1 X188.391 Y88.962 E11.0662
G1 X187.699 Y89.966 E11.13577
G1 X187.138 Y90.742 E11.19041
G1 X186.36 Y91.639 E11.25816
G1 X185.794 Y92.268 E11.30644
G1 X184.862 Y93.145 E11.37946
G1 X184.239 Y93.703 E11.42718
G1 X183.22 Y94.472 E11.50002
G1 X182.675 Y94.864 E11.53833
G1 X182.238 Y95.147 E11.56804
G1 X181.482 Y95.596 E11.61821
G1 X180.746 Y96.016 E11.66656
G1 X180.143 Y96.303 E11.70466
G1 X178.741 Y96.923 E11.79213
G1 X177.629 Y97.297 E11.85908
G1 X176.813 Y97.554 E11.90789
G1 X175.598 Y97.828 E11.97896
G1 X174.885 Y97.971 E12.02045
G1 X174.381 Y98.047 E12.04953
G1 X173.488 Y98.145 E12.10079
G1 X172.601 Y98.227 E12.15162
G1 X171.395 Y98.233 E12.22043
G1 X170.48 Y98.22 E12.27265
G1 X169.248 Y98.092 E12.34332
G1 X168.371 Y97.984 E12.39374
G1 X167.294 Y97.758 E12.45653
G1 X166.389 Y97.548 E12.50954
G1 X165.305 Y97.201 E12.57448
G1 X164.387 Y96.884 E12.6299
G1 X163.213 Y96.363 E12.70319
G1 X162.632 Y96.09 E12.73981
G1 X162.17 Y95.845 E12.76965
G1 X161.386 Y95.387 E12.82146
G1 X160.677 Y94.955 E12.86883
G1 X160.005 Y94.473 E12.91602
G1 X158.991 Y93.706 E12.98856
G1 X158.455 Y93.229 E13.02951
G1 X157.432 Y92.269 E13.10955
G1 X156.602 Y91.339 E13.18068
G1 X156.033 Y90.669 E13.23083
G1 X155.302 Y89.649 E13.30244
G1 X154.82 Y88.944 E13.35116
G1 X154.198 Y87.842 E13.42337
G1 X153.812 Y87.123 E13.46993
G1 X153.299 Y85.942 E13.5434
G1 X152.983 Y85.163 E13.59137
G1 X152.779 Y84.526 E13.62953
G1 X152.376 Y83.145 E13.71162
G1 X152.202 Y82.293 E13.76123
G1 X151.986 Y81.087 E13.83114
G1 X151.874 Y79.84 E13.90258
G1 X151.816 Y78.963 E13.95273
G1 X151.839 Y77.713 E14.02407
G1 X151.876 Y76.829 E14.07455
G1 X152.033 Y75.586 E14.14604
G1 X152.152 Y74.784 E14.1923
G1 X152.319 Y74.045 E14.23553
G1 X152.648 Y72.746 E14.31199
G1 X153.059 Y71.57 E14.38307
G1 X153.316 Y70.891 E14.42449
G0 F405 X153.377 Y70.728
G10
;MESH:pulley-motor-flatsmaller.STL
G0 F3600 X154.587 Y75.154
G0 X155.555 Y77.163
;TYPE:WALL-OUTER
G11
G1 F900 X155.509 Y78.876 E14.52227
G1 X155.646 Y80.583 E14.61998
G1 X155.965 Y82.267 E14.71778
G1 X156.456 Y83.897 E14.81491
G1 X157.125 Y85.491 E14.91355
G1 X157.956 Y86.991 E15.01139
G1 X158.941 Y88.393 E15.10916
G1 X160.069 Y89.683 E15.20694
G1 X161.334 Y90.852 E15.30522
G1 X162.709 Y91.869 E15.4028
G1 X164.184 Y92.741 E15.50057
G1 X165.741 Y93.449 E15.59816
G1 X167.387 Y93.993 E15.69708
G1 X169.05 Y94.349 E15.79412
G1 X169.802 Y94.43 E15.83727
G1 X170.756 Y94.533 E15.89202
G1 X172.468 Y94.533 E15.98971
G1 X174.174 Y94.349 E16.08761
G1 X175.837 Y93.991 E16.18468
G1 X177.483 Y93.449 E16.28356
G1 X179.04 Y92.741 E16.38115
G1 X180.515 Y91.869 E16.47892
G1 X181.89 Y90.852 E16.5765
G1 X183.155 Y89.683 E16.67478
G1 X184.283 Y88.393 E16.77256
G1 X185.268 Y86.991 E16.87033
G1 X186.099 Y85.491 E16.96817
G1 X186.768 Y83.897 E17.06681
G1 X187.259 Y82.267 E17.16394
G1 X187.578 Y80.583 E17.26174
G1 X187.715 Y78.874 E17.35956
G1 X187.669 Y77.161 E17.45734
G1 X187.441 Y75.46 E17.55526
G1 X187.038 Y73.811 E17.65212
G1 X186.452 Y72.183 E17.75085
G1 X185.702 Y70.64 E17.84874
G1 X184.794 Y69.189 E17.94641
G1 X183.734 Y67.838 E18.04439
G1 X182.538 Y66.61 E18.1422
G1 X181.219 Y65.517 E18.23994
G1 X179.79 Y64.569 E18.33779
G1 X178.267 Y63.777 E18.43574
G1 X176.657 Y63.146 E18.5344
G1 X175.016 Y62.702 E18.6314
G1 X173.321 Y62.429 E18.72936
G1 X171.612 Y62.338 E18.82702
G1 X169.903 Y62.429 E18.92467
G1 X168.208 Y62.702 E19.02263
G1 X166.567 Y63.148 E19.11966
G1 X164.957 Y63.777 E19.21828
G1 X163.433 Y64.569 E19.31628
G1 X162.005 Y65.517 E19.41408
G1 X160.686 Y66.61 E19.51183
G1 X159.488 Y67.84 E19.6098
G1 X158.43 Y69.189 E19.70762
G1 X157.522 Y70.64 E19.80528
G1 X156.771 Y72.185 E19.9033
G1 X156.186 Y73.811 E20.0019
G1 X155.783 Y75.464 E20.09898
G1 X155.578 Y76.99 E20.18684
G0 F810 X155.555 Y77.163
G0 F3600 X155.545 Y77.563
G10
G0 X156.043 Y77.576
G0 X165.277 Y79.152
G0 X175.931 Y81.606
G11
G1 F900 X175.326 Y82.298 E20.23928
G1 X174.67 Y82.837 E20.28773
G1 X173.893 Y83.287 E20.33896
G1 X173.078 Y83.593 E20.38863
G1 X172.182 Y83.767 E20.44071
G1 X171.28 Y83.786 E20.49219
G1 X170.713 Y83.706 E20.52486
G1 X170.138 Y84.705 E20.59063
G1 X169.852 Y84.996 E20.61391
G1 X169.345 Y85.31 E20.64794
G1 X168.731 Y85.448 E20.68385
G1 X168.18 Y85.388 E20.71547
G1 X167.819 Y85.255 E20.73743
G1 X167.352 Y84.932 E20.76983
G1 X166.979 Y84.426 E20.80569
G1 X166.805 Y83.848 E20.84014
G1 X166.817 Y83.257 E20.87386
G1 X166.932 Y82.854 E20.89778
G1 X167.506 Y81.856 E20.96347
G1 X167.152 Y81.402 E20.99632
G1 X166.721 Y80.616 E21.04747
G1 X166.429 Y79.778 E21.0981
G1 X166.283 Y78.917 E21.14793
G1 X166.28 Y78.007 E21.19985
G1 X166.424 Y77.134 E21.25034
G1 X166.722 Y76.275 E21.30222
G1 X167.152 Y75.492 E21.35319
G1 X167.506 Y75.037 E21.38608
G1 X166.924 Y74.027 E21.45259
G1 X166.813 Y73.599 E21.47782
G1 X166.811 Y72.987 E21.51274
G1 X166.91 Y72.639 E21.53339
G1 X167.195 Y72.141 E21.56613
G1 X167.482 Y71.854 E21.58929
G1 X167.99 Y71.561 E21.62275
G1 X168.342 Y71.47 E21.64349
G1 X168.918 Y71.469 E21.67636
G1 X169.316 Y71.577 E21.69989
G1 X169.804 Y71.86 E21.73208
G1 X170.129 Y72.174 E21.75786
G1 X170.713 Y73.187 E21.82458
G1 X171.28 Y73.108 E21.85724
G1 X172.19 Y73.127 E21.90918
G1 X173.06 Y73.294 E21.95973
G1 X173.875 Y73.598 E22.00936
G1 X174.636 Y74.033 E22.05937
G1 X175.335 Y74.603 E22.11084
G1 X175.914 Y75.264 E22.16098
G1 X176.377 Y76.014 E22.21127
G1 X176.616 Y76.597 E22.24722
G1 X177.782 Y76.597 E22.31375
G1 X178.163 Y76.698 E22.33624
G1 X178.521 Y76.868 E22.35885
G1 X178.955 Y77.234 E22.39125
G1 X179.17 Y77.529 E22.41208
G1 X179.382 Y78.11 E22.44737
G1 X179.386 Y78.769 E22.48497
G1 X179.171 Y79.355 E22.52058
G1 X178.965 Y79.654 E22.5413
G1 X178.488 Y80.047 E22.57657
G1 X178.199 Y80.183 E22.59479
G1 X177.78 Y80.297 E22.61957
G1 X176.616 Y80.297 E22.68598
G1 X176.377 Y80.879 E22.72188
G1 X176.022 Y81.457 E22.76059
G0 F810 X175.931 Y81.606
G0 F3600 X175.668 Y81.907
G0 X176.045 Y82.236
G0 X178.342 Y80.601
G0 X180.084 Y78.886
;TYPE:WALL-INNER
G1 F900 X179.818 Y79.635 E22.80594
G1 X179.49 Y80.127 E22.83968
G1 X178.896 Y80.625 E22.88391
G1 X178.452 Y80.836 E22.91196
G1 X177.865 Y80.997 E22.94669
G1 X177.089 Y80.997 E22.99096
G1 X176.974 Y81.245 E23.00656
G1 X176.503 Y82.01 E23.05782
G1 X175.895 Y82.719 E23.11111
G1 X175.771 Y82.839 E23.12096
G1 X175.051 Y83.428 E23.17404
G1 X174.183 Y83.925 E23.23111
G1 X173.236 Y84.276 E23.28873
G1 X172.276 Y84.464 E23.34455
G1 X171.358 Y84.489 E23.39695
G1 X171.084 Y84.466 E23.41264
G1 X170.7 Y85.131 E23.45646
G1 X170.306 Y85.528 E23.48837
G1 X169.604 Y85.975 E23.53586
G1 X168.761 Y86.153 E23.58502
G1 X168.01 Y86.074 E23.6281
G1 X167.508 Y85.889 E23.65863
G1 X166.968 Y85.517 E23.69605
G1 X166.78 Y85.338 E23.71086
G1 X166.404 Y84.829 E23.74697
G1 X166.297 Y84.588 E23.76201
G1 X166.11 Y83.934 E23.80082
G1 X166.117 Y83.163 E23.84482
G1 X166.283 Y82.577 E23.87957
G1 X166.664 Y81.915 E23.92315
G1 X166.505 Y81.687 E23.93901
G1 X166.071 Y80.883 E23.99114
G1 X165.742 Y79.917 E24.04937
G1 X165.582 Y78.944 E24.10564
G1 X165.579 Y77.95 E24.16235
G1 X165.744 Y76.968 E24.21917
G1 X166.071 Y76.008 E24.27704
G1 X166.506 Y75.206 E24.32909
G1 X166.664 Y74.979 E24.34488
G1 X166.278 Y74.307 E24.38909
G1 X166.111 Y73.695 E24.42529
G1 X166.111 Y72.884 E24.47157
G1 X166.274 Y72.348 E24.50353
G1 X166.611 Y71.755 E24.54245
G1 X167.012 Y71.319 E24.57625
G1 X167.723 Y70.908 E24.62311
G1 X168.271 Y70.774 E24.6553
G1 X168.954 Y70.77 E24.69427
G1 X169.425 Y70.873 E24.72178
G1 X169.644 Y70.959 E24.7352
G1 X170.204 Y71.285 E24.77218
G1 X170.691 Y71.749 E24.81056
G1 X171.084 Y72.428 E24.85532
G1 X171.356 Y72.405 E24.8709
G1 X172.258 Y72.43 E24.92238
G1 X173.243 Y72.618 E24.9796
G1 X174.191 Y72.968 E25.03726
G1 X175.041 Y73.461 E25.09333
G1 X175.832 Y74.106 E25.15157
G1 X176.484 Y74.853 E25.20814
G1 X176.974 Y75.648 E25.26143
G1 X177.089 Y75.897 E25.27708
G1 X177.87 Y75.897 E25.32164
G1 X178.397 Y76.038 E25.35277
G1 X178.943 Y76.31 E25.38757
G1 X179.449 Y76.738 E25.42539
G1 X179.792 Y77.193 E25.4579
G1 X180.086 Y78 E25.50691
G1 X180.084 Y78.711 E25.54748
G0 F810 X180.084 Y78.886
G10
G0 F3600 X179.144 Y76.047
G0 X180.77 Y66.508
G0 X179.434 Y65.173
G11
G1 F900 X177.977 Y64.415 E25.64119
G1 X176.437 Y63.812 E25.73555
G1 X174.868 Y63.388 E25.82829
G1 X173.247 Y63.126 E25.92198
G1 X171.612 Y63.039 E26.01541
G1 X169.977 Y63.126 E26.10883
G1 X168.356 Y63.388 E26.20252
G1 X166.787 Y63.814 E26.29529
G1 X165.247 Y64.415 E26.38961
G1 X163.789 Y65.173 E26.48337
G1 X162.423 Y66.079 E26.5769
G1 X161.162 Y67.125 E26.67038
G1 X160.016 Y68.302 E26.76412
G1 X159.004 Y69.592 E26.85767
G1 X158.135 Y70.98 E26.95111
G1 X157.417 Y72.457 E27.04482
G1 X156.857 Y74.013 E27.13917
G1 X156.472 Y75.594 E27.23202
G1 X156.253 Y77.219 E27.32558
G1 X156.21 Y78.857 E27.41907
G1 X156.341 Y80.489 E27.51249
G1 X156.646 Y82.1 E27.60605
G1 X157.116 Y83.66 E27.69901
G1 X157.756 Y85.185 E27.79338
G1 X158.55 Y86.619 E27.8869
G1 X159.492 Y87.96 E27.98041
G1 X160.571 Y89.195 E28.07399
G1 X161.781 Y90.312 E28.16795
G1 X163.096 Y91.285 E28.26129
G1 X164.508 Y92.119 E28.35486
G1 X165.997 Y92.796 E28.44819
G1 X167.571 Y93.317 E28.54279
G1 X169.161 Y93.657 E28.63556
G1 X169.877 Y93.734 E28.67665
G1 X170.794 Y93.833 E28.72928
G1 X172.43 Y93.833 E28.82263
G1 X174.063 Y93.657 E28.91634
G1 X175.653 Y93.315 E29.00914
G1 X177.228 Y92.796 E29.10376
G1 X178.716 Y92.119 E29.19704
G1 X180.128 Y91.285 E29.29061
G1 X181.443 Y90.312 E29.38395
G1 X182.653 Y89.194 E29.47795
G1 X183.731 Y87.96 E29.57144
G1 X184.674 Y86.619 E29.66498
G1 X185.468 Y85.185 E29.75851
G1 X186.108 Y83.66 E29.85288
G1 X186.578 Y82.1 E29.94584
G1 X186.883 Y80.489 E30.0394
G1 X187.014 Y78.856 E30.13287
G1 X186.97 Y77.217 E30.22643
G1 X186.752 Y75.59 E30.32009
G1 X186.367 Y74.013 E30.41271
G1 X185.806 Y72.455 E30.5072
G1 X185.089 Y70.98 E30.60078
G1 X184.22 Y69.592 E30.69422
G1 X183.206 Y68.3 E30.78793
G1 X182.062 Y67.125 E30.8815
G1 X180.801 Y66.079 E30.97498
G1 X179.579 Y65.269 E31.05864
G0 F810 X179.434 Y65.173
G10
G0 F3600 X177.618 Y64.651
G0 X169.455 Y70.539
G0 X167.473 Y70.285
;TYPE:SKIN
G11
G1 F900 X168.235 Y70.106 E31.1033
G1 X168.984 Y70.105 E31.14604
G1 X169.371 Y70.17 E31.16843
G1 X169.959 Y70.372 E31.2039
G1 X170.663 Y70.784 E31.25044
G1 X171.155 Y71.273 E31.29002
G1 X171.446 Y71.741 E31.32147
G1 X172.322 Y71.765 E31.37147
G1 X173.417 Y71.974 E31.43508
G1 X174.456 Y72.356 E31.49824
G1 X175.438 Y72.922 E31.56291
G1 X176.271 Y73.603 E31.62431
G1 X177.044 Y74.488 E31.69135
