;FLAVOR:Marlin
;TIME:898
;Filament used: 1.49486m
;Layer height: 0.4
;MINX:43.119
;MINY:8.829
;MINZ:0.52
;MAXX:84.11
;MAXY:49.819
;MAXZ:20.92
;POSTPROCESSED
;Generated with Cura_SteamEngine 5.2.1
;
;

M82 ;absolute extrusion mode
M98 P0:/sys/startprint.g

G92 E0
G92 E0
G10
;LAYER_COUNT:52
;LAYER:0
M107
G0 F3600 X44.731 Y21.345 Z0.52
;TYPE:SKIRT
G11
G1 F450 X45.287 Y20.176 E0.07386
G1 X45.675 Y19.404 E0.12316
G1 X46.087 Y18.722 E0.16863
G1 X46.825 Y17.565 E0.24693
G1 X47.288 Y16.953 E0.29072
G1 X48.17 Y15.847 E0.37143
G1 X49.093 Y14.881 E0.44767
G1 X49.697 Y14.277 E0.49641
G1 X50.233 Y13.816 E0.53674
G1 X51.355 Y12.897 E0.6195
G1 X52.039 Y12.427 E0.66685
G1 X53.178 Y11.683 E0.74448
G1 X53.946 Y11.27 E0.79423
G1 X55.16 Y10.653 E0.87194
G1 X56.38 Y10.165 E0.94691
G1 X57.255 Y9.837 E1.00023
G1 X58.447 Y9.509 E1.07077
G1 X59.374 Y9.271 E1.12538
G1 X60.585 Y9.071 E1.19541
G1 X61.452 Y8.945 E1.2454
G1 X62.729 Y8.865 E1.31841
G1 X63.63 Y8.829 E1.36986
G1 X64.96 Y8.89 E1.44583
G1 X65.788 Y8.946 E1.49318
G1 X66.53 Y9.053 E1.53596
G1 X67.9 Y9.283 E1.61522
G1 X68.648 Y9.471 E1.65923
G1 X70.067 Y9.872 E1.74337
G1 X71.29 Y10.338 E1.81804
G1 X72.077 Y10.659 E1.86654
G1 X72.712 Y10.974 E1.90698
G1 X74.082 Y11.7 E1.99545
G1 X75.056 Y12.338 E2.06189
G1 X75.858 Y12.888 E2.11738
G1 X76.754 Y13.614 E2.18318
G1 X77.542 Y14.288 E2.24234
G1 X78.053 Y14.796 E2.28346
G1 X79.091 Y15.88 E2.36909
G1 X79.895 Y16.898 E2.44311
G1 X80.389 Y17.545 E2.48956
G1 X81.065 Y18.601 E2.5611
G1 X81.562 Y19.421 E2.61581
G1 X82.12 Y20.544 E2.68736
G1 X82.54 Y21.442 E2.74393
G1 X82.957 Y22.585 E2.81335
G1 X83.249 Y23.425 E2.86409
G1 X83.57 Y24.695 E2.93884
G1 X83.76 Y25.525 E2.98742
G1 X83.929 Y26.688 E3.05448
G1 X84.051 Y27.698 E3.11252
G1 X84.082 Y28.353 E3.14994
G1 X84.11 Y29.848 E3.23526
G1 X84.068 Y30.554 E3.27561
G1 X83.938 Y32.037 E3.36055
G1 X83.805 Y32.815 E3.40559
G1 X83.572 Y33.999 E3.47444
G1 X83.427 Y34.575 E3.50833
G1 X83.199 Y35.344 E3.5541
G1 X82.895 Y36.304 E3.61156
G1 X82.395 Y37.52 E3.68658
G1 X82.049 Y38.307 E3.73563
G1 X81.438 Y39.434 E3.80878
G1 X80.942 Y40.299 E3.86567
G1 X80.226 Y41.325 E3.93706
G1 X79.755 Y41.976 E3.98291
G1 X78.91 Y42.963 E4.05705
G1 X78.305 Y43.636 E4.10868
G1 X77.429 Y44.462 E4.17738
G1 X76.681 Y45.133 E4.23472
G1 X75.648 Y45.914 E4.30861
G1 X74.944 Y46.421 E4.35811
G1 X74.356 Y46.781 E4.39745
G1 X73.073 Y47.524 E4.48205
G1 X72.351 Y47.865 E4.52761
G1 X71.015 Y48.458 E4.61101
G1 X69.864 Y48.843 E4.68026
G1 X68.994 Y49.117 E4.7323
G1 X68.291 Y49.282 E4.77351
G1 X67.039 Y49.541 E4.84646
G1 X66.264 Y49.652 E4.89113
G1 X64.713 Y49.806 E4.98006
G1 X63.949 Y49.819 E5.02366
G1 X62.714 Y49.809 E5.09413
G1 X62.128 Y49.774 E5.12763
G1 X61.195 Y49.677 E5.18115
G1 X60.291 Y49.567 E5.23311
G1 X59.07 Y49.311 E5.30429
G1 X58.214 Y49.112 E5.35444
G1 X57.1 Y48.757 E5.42115
G1 X56.133 Y48.423 E5.47953
G1 X55.47 Y48.134 E5.52079
G1 X54.158 Y47.525 E5.60333
G1 X53.131 Y46.933 E5.67096
G1 X52.272 Y46.413 E5.72826
G1 X51.308 Y45.711 E5.7963
G1 X50.504 Y45.098 E5.85399
G1 X49.576 Y44.254 E5.92556
G1 X48.918 Y43.628 E5.97738
G1 X48.353 Y43.003 E6.02546
G1 X47.482 Y41.989 E6.10173
G1 X46.715 Y40.915 E6.17703
G1 X46.224 Y40.197 E6.22667
G1 X45.625 Y39.137 E6.29614
G1 X45.184 Y38.317 E6.34926
G1 X44.653 Y37.092 E6.42544
G1 X44.383 Y36.426 E6.46645
G1 X44.143 Y35.72 E6.509
G1 X43.691 Y34.181 E6.60052
G1 X43.45 Y32.955 E6.67181
G1 X43.271 Y31.883 E6.73382
G1 X43.178 Y30.782 E6.79687
G1 X43.119 Y29.867 E6.84919
G1 X43.126 Y29.12 E6.89181
G1 X43.178 Y27.667 E6.97477
G1 X43.334 Y26.428 E7.04602
G1 X43.467 Y25.536 E7.09748
G1 X43.622 Y24.843 E7.138
G1 X43.774 Y24.222 E7.17448
G1 X44 Y23.358 E7.22544
G1 X44.374 Y22.295 E7.28974
G1 X44.67 Y21.508 E7.33771
G0 F405 X44.731 Y21.345
G0 F3600 X45.376 Y21.618
G1 F450 X45.879 Y20.558 E7.40466
G1 X46.288 Y19.744 E7.45664
G1 X46.633 Y19.171 E7.4948
G1 X47.333 Y18.072 E7.56915
G1 X47.781 Y17.46 E7.61243
G1 X48.707 Y16.298 E7.69721
G1 X49.533 Y15.432 E7.76549
G1 X50.09 Y14.874 E7.81048
G1 X50.607 Y14.415 E7.84993
G1 X51.78 Y13.454 E7.93645
G1 X52.422 Y13.013 E7.98089
G1 X53.533 Y12.287 E8.05662
G1 X54.263 Y11.894 E8.10392
G1 X55.453 Y11.289 E8.18009
G1 X56.626 Y10.82 E8.25218
G1 X57.464 Y10.506 E8.30324
G1 X58.621 Y10.186 E8.37173
G1 X59.501 Y9.96 E8.42357
G1 X60.686 Y9.764 E8.49211
G1 X61.524 Y9.642 E8.54043
G1 X62.757 Y9.565 E8.61092
G1 X63.637 Y9.53 E8.66117
G1 X64.837 Y9.584 E8.72971
G1 X65.723 Y9.644 E8.78038
G1 X66.414 Y9.743 E8.82021
G1 X67.753 Y9.968 E8.89768
G1 X68.575 Y10.176 E8.94606
G1 X69.849 Y10.537 E9.02162
G1 X70.952 Y10.957 E9.08896
G1 X71.793 Y11.299 E9.14076
G1 X72.483 Y11.643 E9.18475
G1 X73.719 Y12.299 E9.2646
G1 X74.731 Y12.963 E9.33366
G1 X75.436 Y13.446 E9.38242
G1 X76.313 Y14.158 E9.44688
G1 X77.069 Y14.804 E9.50362
G1 X77.617 Y15.351 E9.5478
G1 X78.561 Y16.337 E9.62568
G1 X79.339 Y17.323 E9.69735
G1 X79.81 Y17.941 E9.74168
G1 X80.466 Y18.963 E9.81098
G1 X80.947 Y19.757 E9.86395
G1 X81.45 Y20.766 E9.92827
G1 X81.896 Y21.716 E9.98816
G1 X82.296 Y22.815 E10.05489
G1 X82.58 Y23.632 E10.10424
G1 X82.87 Y24.778 E10.17169
G1 X83.073 Y25.66 E10.22333
G1 X83.247 Y26.87 E10.29309
G1 X83.353 Y27.751 E10.34372
G1 X83.385 Y28.481 E10.38541
G1 X83.409 Y29.836 E10.46274
G1 X83.362 Y30.61 E10.50698
G1 X83.243 Y31.946 E10.58351
G1 X83.135 Y32.589 E10.62072
G1 X82.844 Y34.076 E10.70717
G1 X82.51 Y35.203 E10.77424
G1 X82.237 Y36.065 E10.82583
G1 X81.786 Y37.164 E10.89362
G1 X81.419 Y38.001 E10.94576
G1 X80.872 Y39.013 E11.0114
G1 X80.353 Y39.919 E11.07098
G1 X79.658 Y40.914 E11.14023
G1 X79.196 Y41.553 E11.18522
G1 X78.389 Y42.495 E11.256
G1 X77.797 Y43.153 E11.3065
G1 X76.884 Y44.013 E11.37807
G1 X76.24 Y44.589 E11.42737
G1 X75.303 Y45.298 E11.49441
G1 X74.55 Y45.841 E11.54738
G1 X73.918 Y46.227 E11.58964
G1 X72.747 Y46.904 E11.66682
G1 X72.147 Y47.189 E11.70472
G1 X70.757 Y47.807 E11.79151
G1 X69.711 Y48.157 E11.85445
G1 X68.805 Y48.442 E11.90864
G1 X68.04 Y48.62 E11.95346
G1 X66.763 Y48.883 E12.02785
G1 X66.077 Y48.969 E12.0673
G1 X64.681 Y49.107 E12.14734
G1 X63.955 Y49.119 E12.18877
G1 X62.72 Y49.109 E12.25924
G1 X62.199 Y49.077 E12.28903
G1 X61.28 Y48.982 E12.34174
G1 X60.608 Y48.9 E12.38037
G1 X60.11 Y48.815 E12.4092
G1 X59.229 Y48.629 E12.46057
G1 X58.397 Y48.436 E12.50931
G1 X57.234 Y48.064 E12.57898
G1 X56.393 Y47.773 E12.62976
G1 X55.677 Y47.459 E12.67437
G1 X54.475 Y46.9 E12.75
G1 X53.413 Y46.287 E12.81997
G1 X52.664 Y45.832 E12.86998
G1 X51.72 Y45.145 E12.93659
G1 X50.956 Y44.563 E12.99139
G1 X50.059 Y43.747 E13.06058
G1 X49.419 Y43.138 E13.11099
G1 X48.884 Y42.547 E13.15648
G1 X48.035 Y41.559 E13.23081
G1 X47.293 Y40.52 E13.30366
G1 X46.82 Y39.827 E13.35153
G1 X46.2 Y38.729 E13.42348
G1 X45.814 Y38.01 E13.47004
G1 X45.301 Y36.829 E13.54351
G1 X45.031 Y36.163 E13.58452
G1 X44.809 Y35.504 E13.6242
G1 X44.373 Y34.018 E13.71256
G1 X44.137 Y32.819 E13.78229
G1 X43.972 Y31.864 E13.83758
G1 X43.871 Y30.66 E13.90652
G1 X43.819 Y29.853 E13.95267
G1 X43.828 Y29.036 E13.99929
G1 X43.876 Y27.731 E14.0738
G1 X44.027 Y26.532 E14.14275
G1 X44.159 Y25.649 E14.19369
G1 X44.302 Y25.009 E14.23111
G1 X44.451 Y24.4 E14.26689
G1 X44.667 Y23.573 E14.31566
G1 X45.06 Y22.457 E14.38317
G1 X45.315 Y21.781 E14.42439
G0 F405 X45.376 Y21.618
G10
;MESH:pulley-motor-flatsmaller.STL
G0 F3600 X57.781 Y23.941
G0 X70.233 Y27.612
;TYPE:WALL-OUTER
G11
G1 F900 X70.758 Y27.914 E14.45895
G1 X71.17 Y28.409 E14.4957
G1 X71.384 Y28.996 E14.53135
G1 X71.388 Y29.655 E14.56895
G1 X71.163 Y30.27 E14.60631
G1 X70.742 Y30.763 E14.64331
G1 X70.2 Y31.07 E14.67885
G1 X69.781 Y31.183 E14.70361
G1 X68.618 Y31.183 E14.76997
G1 X68.379 Y31.766 E14.80592
G1 X67.94 Y32.483 E14.85389
G1 X67.362 Y33.153 E14.90438
G1 X66.672 Y33.723 E14.95545
G1 X65.921 Y34.16 E15.00502
G1 X65.081 Y34.479 E15.05629
G1 X64.213 Y34.649 E15.10676
G1 X63.282 Y34.672 E15.1599
G1 X62.715 Y34.592 E15.19257
G1 X62.137 Y35.594 E15.25858
G1 X61.856 Y35.88 E15.28145
G1 X61.345 Y36.197 E15.31576
G1 X60.739 Y36.334 E15.35121
G1 X60.136 Y36.269 E15.38582
G1 X59.587 Y36.008 E15.42051
G1 X59.145 Y35.583 E15.45549
G1 X58.875 Y35.039 E15.49015
G1 X58.788 Y34.443 E15.52451
G1 X58.932 Y33.744 E15.56523
G1 X59.508 Y32.742 E15.63118
G1 X59.155 Y32.287 E15.66404
G1 X58.72 Y31.493 E15.7157
G1 X58.431 Y30.665 E15.76574
G1 X58.285 Y29.803 E15.81562
G1 X58.282 Y28.893 E15.86755
G1 X58.426 Y28.021 E15.91797
G1 X58.72 Y27.173 E15.96919
G1 X59.155 Y26.379 E16.02084
G1 X59.508 Y25.924 E16.0537
G1 X58.928 Y24.916 E16.12006
G1 X58.821 Y24.519 E16.14352
G1 X58.791 Y24.167 E16.16368
G1 X58.901 Y23.545 E16.19972
G1 X59.213 Y23 E16.23555
G1 X59.723 Y22.571 E16.27358
G1 X60.313 Y22.357 E16.30939
G1 X60.965 Y22.356 E16.34659
G1 X61.573 Y22.578 E16.38352
G1 X62.134 Y23.066 E16.42595
G1 X62.715 Y24.074 E16.49233
G1 X63.282 Y23.994 E16.52501
G1 X63.652 Y23.999 E16.54612
G1 X64.215 Y24.017 E16.57826
G1 X65.095 Y24.192 E16.62945
G1 X65.877 Y24.485 E16.6771
G1 X66.638 Y24.92 E16.72712
G1 X67.337 Y25.49 E16.77858
G1 X67.916 Y26.151 E16.82872
G1 X68.379 Y26.9 E16.87896
G1 X68.618 Y27.483 E16.91492
G1 X69.782 Y27.483 E16.98133
G1 X70.065 Y27.564 E16.99813
G0 F810 X70.233 Y27.612
G0 F3600 X70.58 Y27.811
G0 X70.829 Y27.379
G0 X68.06 Y25.683
G0 X66.915 Y24.575
G0 X63.26 Y22.981
G0 X61.216 Y21.704
;TYPE:WALL-INNER
G1 F900 X61.836 Y21.932 E17.03582
G1 X62.032 Y22.051 E17.0489
G1 X62.675 Y22.603 E17.09726
G1 X63.086 Y23.314 E17.14412
G1 X63.671 Y23.299 E17.17751
G1 X64.272 Y23.319 E17.21182
G1 X65.247 Y23.506 E17.26847
G1 X66.193 Y23.855 E17.326
G1 X67.043 Y24.348 E17.38207
G1 X67.831 Y24.988 E17.43999
G1 X68.505 Y25.769 E17.49885
G1 X68.976 Y26.534 E17.55011
G1 X69.091 Y26.783 E17.56576
G1 X69.866 Y26.783 E17.60998
G1 X70.479 Y26.946 E17.64618
G1 X71.116 Y27.314 E17.68815
G1 X71.305 Y27.479 E17.70247
G1 X71.782 Y28.045 E17.7447
G1 X72.088 Y28.886 E17.79576
G1 X72.086 Y29.773 E17.84638
G1 X71.788 Y30.615 E17.89734
G1 X71.211 Y31.301 E17.94849
G1 X70.499 Y31.71 E17.99534
G1 X69.868 Y31.883 E18.03267
G1 X69.091 Y31.883 E18.07701
G1 X68.976 Y32.132 E18.09266
G1 X68.488 Y32.924 E18.14574
G1 X67.852 Y33.658 E18.20115
G1 X67.056 Y34.312 E18.25993
G1 X66.194 Y34.81 E18.31674
G1 X65.25 Y35.163 E18.37424
G1 X64.269 Y35.351 E18.43124
G1 X63.36 Y35.375 E18.48312
G1 X63.086 Y35.352 E18.49881
G1 X62.701 Y36.017 E18.54265
G1 X62.31 Y36.413 E18.57441
G1 X61.604 Y36.862 E18.62215
G1 X60.764 Y37.04 E18.67114
G1 X59.939 Y36.952 E18.71848
G1 X59.167 Y36.58 E18.76738
G1 X58.596 Y36.024 E18.81285
G1 X58.221 Y35.31 E18.85887
G1 X58.073 Y34.418 E18.91046
G1 X58.267 Y33.495 E18.96428
G1 X58.666 Y32.8 E19.01
G1 X58.508 Y32.573 E19.02578
G1 X58.076 Y31.776 E19.07751
G1 X57.744 Y30.805 E19.13606
G1 X57.584 Y29.83 E19.19244
G1 X57.581 Y28.835 E19.24921
G1 X57.746 Y27.855 E19.30592
G1 X58.075 Y26.892 E19.36398
G1 X58.508 Y26.093 E19.41584
G1 X58.666 Y25.866 E19.43162
G1 X58.28 Y25.194 E19.47584
G1 X58.136 Y24.664 E19.50718
G1 X58.091 Y24.09 E19.54003
G1 X58.229 Y23.317 E19.58483
G1 X58.677 Y22.53 E19.6365
G1 X59.274 Y22.028 E19.68101
G1 X59.449 Y21.926 E19.69257
G1 X60.179 Y21.662 E19.73686
G1 X60.955 Y21.657 E19.78114
G1 X61.044 Y21.673 E19.7863
G0 F810 X61.216 Y21.704
G10
G0 F3600 X59.49 Y22.191
G0 X58.478 Y23.396
G0 X58.313 Y27.001
G0 X57.842 Y28.853
G0 X58.511 Y33.595
G0 X58.445 Y35.169
G0 X59.331 Y36.373
G0 X60.692 Y36.77
G0 X62.893 Y36.294
G0 X62.893 Y44.369
G0 X64.47 Y45.419
;TYPE:WALL-OUTER
G11
G1 F900 X66.176 Y45.236 E19.8842
G1 X67.839 Y44.877 E19.98127
G1 X69.486 Y44.336 E20.08019
G1 X71.042 Y43.627 E20.17775
G1 X72.517 Y42.756 E20.27549
G1 X73.892 Y41.738 E20.37311
G1 X75.157 Y40.57 E20.47135
G1 X76.285 Y39.28 E20.56913
G1 X77.271 Y37.877 E20.66698
G1 X78.101 Y36.378 E20.76474
G1 X78.771 Y34.784 E20.8634
G1 X79.261 Y33.154 E20.96052
G1 X79.58 Y31.469 E21.05837
G1 X79.717 Y29.76 E21.1562
G1 X79.679 Y28.27 E21.24124
G1 X79.672 Y28.046 E21.25403
G1 X79.444 Y26.348 E21.35178
G1 X79.04 Y24.697 E21.44877
G1 X78.454 Y23.069 E21.54749
G1 X77.704 Y21.526 E21.64538
G1 X76.797 Y20.076 E21.74297
G1 X75.736 Y18.724 E21.84103
G1 X74.54 Y17.497 E21.9388
G1 X73.221 Y16.403 E22.03658
G1 X71.793 Y15.456 E22.13435
G1 X70.269 Y14.664 E22.23235
G1 X68.659 Y14.033 E22.33102
G1 X67.019 Y13.588 E22.42798
G1 X65.323 Y13.316 E22.52598
G1 X63.614 Y13.224 E22.62364
G1 X61.905 Y13.316 E22.72129
G1 X60.21 Y13.588 E22.81924
G1 X58.569 Y14.035 E22.91629
G1 X56.959 Y14.664 E23.01492
G1 X55.435 Y15.456 E23.11291
G1 X54.007 Y16.403 E23.21068
G1 X52.689 Y17.497 E23.30842
G1 X51.491 Y18.726 E23.40635
G1 X50.432 Y20.076 E23.50425
G1 X49.524 Y21.526 E23.60187
G1 X48.774 Y23.071 E23.69986
G1 X48.188 Y24.696 E23.79843
G1 X47.785 Y26.351 E23.89562
G1 X47.557 Y28.049 E23.99337
G1 X47.511 Y29.762 E24.09115
G1 X47.649 Y31.469 E24.18887
G1 X47.967 Y33.154 E24.28671
G1 X48.458 Y34.784 E24.38384
G1 X49.127 Y36.378 E24.48248
G1 X49.958 Y37.878 E24.58032
G1 X50.943 Y39.28 E24.67809
G1 X52.072 Y40.57 E24.7759
G1 X53.337 Y41.739 E24.87418
G1 X54.711 Y42.756 E24.97172
G1 X56.187 Y43.627 E25.06951
G1 X57.743 Y44.336 E25.16708
G1 X59.389 Y44.879 E25.26597
G1 X61.052 Y45.236 E25.36302
G1 X62.758 Y45.419 E25.46092
G1 X64.295 Y45.419 E25.54862
G0 F810 X64.47 Y45.419
G0 F3600 X64.867 Y45.377
G0 X64.815 Y44.879
G0 X59.827 Y43.939
G0 X57.765 Y43.236
G0 X56.263 Y42.497
G0 X53.854 Y40.841
G0 X52.678 Y39.729
G0 X51.631 Y38.501
G0 X50.628 Y37.002
G0 X49.952 Y35.731
G0 X49.344 Y34.222
G0 X48.858 Y32.432
G0 X48.628 Y31.036
G0 X48.53 Y29.501
G0 X48.597 Y27.898
G0 X48.825 Y26.467
G0 X49.42 Y23.343
;TYPE:WALL-INNER
G1 F900 X48.859 Y24.898 E25.64295
G1 X48.474 Y26.481 E25.7359
G1 X48.255 Y28.105 E25.82941
G1 X48.212 Y29.743 E25.9229
G1 X48.344 Y31.376 E26.01638
G1 X48.648 Y32.988 E26.10998
G1 X49.118 Y34.547 E26.20289
G1 X49.758 Y36.072 E26.29726
G1 X50.552 Y37.506 E26.39078
G1 X51.495 Y38.847 E26.48432
G1 X52.574 Y40.081 E26.57785
G1 X53.784 Y41.199 E26.67185
G1 X55.098 Y42.172 E26.76515
G1 X56.511 Y43.005 E26.85874
G1 X57.999 Y43.683 E26.95204
G1 X59.573 Y44.203 E27.04662
G1 X61.163 Y44.544 E27.13941
G1 X62.795 Y44.719 E27.23306
G1 X64.433 Y44.719 E27.32653
G1 X66.065 Y44.544 E27.42018
G1 X67.655 Y44.201 E27.51299
G1 X69.231 Y43.683 E27.60765
G1 X70.718 Y43.005 E27.7009
G1 X72.13 Y42.172 E27.79444
G1 X73.445 Y41.198 E27.88781
G1 X74.655 Y40.081 E27.98177
G1 X75.733 Y38.847 E28.07527
G1 X76.677 Y37.505 E28.16889
G1 X77.47 Y36.072 E28.26234
G1 X78.111 Y34.547 E28.35672
G1 X78.58 Y32.988 E28.44962
G1 X78.885 Y31.375 E28.54328
G1 X79.016 Y29.741 E28.63682
G1 X78.979 Y28.288 E28.71975
G1 X78.973 Y28.102 E28.73037
G1 X78.755 Y26.478 E28.82386
G1 X78.369 Y24.899 E28.91661
G1 X77.808 Y23.341 E29.0111
G1 X77.091 Y21.866 E29.10467
G1 X76.223 Y20.479 E29.19803
G1 X75.208 Y19.186 E29.29183
G1 X74.064 Y18.012 E29.38536
G1 X72.803 Y16.966 E29.47884
G1 X71.437 Y16.06 E29.57237
G1 X69.979 Y15.302 E29.66613
G1 X68.439 Y14.699 E29.7605
G1 X66.871 Y14.274 E29.85319
G1 X65.249 Y14.013 E29.94693
G1 X63.614 Y13.925 E30.04036
G1 X61.979 Y14.013 E30.13379
G1 X60.358 Y14.273 E30.22746
G1 X58.789 Y14.701 E30.32026
G1 X57.249 Y15.302 E30.41458
G1 X55.791 Y16.06 E30.50834
G1 X54.425 Y16.965 E30.60184
G1 X53.165 Y18.012 E30.69532
G1 X52.019 Y19.188 E30.78901
G1 X51.006 Y20.479 E30.88264
G1 X50.137 Y21.866 E30.97603
G1 X49.496 Y23.186 E31.05976
G0 F810 X49.42 Y23.343
G10
G0 F3600 X49.141 Y25.223
G0 X57.423 Y30.881
G0 X61.92 Y37.45
;TYPE:SKIN
G11
G1 F900 X61.096 Y37.659 E31.10826
G1 X60.64 Y37.695 E31.13436
G1 X59.748 Y37.6 E31.18555
G1 X58.918 Y37.196 E31.23822
G1 X58.694 Y37.045 E31.25363
G1 X58.165 Y36.53 E31.29576
G1 X57.896 Y36.14 E31.32279
G1 X57.576 Y35.464 E31.36547
G1 X57.443 Y34.683 E31.41067
G1 X57.425 Y34.3 E31.43255
G1 X57.61 Y33.375 E31.48637
G1 X57.89 Y32.833 E31.52118
G1 X57.455 Y32.017 E31.57395
G1 X57.105 Y31.01 E31.63477
G1 X56.924 Y29.914 E31.69816
G1 X56.916 Y28.77 E31.76343
G1 X57.1 Y27.689 E31.826
G1 X57.455 Y26.65 E31.88865
G1 X57.89 Y25.836 E31.94131
G1 X57.632 Y25.346 E31.97291
G1 X57.484 Y24.805 E32.00491
G1 X57.423 Y24.048 E32.04825
G1 X57.564 Y23.247 E32.09465
G1 X57.686 Y22.917 E32.11473
G1 X58.158 Y22.1 E32.16857
G1 X58.857 Y21.509 E32.2208
G1 X59.138 Y21.336 E32.23962
