;FLAVOR:Marlin
;TIME:900
;Filament used: 1.49456m
;Layer height: 0.4
;MINX:95.992
;MINY:8.829
;MINZ:0.52
;MAXX:136.984
;MAXY:49.819
;MAXZ:20.92
;POSTPROCESSED
;Generated with Cura_SteamEngine 5.2.1
;
;

M82 ;absolute extrusion mode
M98 P0:/sys/startprint.g

G92 E0
G92 E0
G10
;LAYER_COUNT:52
;LAYER:0
M107
G0 F3600 X96.655 Y24.192 Z0.52
;TYPE:SKIRT
G11
G1 F450 X96.865 Y23.387 E0.04747
G1 X97.28 Y22.208 E0.11879
G1 X97.607 Y21.343 E0.17155
G1 X98.161 Y20.176 E0.24526
G1 X98.551 Y19.399 E0.29487
G1 X98.961 Y18.722 E0.34003
G1 X99.701 Y17.56 E0.41863
G1 X100.206 Y16.898 E0.46614
G1 X101.096 Y15.782 E0.54759
G1 X101.966 Y14.881 E0.61905
G1 X102.58 Y14.267 E0.6686
G1 X103.129 Y13.797 E0.70984
G1 X104.257 Y12.879 E0.79282
G1 X104.865 Y12.46 E0.83495
G1 X106.05 Y11.685 E0.91574
G1 X106.82 Y11.27 E0.96565
G1 X108.034 Y10.653 E1.04335
G1 X109.254 Y10.165 E1.11833
G1 X110.129 Y9.837 E1.17165
G1 X111.321 Y9.509 E1.24219
G1 X112.248 Y9.271 E1.2968
G1 X113.459 Y9.071 E1.36683
G1 X114.326 Y8.945 E1.41682
G1 X115.603 Y8.865 E1.48983
G1 X116.504 Y8.829 E1.54128
G1 X117.834 Y8.89 E1.61725
G1 X118.681 Y8.947 E1.66568
G1 X119.884 Y9.129 E1.73511
G1 X120.839 Y9.297 E1.79044
G1 X122.12 Y9.635 E1.86603
G1 X122.966 Y9.881 E1.9163
G1 X124.075 Y10.303 E1.984
G1 X124.951 Y10.658 E2.03794
G1 X125.682 Y11.023 E2.08456
G1 X126.884 Y11.659 E2.16215
G1 X127.997 Y12.384 E2.23794
G1 X128.733 Y12.888 E2.28884
G1 X129.628 Y13.614 E2.3546
G1 X130.416 Y14.288 E2.41376
G1 X130.927 Y14.796 E2.45487
G1 X131.911 Y15.824 E2.53607
G1 X132.735 Y16.854 E2.61133
G1 X133.263 Y17.543 E2.66086
G1 X133.946 Y18.613 E2.73329
G1 X134.424 Y19.401 E2.78588
G1 X134.948 Y20.448 E2.85269
G1 X135.414 Y21.44 E2.91522
G1 X135.831 Y22.585 E2.98475
G1 X136.125 Y23.432 E3.03591
G1 X136.452 Y24.729 E3.11223
G1 X136.637 Y25.54 E3.1597
G1 X136.803 Y26.692 E3.22611
G1 X136.926 Y27.711 E3.28467
G1 X136.973 Y29.007 E3.35867
G1 X136.984 Y29.884 E3.40871
G1 X136.892 Y31.177 E3.48268
G1 X136.81 Y32.05 E3.53271
G1 X136.679 Y32.815 E3.57699
G1 X136.446 Y33.999 E3.64585
G1 X136.3 Y34.579 E3.67997
G1 X136.026 Y35.497 E3.73463
G1 X135.779 Y36.278 E3.78137
G1 X135.318 Y37.405 E3.85085
G1 X134.92 Y38.314 E3.90747
G1 X134.35 Y39.367 E3.97579
G1 X133.854 Y40.231 E4.03264
G1 X133.197 Y41.186 E4.09878
G1 X132.55 Y42.081 E4.16179
G1 X131.785 Y42.96 E4.22828
G1 X131.166 Y43.649 E4.28113
G1 X130.298 Y44.465 E4.3491
G1 X129.499 Y45.18 E4.41028
G1 X128.499 Y45.93 E4.48161
G1 X127.818 Y46.422 E4.52954
G1 X126.772 Y47.051 E4.59919
G1 X125.923 Y47.537 E4.655
G1 X124.836 Y48.042 E4.72339
G1 X123.933 Y48.437 E4.77963
G1 X122.761 Y48.836 E4.85027
G1 X121.86 Y49.12 E4.90418
G1 X121.146 Y49.285 E4.94599
G1 X119.918 Y49.54 E5.01755
G1 X119.137 Y49.652 E5.06257
G1 X117.587 Y49.806 E5.15145
G1 X116.823 Y49.819 E5.19505
G1 X115.588 Y49.809 E5.26552
G1 X115.002 Y49.774 E5.29901
G1 X114.069 Y49.677 E5.35254
G1 X113.165 Y49.567 E5.4045
G1 X111.944 Y49.311 E5.47568
G1 X111.088 Y49.112 E5.52583
G1 X109.859 Y48.718 E5.59947
G1 X108.996 Y48.418 E5.6516
G1 X107.872 Y47.919 E5.72177
G1 X107.035 Y47.526 E5.77453
G1 X106.377 Y47.153 E5.81769
G1 X105.159 Y46.422 E5.89874
G1 X104.595 Y46.019 E5.93829
G1 X103.396 Y45.113 E6.02404
G1 X102.449 Y44.254 E6.09699
G1 X101.793 Y43.63 E6.14865
G1 X101.249 Y43.029 E6.19491
G1 X100.362 Y41.995 E6.27264
G1 X99.651 Y41.003 E6.34228
G1 X99.096 Y40.194 E6.39826
G1 X98.499 Y39.137 E6.46752
G1 X98.058 Y38.317 E6.52065
G1 X97.527 Y37.092 E6.59683
G1 X97.257 Y36.426 E6.63783
G1 X97.017 Y35.72 E6.68038
G1 X96.568 Y34.188 E6.77147
G1 X96.328 Y32.976 E6.84197
G1 X96.164 Y32.038 E6.8963
G1 X96.059 Y30.869 E6.96327
G1 X95.992 Y29.861 E7.02092
G1 X96.013 Y28.668 E7.089
G1 X96.053 Y27.679 E7.14547
G1 X96.142 Y26.916 E7.18931
G1 X96.338 Y25.536 E7.26884
G1 X96.615 Y24.362 E7.33766
G0 F405 X96.655 Y24.192
G0 F3600 X97.332 Y24.368
G1 F450 X97.534 Y23.593 E7.38336
G1 X97.935 Y22.455 E7.45221
G1 X98.249 Y21.623 E7.50295
G1 X98.787 Y20.49 E7.57451
G1 X99.164 Y19.74 E7.62241
G1 X99.507 Y19.17 E7.66037
G1 X100.282 Y17.952 E7.74274
G1 X100.753 Y17.334 E7.78708
G1 X101.624 Y16.243 E7.86673
G1 X102.461 Y15.376 E7.93549
G1 X103.056 Y14.781 E7.98351
G1 X103.584 Y14.329 E8.02317
G1 X104.575 Y13.522 E8.09609
G1 X105.176 Y13.094 E8.13819
G1 X106.409 Y12.287 E8.22227
G1 X107.137 Y11.894 E8.26947
G1 X108.327 Y11.289 E8.34565
G1 X109.5 Y10.82 E8.41773
G1 X110.338 Y10.506 E8.46879
G1 X111.495 Y10.186 E8.53728
G1 X112.375 Y9.96 E8.58912
G1 X113.56 Y9.764 E8.65766
G1 X114.398 Y9.642 E8.70598
G1 X115.631 Y9.565 E8.77647
G1 X116.511 Y9.53 E8.82672
G1 X117.711 Y9.584 E8.89526
G1 X118.602 Y9.644 E8.94621
G1 X119.861 Y9.835 E9.01887
G1 X120.687 Y9.981 E9.06673
G1 X121.842 Y10.284 E9.13487
G1 X122.741 Y10.544 E9.18826
G1 X123.892 Y10.983 E9.25855
G1 X124.655 Y11.292 E9.30552
G1 X125.279 Y11.603 E9.34531
G1 X126.534 Y12.267 E9.42632
G1 X127.601 Y12.961 E9.49895
G1 X128.309 Y13.446 E9.54791
G1 X129.187 Y14.158 E9.61241
G1 X129.941 Y14.803 E9.66903
G1 X130.433 Y15.292 E9.70861
G1 X131.385 Y16.287 E9.78718
G1 X132.135 Y17.223 E9.85562
G1 X132.696 Y17.954 E9.9082
G1 X133.306 Y18.909 E9.97286
G1 X133.81 Y19.74 E10.02831
G1 X134.322 Y20.762 E10.09353
G1 X134.77 Y21.716 E10.15367
G1 X135.17 Y22.815 E10.2204
G1 X135.453 Y23.629 E10.26957
G1 X135.769 Y24.885 E10.34347
G1 X135.949 Y25.675 E10.38971
G1 X136.11 Y26.791 E10.45404
G1 X136.228 Y27.772 E10.51042
G1 X136.273 Y29.016 E10.58145
G1 X136.284 Y29.866 E10.62995
G1 X136.202 Y31.031 E10.69659
G1 X136.115 Y31.959 E10.74977
G1 X136.009 Y32.589 E10.78622
G1 X135.759 Y33.864 E10.86036
G1 X135.629 Y34.378 E10.89061
G1 X135.358 Y35.286 E10.94468
G1 X135.118 Y36.044 E10.99005
G1 X134.67 Y37.14 E11.0576
G1 X134.292 Y38.004 E11.11141
G1 X133.692 Y39.11 E11.18321
G1 X133.266 Y39.85 E11.23193
G1 X132.574 Y40.854 E11.30151
G1 X132.005 Y41.64 E11.35687
G1 X131.264 Y42.492 E11.4213
G1 X130.664 Y43.159 E11.47249
G1 X129.754 Y44.014 E11.54374
G1 X129.056 Y44.637 E11.59712
G1 X128.089 Y45.363 E11.66612
G1 X127.436 Y45.835 E11.71209
G1 X126.346 Y46.489 E11.78462
G1 X125.601 Y46.914 E11.83356
G1 X124.541 Y47.407 E11.90026
G1 X123.67 Y47.788 E11.95451
G1 X122.625 Y48.144 E12.0175
G1 X121.671 Y48.445 E12.07458
G1 X120.913 Y48.62 E12.11897
G1 X119.651 Y48.881 E12.1925
G1 X118.951 Y48.969 E12.23275
G1 X117.555 Y49.107 E12.3128
G1 X116.829 Y49.119 E12.35423
G1 X115.594 Y49.109 E12.4247
G1 X115.073 Y49.077 E12.45448
G1 X114.154 Y48.982 E12.5072
G1 X113.482 Y48.9 E12.54582
G1 X112.984 Y48.815 E12.57465
G1 X112.103 Y48.629 E12.62603
G1 X111.275 Y48.437 E12.67452
G1 X110.088 Y48.057 E12.74564
G1 X109.265 Y47.771 E12.79535
G1 X108.09 Y47.249 E12.86872
G1 X107.366 Y46.908 E12.91438
G1 X106.737 Y46.553 E12.95559
G1 X105.548 Y45.839 E13.03473
G1 X104.927 Y45.394 E13.07832
G1 X103.839 Y44.571 E13.15616
G1 X102.932 Y43.747 E13.22608
G1 X102.294 Y43.141 E13.27629
G1 X101.78 Y42.573 E13.31999
G1 X100.915 Y41.564 E13.39583
G1 X100.178 Y40.536 E13.468
G1 X99.696 Y39.831 E13.51673
G1 X99.074 Y38.729 E13.58893
G1 X98.688 Y38.01 E13.6355
G1 X98.175 Y36.829 E13.70896
G1 X97.905 Y36.163 E13.74997
G1 X97.683 Y35.504 E13.78965
G1 X97.248 Y34.022 E13.87778
G1 X97 Y32.763 E13.95099
G1 X96.861 Y31.96 E13.99749
G1 X96.75 Y30.726 E14.06819
G1 X96.692 Y29.849 E14.11834
G1 X96.715 Y28.599 E14.18967
G1 X96.751 Y27.733 E14.23913
G1 X96.835 Y27.014 E14.28043
G1 X97.026 Y25.674 E14.35766
G1 X97.293 Y24.538 E14.42425
G0 F405 X97.332 Y24.368
G10
;MESH:pulley-motor-flatsmaller.STL
G0 F3600 X110.278 Y27.877
G0 X111.156 Y28.893
;TYPE:WALL-OUTER
G11
G1 F900 X111.3 Y28.02 E14.47473
G1 X111.598 Y27.162 E14.52656
G1 X112.028 Y26.378 E14.57758
G1 X112.382 Y25.924 E14.61043
G1 X111.8 Y24.913 E14.67699
G1 X111.689 Y24.486 E14.70216
G1 X111.687 Y23.874 E14.73709
G1 X111.786 Y23.525 E14.75778
G1 X112.093 Y22.988 E14.79308
G1 X112.576 Y22.582 E14.82908
G1 X113.186 Y22.357 E14.86618
G1 X113.839 Y22.356 E14.90344
G1 X114.447 Y22.578 E14.94037
G1 X115.009 Y23.066 E14.98284
G1 X115.589 Y24.074 E15.0492
G1 X116.156 Y23.994 E15.08187
G1 X117.088 Y24.017 E15.13506
G1 X117.936 Y24.181 E15.18435
G1 X118.751 Y24.485 E15.23398
G1 X119.512 Y24.92 E15.28399
G1 X120.211 Y25.49 E15.33546
G1 X120.79 Y26.151 E15.3856
G1 X121.253 Y26.9 E15.43584
G1 X121.492 Y27.483 E15.47179
G1 X122.656 Y27.483 E15.53821
G1 X123.107 Y27.612 E15.56497
G1 X123.631 Y27.912 E15.59942
G1 X124.046 Y28.411 E15.63646
G1 X124.258 Y28.997 E15.67201
G1 X124.262 Y29.655 E15.70956
G1 X124.037 Y30.27 E15.74693
G1 X123.616 Y30.763 E15.78392
G1 X123.074 Y31.07 E15.81946
G1 X122.655 Y31.183 E15.84422
G1 X121.492 Y31.183 E15.91058
G1 X121.253 Y31.766 E15.94653
G1 X120.814 Y32.483 E15.9945
G1 X120.236 Y33.153 E16.04499
G1 X119.546 Y33.723 E16.09606
G1 X118.769 Y34.173 E16.14729
G1 X117.919 Y34.489 E16.19903
G1 X117.056 Y34.653 E16.24916
G1 X116.156 Y34.672 E16.30052
G1 X115.589 Y34.592 E16.33319
G1 X115.036 Y35.551 E16.39636
G1 X114.73 Y35.88 E16.422
G1 X114.219 Y36.197 E16.45631
G1 X113.612 Y36.334 E16.49181
G1 X113.005 Y36.269 E16.52665
G1 X112.446 Y35.993 E16.56222
G1 X112.063 Y35.626 E16.59248
G1 X112.018 Y35.573 E16.59645
G1 X111.742 Y35.037 E16.63085
G1 X111.666 Y34.425 E16.66604
G1 X111.806 Y33.743 E16.70577
G1 X112.382 Y32.742 E16.77166
G1 X112.028 Y32.288 E16.80451
G1 X111.593 Y31.494 E16.85617
G1 X111.305 Y30.665 E16.90624
G1 X111.159 Y29.803 E16.95613
G1 X111.156 Y29.068 E16.99807
G0 F810 X111.156 Y28.893
G0 F3600 X111.221 Y28.498
G0 X110.729 Y28.415
G0 X111.394 Y25.085
G0 X111.37 Y23.365
G0 X112.366 Y22.19
G0 X113.913 Y21.917
G0 X116.234 Y23.291
;TYPE:WALL-INNER
G1 F900 X117.149 Y23.315 E17.05029
G1 X118.12 Y23.505 E17.10675
G1 X119.067 Y23.855 E17.16436
G1 X119.917 Y24.348 E17.22042
G1 X120.705 Y24.988 E17.27835
G1 X121.379 Y25.769 E17.33721
G1 X121.85 Y26.534 E17.38847
G1 X121.965 Y26.783 E17.40412
G1 X122.74 Y26.783 E17.44834
G1 X123.353 Y26.946 E17.48453
G1 X123.991 Y27.314 E17.52656
G1 X124.179 Y27.479 E17.54083
G1 X124.657 Y28.046 E17.58314
G1 X124.962 Y28.887 E17.63419
G1 X124.96 Y29.773 E17.68474
G1 X124.662 Y30.615 E17.73571
G1 X124.085 Y31.301 E17.78685
G1 X123.373 Y31.71 E17.8337
G1 X122.742 Y31.883 E17.87104
G1 X121.965 Y31.883 E17.91537
G1 X121.85 Y32.132 E17.93102
G1 X121.362 Y32.924 E17.9841
G1 X120.718 Y33.665 E18.04012
G1 X119.932 Y34.312 E18.09821
G1 X119.059 Y34.81 E18.15555
G1 X118.124 Y35.162 E18.21256
G1 X117.147 Y35.35 E18.26933
G1 X116.234 Y35.375 E18.32144
G1 X115.96 Y35.352 E18.33713
G1 X115.577 Y36.013 E18.38072
G1 X115.184 Y36.413 E18.41272
G1 X114.478 Y36.862 E18.46046
G1 X113.637 Y37.04 E18.50951
G1 X112.814 Y36.952 E18.55673
G1 X112.064 Y36.591 E18.60423
G1 X111.577 Y36.13 E18.64249
G1 X111.442 Y35.97 E18.65443
G1 X111.095 Y35.31 E18.69698
G1 X110.948 Y34.421 E18.7484
G1 X111.143 Y33.492 E18.80256
G1 X111.54 Y32.801 E18.84803
G1 X111.381 Y32.573 E18.86389
G1 X110.957 Y31.786 E18.9149
G1 X110.618 Y30.804 E18.97417
G1 X110.458 Y29.83 E19.03049
G1 X110.455 Y28.836 E19.08721
G1 X110.62 Y27.854 E19.14403
G1 X110.959 Y26.876 E19.20309
G1 X111.381 Y26.093 E19.25384
G1 X111.54 Y25.865 E19.2697
G1 X111.154 Y25.193 E19.31392
G1 X110.987 Y24.583 E19.35001
G1 X110.987 Y23.77 E19.3964
G1 X111.161 Y23.202 E19.43029
G1 X111.553 Y22.527 E19.47483
G1 X112.148 Y22.028 E19.51914
G1 X112.323 Y21.926 E19.5307
G1 X113.053 Y21.662 E19.57499
G1 X113.829 Y21.657 E19.61927
G1 X114.09 Y21.704 E19.6344
G1 X114.71 Y21.932 E19.67209
G1 X114.906 Y22.051 E19.68517
G1 X115.552 Y22.609 E19.73388
G1 X115.96 Y23.314 E19.78036
G1 X116.059 Y23.305 E19.78603
G0 F810 X116.234 Y23.291
G10
G0 F3600 X118.059 Y23.759
G0 X119.789 Y24.575
G0 X122.713 Y27.044
G0 X124.428 Y28.183
G0 X124.701 Y29.732
G0 X123.914 Y31.095
G0 X121.159 Y32.758
G0 X119.93 Y33.975
G0 X117.068 Y35.684
G0 X117.779 Y44.316
G0 X117.344 Y45.419
;TYPE:WALL-OUTER
G11
G1 F900 X119.05 Y45.236 E19.88393
G1 X120.713 Y44.877 E19.98101
G1 X122.359 Y44.336 E20.07987
G1 X123.916 Y43.627 E20.17748
G1 X125.391 Y42.756 E20.27522
G1 X126.765 Y41.739 E20.37276
G1 X128.03 Y40.57 E20.47104
G1 X129.159 Y39.28 E20.56886
G1 X130.144 Y37.878 E20.66662
G1 X130.975 Y36.378 E20.76447
G1 X131.644 Y34.784 E20.8631
G1 X132.135 Y33.154 E20.96024
G1 X132.454 Y31.469 E21.05809
G1 X132.591 Y29.76 E21.15592
G1 X132.552 Y28.268 E21.24108
G1 X132.545 Y28.047 E21.25369
G1 X132.317 Y26.347 E21.35156
G1 X131.914 Y24.697 E21.44848
G1 X131.328 Y23.069 E21.5472
G1 X130.578 Y21.526 E21.64509
G1 X129.67 Y20.076 E21.74271
G1 X128.61 Y18.724 E21.84074
G1 X127.414 Y17.497 E21.93851
G1 X126.095 Y16.403 E22.03628
G1 X124.667 Y15.456 E22.13405
G1 X123.143 Y14.664 E22.23205
G1 X121.533 Y14.033 E22.33072
G1 X119.892 Y13.588 E22.42773
G1 X118.197 Y13.316 E22.52569
G1 X116.488 Y13.224 E22.62334
G1 X114.779 Y13.316 E22.72099
G1 X113.084 Y13.588 E22.81895
G1 X111.443 Y14.035 E22.91599
G1 X109.833 Y14.664 E23.01462
G1 X108.309 Y15.456 E23.11262
G1 X106.881 Y16.403 E23.21039
G1 X105.562 Y17.497 E23.30816
G1 X104.364 Y18.726 E23.40609
G1 X103.305 Y20.076 E23.50399
G1 X102.398 Y21.526 E23.60158
G1 X101.647 Y23.071 E23.6996
G1 X101.062 Y24.697 E23.7982
G1 X100.658 Y26.351 E23.89535
G1 X100.431 Y28.048 E23.99304
G1 X100.385 Y29.762 E24.09087
G1 X100.522 Y31.469 E24.18859
G1 X100.841 Y33.154 E24.28644
G1 X101.332 Y34.784 E24.38357
G1 X102.001 Y36.378 E24.48221
G1 X102.832 Y37.878 E24.58005
G1 X103.817 Y39.28 E24.67782
G1 X104.945 Y40.57 E24.7756
G1 X106.21 Y41.738 E24.87384
G1 X107.585 Y42.756 E24.97146
G1 X109.06 Y43.627 E25.0692
G1 X110.616 Y44.336 E25.16676
G1 X112.263 Y44.879 E25.26571
G1 X113.926 Y45.236 E25.36276
G1 X115.632 Y45.419 E25.46066
G1 X117.169 Y45.419 E25.54836
G0 F810 X117.344 Y45.419
G0 F3600 X117.741 Y45.377
G0 X117.689 Y44.879
G0 X112.701 Y43.939
G0 X110.638 Y43.236
G0 X109.132 Y42.495
G0 X106.727 Y40.84
G0 X105.552 Y39.729
G0 X104.505 Y38.501
G0 X103.503 Y37.004
G0 X102.826 Y35.731
G0 X102.218 Y34.222
G0 X101.733 Y32.438
G0 X101.501 Y31.034
G0 X101.404 Y29.503
G0 X101.471 Y27.899
G0 X101.699 Y26.466
G0 X102.293 Y23.343
;TYPE:WALL-INNER
G1 F900 X101.733 Y24.899 E25.64272
G1 X101.347 Y26.481 E25.73564
G1 X101.129 Y28.104 E25.82907
G1 X101.086 Y29.743 E25.92263
G1 X101.217 Y31.375 E26.01604
G1 X101.522 Y32.987 E26.10966
G1 X101.992 Y34.547 E26.20262
G1 X102.632 Y36.072 E26.29699
G1 X103.426 Y37.506 E26.39051
G1 X104.369 Y38.847 E26.48405
G1 X105.447 Y40.081 E26.57755
G1 X106.657 Y41.198 E26.67151
G1 X107.972 Y42.172 E26.76488
G1 X109.384 Y43.005 E26.85842
G1 X110.872 Y43.683 E26.95172
G1 X112.447 Y44.203 E27.04636
G1 X114.037 Y44.544 E27.13915
G1 X115.669 Y44.719 E27.2328
G1 X117.307 Y44.719 E27.32626
G1 X118.939 Y44.544 E27.41992
G1 X120.529 Y44.201 E27.51273
G1 X122.104 Y43.683 E27.60733
G1 X123.592 Y43.005 E27.70063
G1 X125.004 Y42.172 E27.79418
G1 X126.318 Y41.199 E27.88747
G1 X127.528 Y40.081 E27.98147
G1 X128.607 Y38.847 E28.075
G1 X129.55 Y37.506 E28.16854
G1 X130.344 Y36.072 E28.26207
G1 X130.984 Y34.547 E28.35643
G1 X131.454 Y32.988 E28.44934
G1 X131.759 Y31.375 E28.54301
G1 X131.89 Y29.742 E28.63648
G1 X131.852 Y28.287 E28.71953
G1 X131.846 Y28.103 E28.73004
G1 X131.628 Y26.477 E28.82365
G1 X131.243 Y24.899 E28.91633
G1 X130.682 Y23.341 E29.01081
G1 X129.965 Y21.866 E29.10439
G1 X129.096 Y20.479 E29.19778
G1 X128.082 Y19.186 E29.29154
G1 X126.938 Y18.012 E29.38507
G1 X125.677 Y16.966 E29.47855
G1 X124.311 Y16.06 E29.57208
G1 X122.853 Y15.302 E29.66584
G1 X121.313 Y14.699 E29.76021
G1 X119.744 Y14.274 E29.85296
G1 X118.123 Y14.013 E29.94664
G1 X116.488 Y13.925 E30.04007
G1 X114.853 Y14.013 E30.13349
G1 X113.232 Y14.273 E30.22717
G1 X111.663 Y14.701 E30.31996
G1 X110.123 Y15.302 E30.41429
G1 X108.665 Y16.06 E30.50805
G1 X107.299 Y16.966 E30.60158
G1 X106.038 Y18.012 E30.69506
G1 X104.892 Y19.188 E30.78875
G1 X103.879 Y20.479 E30.88239
G1 X103.012 Y21.866 E30.97572
G1 X102.369 Y23.186 E31.0595
G0 F810 X102.293 Y23.343
G10
G0 F3600 X103.228 Y22.222
G0 X110.806 Y25.18
G0 X110.763 Y25.835
;TYPE:SKIN
G11
G1 F900 X110.506 Y25.344 E31.09112
G1 X110.324 Y24.669 E31.13101
G1 X110.322 Y23.673 E31.18784
G1 X110.542 Y22.954 E31.23074
G1 X111.027 Y22.102 E31.28668
G1 X111.731 Y21.509 E31.3392
G1 X112.012 Y21.336 E31.35803
G1 X112.662 Y21.093 E31.39762
