;FLAVOR:Marlin
;TIME:901
;Filament used: 1.4945m
;Layer height: 0.4
;MINX:42.267
;MINY:99.258
;MINZ:0.52
;MAXX:83.259
;MAXY:140.248
;MAXZ:20.92
;POSTPROCESSED
;Generated with Cura_SteamEngine 5.2.1
;
;

M82 ;absolute extrusion mode
M98 P0:/sys/startprint.g

G92 E0
G92 E0
G10
;LAYER_COUNT:52
;LAYER:0
M107
G0 F3600 X53.095 Y101.699 Z0.52
;TYPE:SKIRT
G11
G1 F450 X54.309 Y101.082 E0.0777
G1 X55.529 Y100.594 E0.15268
G1 X56.404 Y100.266 E0.206
G1 X57.596 Y99.938 E0.27654
G1 X58.523 Y99.7 E0.33115
G1 X59.734 Y99.5 E0.40118
G1 X60.601 Y99.374 E0.45117
G1 X61.878 Y99.294 E0.52418
G1 X62.779 Y99.258 E0.57563
G1 X64.109 Y99.319 E0.65159
G1 X64.937 Y99.375 E0.69895
G1 X65.679 Y99.482 E0.74172
G1 X67.049 Y99.712 E0.82099
G1 X67.797 Y99.9 E0.86499
G1 X69.216 Y100.301 E0.94913
G1 X70.439 Y100.767 E1.02381
G1 X71.226 Y101.088 E1.07231
G1 X71.861 Y101.403 E1.11275
G1 X73.231 Y102.129 E1.20122
G1 X74.205 Y102.767 E1.26766
G1 X75.008 Y103.317 E1.32319
G1 X76.042 Y104.159 E1.39928
G1 X76.666 Y104.692 E1.4461
G1 X77.564 Y105.596 E1.51881
G1 X78.055 Y106.112 E1.55945
G1 X78.452 Y106.575 E1.59425
G1 X78.959 Y107.215 E1.64084
G1 X79.553 Y107.994 E1.69673
G1 X80.223 Y109.043 E1.76775
G1 X80.693 Y109.819 E1.81952
G1 X81.269 Y110.973 E1.89311
G1 X81.689 Y111.871 E1.94968
G1 X82.106 Y113.014 E2.0191
G1 X82.399 Y113.856 E2.06997
G1 X82.714 Y115.103 E2.14336
G1 X82.91 Y115.955 E2.19324
G1 X83.103 Y117.305 E2.27105
G1 X83.209 Y118.183 E2.32151
G1 X83.248 Y119.437 E2.3931
G1 X83.259 Y120.313 E2.44309
G1 X83.167 Y121.606 E2.51705
G1 X83.083 Y122.494 E2.56795
G1 X82.871 Y123.681 E2.63675
G1 X82.662 Y124.71 E2.69666
G1 X82.301 Y125.925 E2.76898
G1 X82.052 Y126.71 E2.81597
G1 X81.593 Y127.833 E2.88519
G1 X81.197 Y128.737 E2.94151
G1 X80.596 Y129.847 E3.01353
G1 X80.139 Y130.644 E3.06595
G1 X79.413 Y131.699 E3.13902
G1 X78.875 Y132.44 E3.19127
G1 X78.046 Y133.406 E3.2639
G1 X77.447 Y134.072 E3.31501
G1 X76.553 Y134.913 E3.38505
G1 X75.851 Y135.544 E3.43891
G1 X74.779 Y136.355 E3.51561
G1 X74.234 Y136.747 E3.55391
G1 X73.747 Y137.063 E3.58704
G1 X72.98 Y137.519 E3.63795
G1 X72.206 Y137.961 E3.68881
G1 X71.002 Y138.52 E3.76455
G1 X70.151 Y138.89 E3.8175
G1 X68.965 Y139.288 E3.88888
G1 X68.157 Y139.543 E3.93722
G1 X66.907 Y139.826 E4.01035
G1 X66.171 Y139.974 E4.05319
G1 X65.412 Y140.081 E4.09692
G1 X63.862 Y140.235 E4.1858
G1 X63.098 Y140.248 E4.2294
G1 X61.863 Y140.238 E4.29987
G1 X61.277 Y140.203 E4.33336
G1 X60.344 Y140.106 E4.38689
G1 X59.44 Y139.996 E4.43885
G1 X58.224 Y139.741 E4.50974
G1 X57.377 Y139.545 E4.55935
G1 X56.5 Y139.268 E4.61182
G1 X55.294 Y138.856 E4.68454
G1 X54.067 Y138.312 E4.76112
G1 X53.486 Y138.039 E4.79775
G1 X52.968 Y137.764 E4.83122
G1 X52.121 Y137.268 E4.88722
G1 X51.289 Y136.753 E4.94305
G1 X50.379 Y136.081 E5.0076
G1 X49.674 Y135.542 E5.05824
G1 X49.157 Y135.082 E5.09772
G1 X48.005 Y133.999 E5.18794
G1 X47.199 Y133.083 E5.25756
G1 X46.631 Y132.417 E5.3075
G1 X46.152 Y131.755 E5.35413
G1 X45.389 Y130.65 E5.43075
G1 X44.96 Y129.901 E5.48
G1 X44.334 Y128.748 E5.55486
G1 X43.984 Y127.954 E5.60437
G1 X43.539 Y126.872 E5.67112
G1 X43.292 Y126.148 E5.71477
G1 X42.846 Y124.627 E5.80521
G1 X42.664 Y123.731 E5.85738
G1 X42.441 Y122.486 E5.92955
G1 X42.334 Y121.298 E5.99761
G1 X42.267 Y120.29 E6.05525
G1 X42.288 Y119.097 E6.12333
G1 X42.329 Y118.085 E6.18112
G1 X42.473 Y116.932 E6.24742
G1 X42.615 Y115.972 E6.30279
G1 X42.766 Y115.296 E6.34232
G1 X43.131 Y113.849 E6.42747
G1 X43.555 Y112.638 E6.50068
G1 X43.881 Y111.773 E6.55342
G1 X44.436 Y110.605 E6.62721
G1 X44.822 Y109.836 E6.6763
G1 X45.234 Y109.154 E6.72177
G1 X45.974 Y107.993 E6.80032
G1 X46.446 Y107.37 E6.84492
G1 X47.336 Y106.256 E6.92628
G1 X48.183 Y105.369 E6.99626
G1 X48.868 Y104.685 E7.05149
G1 X49.473 Y104.168 E7.0969
G1 X50.533 Y103.306 E7.17486
G1 X51.114 Y102.906 E7.21511
G1 X52.331 Y102.11 E7.29808
G1 X52.941 Y101.781 E7.33763
G0 F405 X53.095 Y101.699
G0 F3600 X53.412 Y102.323
G1 F450 X54.602 Y101.718 E7.4138
G1 X55.775 Y101.249 E7.48588
G1 X56.613 Y100.935 E7.53694
G1 X57.77 Y100.615 E7.60544
G1 X58.65 Y100.389 E7.65728
G1 X59.835 Y100.193 E7.72581
G1 X60.673 Y100.071 E7.77413
G1 X61.906 Y99.994 E7.84462
G1 X62.786 Y99.959 E7.89487
G1 X63.986 Y100.013 E7.96341
G1 X64.872 Y100.073 E8.01408
G1 X65.563 Y100.172 E8.05391
G1 X66.902 Y100.397 E8.13138
G1 X67.724 Y100.605 E8.17977
G1 X68.998 Y100.966 E8.25532
G1 X70.101 Y101.386 E8.32266
G1 X70.942 Y101.728 E8.37447
G1 X71.632 Y102.072 E8.41846
G1 X72.868 Y102.728 E8.4983
G1 X73.88 Y103.392 E8.56736
G1 X74.584 Y103.875 E8.61608
G1 X75.587 Y104.691 E8.68986
G1 X76.183 Y105.2 E8.73458
G1 X77.121 Y106.145 E8.81055
G1 X77.547 Y106.594 E8.84586
G1 X77.903 Y107.01 E8.87711
G1 X78.448 Y107.699 E8.92723
G1 X78.978 Y108.395 E8.97715
G1 X79.624 Y109.406 E9.04561
G1 X80.082 Y110.162 E9.09604
G1 X80.635 Y111.27 E9.1667
G1 X81.045 Y112.147 E9.22194
G1 X81.445 Y113.244 E9.28856
G1 X81.726 Y114.051 E9.33732
G1 X82.031 Y115.26 E9.40846
G1 X82.223 Y116.092 E9.45718
G1 X82.408 Y117.389 E9.53194
G1 X82.51 Y118.232 E9.58039
G1 X82.548 Y119.446 E9.64969
G1 X82.559 Y120.295 E9.69814
G1 X82.477 Y121.46 E9.76478
G1 X82.389 Y122.401 E9.8187
G1 X82.182 Y123.558 E9.88577
G1 X81.981 Y124.544 E9.94319
G1 X81.634 Y125.714 E10.01282
G1 X81.396 Y126.466 E10.05783
G1 X80.945 Y127.568 E10.12577
G1 X80.566 Y128.433 E10.17965
G1 X80.031 Y129.424 E10.24391
G1 X79.552 Y130.261 E10.29894
G1 X78.847 Y131.287 E10.36997
G1 X78.33 Y131.999 E10.42017
G1 X77.525 Y132.938 E10.49075
G1 X76.946 Y133.582 E10.54016
G1 X76.073 Y134.403 E10.60854
G1 X75.404 Y135.004 E10.65985
G1 X74.37 Y135.787 E10.73386
G1 X73.825 Y136.179 E10.77216
G1 X73.389 Y136.462 E10.80182
G1 X72.633 Y136.911 E10.85199
G1 X71.877 Y137.343 E10.90167
G1 X70.799 Y137.844 E10.9695
G1 X69.906 Y138.234 E11.0251
G1 X68.755 Y138.62 E11.09437
G1 X67.965 Y138.869 E11.14163
G1 X66.852 Y139.122 E11.20676
G1 X65.906 Y139.313 E11.26183
G1 X65.226 Y139.398 E11.30093
G1 X63.83 Y139.536 E11.38097
G1 X63.104 Y139.548 E11.4224
G1 X61.869 Y139.538 E11.49287
G1 X61.348 Y139.506 E11.52266
G1 X60.429 Y139.411 E11.57537
G1 X59.757 Y139.329 E11.614
G1 X59.259 Y139.244 E11.64283
G1 X58.382 Y139.059 E11.69397
G1 X57.553 Y138.868 E11.74251
G1 X56.8 Y138.63 E11.78757
G1 X55.542 Y138.201 E11.86341
G1 X54.364 Y137.678 E11.93695
G1 X53.783 Y137.405 E11.97358
G1 X53.321 Y137.16 E12.00342
G1 X52.537 Y136.702 E12.05522
G1 X51.689 Y136.179 E12.11207
G1 X50.804 Y135.525 E12.17486
G1 X50.117 Y135 E12.2242
G1 X49.552 Y134.495 E12.26743
G1 X48.51 Y133.513 E12.34913
G1 X47.732 Y132.629 E12.41632
G1 X47.178 Y131.979 E12.46506
G1 X46.728 Y131.357 E12.50886
G1 X45.979 Y130.273 E12.58404
G1 X45.575 Y129.567 E12.63045
G1 X44.963 Y128.44 E12.70363
G1 X44.666 Y127.768 E12.74555
G1 X44.134 Y126.477 E12.82522
G1 X43.93 Y125.841 E12.86333
G1 X43.527 Y124.46 E12.94542
G1 X43.353 Y123.608 E12.99503
G1 X43.137 Y122.402 E13.06494
G1 X43.025 Y121.155 E13.13638
G1 X42.967 Y120.278 E13.18653
G1 X42.99 Y119.028 E13.25787
G1 X43.027 Y118.15 E13.30801
G1 X43.178 Y116.942 E13.37747
G1 X43.303 Y116.099 E13.4261
G1 X43.47 Y115.36 E13.46933
G1 X43.799 Y114.061 E13.54579
G1 X44.21 Y112.885 E13.61687
G1 X44.528 Y112.043 E13.66822
G1 X45.028 Y110.988 E13.73484
G1 X45.436 Y110.174 E13.78679
G1 X45.825 Y109.53 E13.82972
G1 X46.553 Y108.387 E13.90704
G1 X46.936 Y107.88 E13.9433
G1 X47.867 Y106.712 E14.02852
G1 X48.689 Y105.852 E14.09641
G1 X49.338 Y105.204 E14.14873
G1 X49.915 Y104.711 E14.19204
G1 X50.853 Y103.948 E14.26103
G1 X51.424 Y103.541 E14.30104
G1 X52.686 Y102.714 E14.38713
G1 X53.258 Y102.406 E14.4242
G0 F405 X53.412 Y102.323
G10
;MESH:pulley-motor-flatsmaller.STL
G0 F3600 X60.032 Y111.753
G0 X63.338 Y114.443
;TYPE:WALL-OUTER
G11
G1 F900 X64.186 Y114.605 E14.47346
G1 X65.026 Y114.914 E14.52453
G1 X65.787 Y115.349 E14.57455
G1 X66.486 Y115.918 E14.62597
G1 X67.065 Y116.58 E14.67616
G1 X67.528 Y117.329 E14.7264
G1 X67.767 Y117.912 E14.76235
G1 X68.929 Y117.912 E14.82865
G1 X69.382 Y118.04 E14.85551
G1 X69.905 Y118.341 E14.88994
G1 X70.321 Y118.839 E14.92697
G1 X70.533 Y119.426 E14.96258
G1 X70.537 Y120.084 E15.00012
G1 X70.322 Y120.67 E15.03574
G1 X70.116 Y120.969 E15.05646
G1 X69.639 Y121.362 E15.09172
G1 X69.35 Y121.498 E15.10995
G1 X68.931 Y121.612 E15.13472
G1 X67.767 Y121.612 E15.20114
G1 X67.528 Y122.195 E15.23709
G1 X67.08 Y122.922 E15.28582
G1 X66.511 Y123.581 E15.3355
G1 X65.821 Y124.152 E15.3866
G1 X65.044 Y124.602 E15.43783
G1 X64.194 Y124.918 E15.48957
G1 X63.333 Y125.082 E15.53959
G1 X62.431 Y125.101 E15.59106
G1 X61.864 Y125.021 E15.62374
G1 X61.289 Y126.02 E15.68951
G1 X61.005 Y126.309 E15.71263
G1 X60.495 Y126.625 E15.74686
G1 X59.949 Y126.752 E15.77884
G1 X59.573 Y126.75 E15.8003
G1 X58.998 Y126.589 E15.83437
G1 X58.506 Y126.245 E15.86862
G1 X58.462 Y126.195 E15.87242
G1 X58.145 Y125.761 E15.90309
G1 X58.025 Y125.472 E15.92094
G1 X57.937 Y124.871 E15.9556
G1 X58.081 Y124.172 E15.99632
G1 X58.657 Y123.171 E16.06222
G1 X58.273 Y122.669 E16.09828
G1 X57.868 Y121.921 E16.14682
G1 X57.58 Y121.093 E16.19684
G1 X57.434 Y120.232 E16.24667
G1 X57.431 Y119.322 E16.29859
G1 X57.575 Y118.449 E16.34908
G1 X57.868 Y117.6 E16.40032
G1 X58.273 Y116.855 E16.44871
G1 X58.657 Y116.353 E16.48477
G1 X58.076 Y115.343 E16.55125
G1 X57.97 Y114.947 E16.57464
G1 X57.94 Y114.596 E16.59475
G1 X58.05 Y113.974 E16.63079
G1 X58.346 Y113.457 E16.66478
G1 X58.634 Y113.169 E16.68802
G1 X59.155 Y112.869 E16.72232
G1 X59.79 Y112.757 E16.75911
G1 X60.43 Y112.872 E16.79622
G1 X60.953 Y113.173 E16.83065
G1 X61.286 Y113.499 E16.85724
G1 X61.864 Y114.503 E16.92334
G1 X62.431 Y114.423 E16.95601
G1 X63.163 Y114.44 E16.99779
G0 F810 X63.338 Y114.443
G0 F3600 X63.731 Y114.518
G0 X63.827 Y114.028
G0 X65.234 Y114.523
G0 X68.986 Y117.473
G0 X70.702 Y118.611
G0 X70.976 Y120.16
G0 X69.887 Y121.732
G0 X67.434 Y123.186
G0 X66.205 Y124.404
G0 X64.398 Y125.592
;TYPE:WALL-INNER
G1 F900 X63.427 Y125.779 E17.05421
G1 X62.509 Y125.804 E17.10661
G1 X62.235 Y125.781 E17.1223
G1 X61.851 Y126.446 E17.16612
G1 X61.459 Y126.842 E17.19791
G1 X60.787 Y127.269 E17.24334
G1 X60.099 Y127.436 E17.28373
G1 X59.471 Y127.443 E17.31957
G1 X58.862 Y127.278 E17.35557
G1 X58.617 Y127.173 E17.37078
G1 X58.119 Y126.832 E17.40522
G1 X58.031 Y126.759 E17.41174
G1 X57.931 Y126.653 E17.42006
G1 X57.556 Y126.145 E17.45609
G1 X57.359 Y125.689 E17.48443
G1 X57.223 Y124.844 E17.53326
G1 X57.416 Y123.923 E17.58696
G1 X57.815 Y123.229 E17.63263
G1 X57.657 Y123.003 E17.64837
G1 X57.231 Y122.212 E17.69963
G1 X56.893 Y121.232 E17.75878
G1 X56.733 Y120.259 E17.81504
G1 X56.73 Y119.265 E17.87176
G1 X56.895 Y118.283 E17.92858
G1 X57.232 Y117.308 E17.98744
G1 X57.658 Y116.521 E18.0385
G1 X57.815 Y116.295 E18.0542
G1 X57.428 Y115.62 E18.0986
G1 X57.285 Y115.092 E18.12981
G1 X57.24 Y114.519 E18.16261
G1 X57.378 Y113.746 E18.20741
G1 X57.762 Y113.071 E18.25172
G1 X58.168 Y112.63 E18.28592
G1 X58.915 Y112.201 E18.33507
G1 X59.625 Y112.075 E18.37622
G1 X59.902 Y112.068 E18.39203
G1 X60.666 Y112.2 E18.43627
G1 X61.353 Y112.599 E18.4816
G1 X61.845 Y113.069 E18.52042
G1 X62.235 Y113.743 E18.56485
G1 X62.509 Y113.72 E18.58054
G1 X63.427 Y113.745 E18.63294
G1 X64.395 Y113.935 E18.68923
G1 X65.341 Y114.284 E18.74676
G1 X66.192 Y114.777 E18.80288
G1 X66.983 Y115.421 E18.86108
G1 X67.645 Y116.18 E18.91855
G1 X68.125 Y116.963 E18.97095
G1 X68.24 Y117.212 E18.9866
G1 X69.014 Y117.212 E19.03076
G1 X69.628 Y117.374 E19.067
G1 X70.265 Y117.743 E19.109
G1 X70.454 Y117.908 E19.12332
G1 X70.932 Y118.473 E19.16554
G1 X71.237 Y119.316 E19.21669
G1 X71.235 Y120.201 E19.26719
G1 X70.969 Y120.95 E19.31254
G1 X70.641 Y121.442 E19.34628
G1 X70.047 Y121.94 E19.39051
G1 X69.603 Y122.151 E19.41856
G1 X69.018 Y122.312 E19.45318
G1 X68.24 Y122.312 E19.49757
G1 X68.124 Y122.561 E19.51325
G1 X67.646 Y123.342 E19.56549
G1 X66.968 Y124.114 E19.62412
G1 X66.203 Y124.743 E19.68063
G1 X65.334 Y125.24 E19.73775
G1 X64.561 Y125.531 E19.78488
G0 F810 X64.398 Y125.592
G10
G0 F3600 X64.292 Y134.72
G0 X63.619 Y135.848
;TYPE:WALL-OUTER
G11
G1 F900 X65.325 Y135.665 E19.88278
G1 X66.988 Y135.306 E19.97985
G1 X68.635 Y134.764 E20.07879
G1 X70.191 Y134.056 E20.17633
G1 X71.666 Y133.184 E20.2741
G1 X73.041 Y132.167 E20.37168
G1 X74.306 Y130.998 E20.46996
G1 X75.434 Y129.709 E20.56769
G1 X76.419 Y128.307 E20.66546
G1 X77.25 Y126.806 E20.76335
G1 X77.919 Y125.212 E20.86199
G1 X78.41 Y123.582 E20.95913
G1 X78.729 Y121.898 E21.05692
G1 X78.866 Y120.189 E21.15475
G1 X78.827 Y118.696 E21.23997
G1 X78.82 Y118.475 E21.25258
G1 X78.593 Y116.775 E21.35044
G1 X78.189 Y115.126 E21.44731
G1 X77.603 Y113.498 E21.54604
G1 X76.853 Y111.955 E21.64393
G1 X75.946 Y110.504 E21.74157
G1 X74.885 Y109.153 E21.83958
G1 X73.689 Y107.925 E21.93739
G1 X72.37 Y106.832 E22.03514
G1 X70.942 Y105.885 E22.1329
G1 X69.418 Y105.093 E22.2309
G1 X67.808 Y104.462 E22.32957
G1 X66.168 Y104.017 E22.42653
G1 X64.472 Y103.745 E22.52454
G1 X62.763 Y103.653 E22.62219
G1 X61.054 Y103.745 E22.71985
G1 X59.359 Y104.017 E22.8178
G1 X57.718 Y104.464 E22.91484
G1 X56.108 Y105.093 E23.01347
G1 X54.584 Y105.884 E23.11144
G1 X53.156 Y106.832 E23.20924
G1 X51.837 Y107.925 E23.30699
G1 X50.639 Y109.155 E23.40496
G1 X49.581 Y110.504 E23.50278
G1 X48.673 Y111.955 E23.60044
G1 X47.923 Y113.5 E23.69844
G1 X47.337 Y115.126 E23.79706
G1 X46.934 Y116.779 E23.89414
G1 X46.706 Y118.478 E23.99195
G1 X46.66 Y120.191 E24.08973
G1 X46.797 Y121.898 E24.18744
G1 X47.116 Y123.582 E24.28523
G1 X47.607 Y125.212 E24.38237
G1 X48.276 Y126.806 E24.481
G1 X49.107 Y128.307 E24.5789
G1 X50.092 Y129.709 E24.67666
G1 X51.221 Y130.998 E24.77444
G1 X52.486 Y132.167 E24.87272
G1 X53.86 Y133.184 E24.97025
G1 X55.335 Y134.056 E25.06802
G1 X56.892 Y134.764 E25.16562
G1 X58.539 Y135.308 E25.26459
G1 X60.201 Y135.665 E25.36158
G1 X61.907 Y135.848 E25.45948
G1 X63.444 Y135.848 E25.54718
G0 F810 X63.619 Y135.848
G0 F3600 X64.016 Y135.806
G0 X63.964 Y135.308
G0 X58.98 Y134.369
G0 X57.04 Y133.721
G0 X55.658 Y133.072
G0 X54.176 Y132.162
G0 X52.825 Y131.105
G0 X50.779 Y128.928
G0 X49.777 Y127.432
G0 X49.102 Y126.16
G0 X48.493 Y124.65
G0 X48.009 Y122.868
G0 X47.776 Y121.464
G0 X47.679 Y119.932
G0 X47.746 Y118.328
G0 X47.974 Y116.896
G0 X48.569 Y113.772
;TYPE:WALL-INNER
G1 F900 X48.008 Y115.328 E25.64156
G1 X47.623 Y116.909 E25.7344
G1 X47.404 Y118.534 E25.82796
G1 X47.361 Y120.172 E25.92146
G1 X47.492 Y121.804 E26.01488
G1 X47.797 Y123.415 E26.10843
G1 X48.267 Y124.975 E26.20139
G1 X48.907 Y126.5 E26.29576
G1 X49.701 Y127.935 E26.38934
G1 X50.644 Y129.276 E26.48288
G1 X51.723 Y130.509 E26.57637
G1 X52.933 Y131.627 E26.67037
G1 X54.247 Y132.6 E26.76366
G1 X55.659 Y133.434 E26.85723
G1 X57.148 Y134.111 E26.95056
G1 X58.723 Y134.632 E27.04522
G1 X60.312 Y134.973 E27.13795
G1 X61.944 Y135.148 E27.2316
G1 X63.582 Y135.148 E27.32506
G1 X65.214 Y134.973 E27.41872
G1 X66.804 Y134.63 E27.51153
G1 X68.38 Y134.111 E27.6062
G1 X69.867 Y133.434 E27.69943
G1 X71.279 Y132.6 E27.793
G1 X72.594 Y131.627 E27.88634
G1 X73.804 Y130.509 E27.98034
G1 X74.882 Y129.276 E28.07379
G1 X75.825 Y127.935 E28.16733
G1 X76.619 Y126.5 E28.26091
G1 X77.259 Y124.975 E28.35527
G1 X77.729 Y123.415 E28.44824
G1 X78.034 Y121.804 E28.54179
G1 X78.165 Y120.171 E28.63527
G1 X78.127 Y118.715 E28.71837
G1 X78.121 Y118.531 E28.72888
G1 X77.904 Y116.905 E28.82248
G1 X77.518 Y115.328 E28.91511
G1 X76.957 Y113.77 E29.0096
G1 X76.24 Y112.295 E29.10318
G1 X75.372 Y110.907 E29.19659
G1 X74.357 Y109.615 E29.29033
G1 X73.213 Y108.44 E29.38391
G1 X71.952 Y107.395 E29.47735
G1 X70.586 Y106.489 E29.57088
G1 X69.128 Y105.731 E29.66464
G1 X67.588 Y105.128 E29.75901
G1 X66.02 Y104.703 E29.85171
G1 X64.398 Y104.442 E29.94544
G1 X62.763 Y104.354 E30.03887
G1 X61.128 Y104.442 E30.1323
G1 X59.507 Y104.702 E30.22597
G1 X57.938 Y105.13 E30.31877
G1 X56.398 Y105.732 E30.41311
G1 X54.94 Y106.488 E30.50682
G1 X53.574 Y107.395 E30.60038
G1 X52.313 Y108.44 E30.69383
G1 X51.167 Y109.617 E30.78756
G1 X50.155 Y110.907 E30.88111
G1 X49.286 Y112.295 E30.97455
G1 X48.645 Y113.615 E31.05828
G0 F810 X48.569 Y113.772
G10
G0 F3600 X56.914 Y114.737
G0 X71.852 Y120.449
;TYPE:SKIN
G11
G1 F900 X71.569 Y121.244 E31.10643
