;FLAVOR:Marlin
;TIME:3658
;Filament used: 6.3952m
;Layer height: 0.4
;MINX:122.996
;MINY:91.729
;MINZ:0.52
;MAXX:198.045
;MAXY:166.965
;MAXZ:15.72
;POSTPROCESSED
;Generated with Cura_SteamEngine 5.2.1
;
;

M82 ;absolute extrusion mode
M98 P0:/sys/startprint.g

G92 E0
G92 E0
G10
;LAYER_COUNT:39
;LAYER:0
M107
G0 F3600 X131.752 Y105.101 Z0.52
;TYPE:SKIRT
G11
G1 F450 X132.335 Y104.43 E0.05072
G1 X133.353 Y103.317 E0.13678
G1 X136.716 Y100.31 E0.39419
G1 X137.439 Y99.634 E0.45067
G1 X138.654 Y98.735 E0.53691
G1 X139.25 Y98.314 E0.57854
G1 X139.834 Y97.972 E0.61716
G1 X143.409 Y95.914 E0.85253
G1 X144.114 Y95.487 E0.89956
G1 X144.857 Y95.143 E0.94628
G1 X146.157 Y94.575 E1.02722
G1 X146.819 Y94.352 E1.06708
G1 X150.567 Y93.144 E1.29177
G1 X151.537 Y92.81 E1.35031
G1 X152.977 Y92.492 E1.43445
G1 X153.712 Y92.346 E1.47721
G1 X154.362 Y92.273 E1.51453
G1 X158.531 Y91.84 E1.75369
G1 X159.304 Y91.743 E1.79814
G1 X160.151 Y91.729 E1.84648
G1 X161.676 Y91.74 E1.93349
G1 X166.278 Y92.237 E2.1976
G1 X167.167 Y92.315 E2.24852
G1 X167.962 Y92.47 E2.29474
G1 X168.725 Y92.632 E2.33925
G1 X169.502 Y92.812 E2.38475
G1 X172.571 Y93.842 E2.56947
G1 X174.705 Y94.499 E2.69687
G1 X175.511 Y94.843 E2.74687
G1 X176.881 Y95.466 E2.83275
G1 X180.846 Y97.773 E3.09449
G1 X181.66 Y98.223 E3.14756
G1 X182.373 Y98.726 E3.19735
G1 X183.579 Y99.617 E3.28291
G1 X185.982 Y101.824 E3.46907
G1 X187.659 Y103.289 E3.59613
G1 X188.234 Y103.907 E3.64429
G1 X189.157 Y104.948 E3.72368
G1 X189.575 Y105.512 E3.76373
G1 X192.041 Y108.916 E4.00357
G1 X192.487 Y109.506 E4.04577
G1 X192.921 Y110.232 E4.09404
G1 X193.595 Y111.417 E4.17182
G1 X193.896 Y112.079 E4.21332
G1 X195.516 Y115.733 E4.44138
G1 X195.906 Y116.565 E4.49381
G1 X196.182 Y117.369 E4.54231
G1 X196.393 Y118.02 E4.58136
G1 X196.612 Y118.731 E4.62381
G1 X196.744 Y119.327 E4.65864
G1 X197.571 Y123.261 E4.88802
G1 X197.798 Y124.241 E4.94541
G1 X197.964 Y125.736 E5.03124
G1 X198.043 Y126.606 E5.08109
G1 X198.011 Y129.89 E5.26848
G1 X198.045 Y132.092 E5.39413
G1 X197.905 Y133.533 E5.47674
G1 X197.794 Y134.462 E5.53013
G1 X197.074 Y137.698 E5.71929
G1 X196.658 Y139.819 E5.84261
G1 X196.421 Y140.59 E5.88864
G1 X195.971 Y141.94 E5.96983
G1 X195.695 Y142.575 E6.00934
G1 X193.983 Y146.41 E6.24897
G1 X193.682 Y147.124 E6.29318
G1 X192.936 Y148.437 E6.37935
G1 X192.499 Y149.171 E6.42809
G1 X190.592 Y151.74 E6.61065
G1 X189.277 Y153.607 E6.74095
G1 X188.698 Y154.271 E6.79122
G1 X187.678 Y155.388 E6.87753
G1 X185.212 Y157.563 E7.06514
G1 X183.592 Y159.066 E7.19123
G1 X182.874 Y159.611 E7.24267
G1 X182.095 Y160.172 E7.29744
G1 X181.533 Y160.542 E7.33583
G1 X180.586 Y161.076 E7.39787
G1 X180.113 Y161.333 E7.42858
G1 X177.548 Y162.829 E7.59801
G1 X176.912 Y163.214 E7.64043
G1 X176.119 Y163.58 E7.69027
G1 X174.88 Y164.12 E7.76739
G1 X174.239 Y164.335 E7.80596
G1 X170.358 Y165.591 E8.03871
G1 X169.516 Y165.882 E8.08955
G1 X167.976 Y166.221 E8.17952
G1 X167.187 Y166.377 E8.22541
G1 X163.969 Y166.682 E8.40985
G1 X161.734 Y166.952 E8.5383
G1 X160.889 Y166.965 E8.58652
G1 X159.363 Y166.954 E8.6736
G1 X154.786 Y166.46 E8.93627
G1 X153.868 Y166.381 E8.98884
G1 X152.35 Y166.069 E9.07727
G1 X151.679 Y165.916 E9.11654
G1 X151.044 Y165.714 E9.15456
G1 X147.243 Y164.472 E9.38273
G1 X146.328 Y164.192 E9.43732
G1 X145.582 Y163.875 E9.48357
G1 X144.154 Y163.226 E9.57307
G1 X140.194 Y160.923 E9.83446
G1 X139.332 Y160.446 E9.89067
G1 X138.565 Y159.901 E9.94436
G1 X137.529 Y159.139 E10.01774
G1 X136.567 Y158.259 E10.09213
G1 X136.072 Y157.791 E10.131
G1 X134.17 Y156.093 E10.27648
G1 X133.376 Y155.403 E10.3365
G1 X132.346 Y154.278 E10.42353
G1 X131.787 Y153.637 E10.47206
G1 X129.157 Y149.992 E10.72853
G1 X128.559 Y149.199 E10.7852
G1 X128.18 Y148.569 E10.82715
G1 X127.442 Y147.271 E10.91235
G1 X127.172 Y146.682 E10.94932
G1 X125.515 Y142.943 E11.18267
G1 X125.125 Y142.11 E11.23515
G1 X124.857 Y141.323 E11.28259
G1 X124.637 Y140.644 E11.32331
G1 X124.384 Y139.821 E11.37244
G1 X123.744 Y136.655 E11.55674
G1 X123.242 Y134.449 E11.68583
G1 X123.135 Y133.543 E11.73789
G1 X123.011 Y132.265 E11.81115
G1 X123.004 Y131.636 E11.84704
G1 X123.012 Y127.467 E12.08492
G1 X122.996 Y126.601 E12.13434
G1 X123.069 Y125.786 E12.18103
G1 X123.222 Y124.416 E12.25969
G1 X123.365 Y123.71 E12.30079
G1 X124.197 Y119.836 E12.52687
G1 X124.383 Y118.872 E12.58289
G1 X124.614 Y118.119 E12.62784
G1 X125.068 Y116.753 E12.70997
G1 X125.365 Y116.072 E12.75236
G1 X126.932 Y112.575 E12.97101
G1 X127.36 Y111.569 E13.03339
G1 X128.116 Y110.236 E13.12083
G1 X128.538 Y109.529 E13.16781
G1 X131.237 Y105.839 E13.42867
G1 X131.652 Y105.244 E13.47006
G0 F405 X131.752 Y105.101
G0 F3600 X132.306 Y105.529
G1 F450 X132.81 Y104.948 E13.51395
G1 X133.848 Y103.813 E13.60171
G1 X137.19 Y100.824 E13.85754
G1 X137.887 Y100.174 E13.91192
G1 X139.058 Y99.307 E13.99505
G1 X139.654 Y98.886 E14.03669
G1 X140.191 Y98.574 E14.07213
G1 X143.759 Y96.52 E14.30704
G1 X144.446 Y96.105 E14.35283
G1 X145.2 Y95.756 E14.40024
G1 X146.437 Y95.216 E14.47725
G1 X146.995 Y95.031 E14.5108
G1 X150.794 Y93.806 E14.73855
G1 X151.722 Y93.487 E14.79455
G1 X153.113 Y93.179 E14.87584
G1 X153.848 Y93.033 E14.91859
G1 X154.441 Y92.969 E14.95263
G1 X158.56 Y92.541 E15.18892
G1 X159.349 Y92.442 E15.23429
G1 X160.218 Y92.429 E15.28388
G1 X161.634 Y92.44 E15.36468
G1 X166.205 Y92.933 E15.627
G1 X167.067 Y93.008 E15.67637
G1 X167.817 Y93.155 E15.71998
G1 X168.567 Y93.314 E15.76373
G1 X169.318 Y93.488 E15.80771
G1 X172.375 Y94.515 E15.99172
G1 X174.467 Y95.159 E16.11662
G1 X175.169 Y95.457 E16.16013
G1 X176.566 Y96.092 E16.24769
G1 X180.487 Y98.373 E16.50652
G1 X181.287 Y98.816 E16.5587
G1 X181.912 Y99.256 E16.60231
G1 X183.138 Y100.162 E16.68929
G1 X185.552 Y102.378 E16.87627
G1 X187.169 Y103.79 E16.99876
G1 X187.76 Y104.426 E17.0483
G1 X188.634 Y105.412 E17.12348
G1 X188.987 Y105.895 E17.15761
G1 X191.463 Y109.311 E17.39834
G1 X191.906 Y109.897 E17.44026
G1 X192.313 Y110.578 E17.48552
G1 X192.987 Y111.763 E17.56331
G1 X193.253 Y112.357 E17.60045
G1 X194.882 Y116.031 E17.82976
G1 X195.259 Y116.835 E17.88043
G1 X195.516 Y117.585 E17.92567
G1 X195.724 Y118.226 E17.96412
G1 X195.973 Y119.035 E18.01242
G1 X196.887 Y123.411 E18.26749
G1 X197.106 Y124.356 E18.32284
G1 X197.267 Y125.799 E18.40569
G1 X197.343 Y126.633 E18.45347
G1 X197.311 Y129.894 E18.63955
G1 X197.344 Y132.063 E18.76333
G1 X197.202 Y133.519 E18.8468
G1 X197.103 Y134.347 E18.89438
G1 X196.385 Y137.571 E19.08284
G1 X195.979 Y139.643 E19.20332
G1 X195.734 Y140.439 E19.25084
G1 X195.307 Y141.719 E19.32783
G1 X195.071 Y142.257 E19.36135
G1 X193.363 Y146.082 E19.60037
G1 X193.056 Y146.808 E19.64535
G1 X192.335 Y148.078 E19.72868
G1 X191.914 Y148.784 E19.77558
G1 X190.02 Y151.337 E19.95696
G1 X188.73 Y153.17 E20.08485
G1 X188.181 Y153.799 E20.13249
G1 X187.186 Y154.889 E20.2167
G1 X184.748 Y157.039 E20.40217
G1 X183.144 Y158.527 E20.52701
G1 X182.464 Y159.044 E20.57575
G1 X181.753 Y159.557 E20.62578
G1 X181.188 Y159.932 E20.66447
G1 X180.251 Y160.461 E20.72587
G1 X179.78 Y160.717 E20.75646
G1 X177.188 Y162.229 E20.92768
G1 X176.585 Y162.594 E20.96789
G1 X175.839 Y162.938 E21.01477
G1 X174.6 Y163.478 E21.09189
G1 X174.013 Y163.673 E21.12718
G1 X170.135 Y164.927 E21.35973
G1 X169.321 Y165.208 E21.40887
G1 X167.841 Y165.535 E21.49535
G1 X167.096 Y165.682 E21.53868
G1 X163.896 Y165.986 E21.72209
G1 X161.685 Y166.252 E21.84916
G1 X160.822 Y166.265 E21.8984
G1 X159.405 Y166.254 E21.97926
G1 X154.835 Y165.761 E22.24153
G1 X153.958 Y165.686 E22.29175
G1 X152.506 Y165.386 E22.37635
G1 X151.835 Y165.233 E22.41562
G1 X151.304 Y165.063 E22.44743
G1 X147.405 Y163.789 E22.68148
G1 X146.566 Y163.532 E22.73155
G1 X145.871 Y163.237 E22.77463
G1 X144.48 Y162.605 E22.86181
G1 X140.573 Y160.333 E23.11969
G1 X139.891 Y159.956 E23.16415
G1 X139.449 Y159.67 E23.19419
G1 X138.979 Y159.336 E23.22709
G1 X138.311 Y158.846 E23.27436
G1 X137.818 Y158.456 E23.31023
G1 X137.048 Y157.75 E23.36984
G1 X136.561 Y157.29 E23.40806
G1 X134.629 Y155.565 E23.55584
G1 X133.867 Y154.903 E23.61344
G1 X132.874 Y153.818 E23.69736
G1 X132.403 Y153.278 E23.73825
G1 X132.078 Y152.835 E23.7696
G1 X129.716 Y149.57 E23.99953
G1 X129.139 Y148.805 E24.0542
G1 X128.749 Y148.156 E24.09741
G1 X128.05 Y146.925 E24.17818
G1 X127.818 Y146.411 E24.21036
G1 X126.163 Y142.676 E24.44346
G1 X125.779 Y141.855 E24.49517
G1 X125.523 Y141.107 E24.54028
G1 X125.306 Y140.438 E24.58041
G1 X125.065 Y139.656 E24.6271
G1 X124.432 Y136.522 E24.80954
G1 X123.932 Y134.326 E24.93804
G1 X123.832 Y133.475 E24.98694
G1 X123.708 Y132.197 E25.0602
G1 X123.704 Y131.653 E25.09124
G1 X123.712 Y127.516 E25.32729
G1 X123.696 Y126.633 E25.37768
G1 X123.759 Y125.918 E25.41864
G1 X123.918 Y124.494 E25.50039
G1 X124.054 Y123.835 E25.53879
G1 X124.891 Y119.935 E25.76638
G1 X125.064 Y119.042 E25.81828
G1 X125.3 Y118.272 E25.86424
G1 X125.732 Y116.973 E25.94235
G1 X125.977 Y116.416 E25.97707
G1 X127.587 Y112.822 E26.20177
G1 X127.988 Y111.88 E26.26019
G1 X128.717 Y110.595 E26.34449
G1 X129.069 Y110.005 E26.38369
G1 X129.416 Y109.524 E26.41753
G1 X131.774 Y106.291 E26.64585
G1 X132.206 Y105.672 E26.68892
G0 F405 X132.306 Y105.529
G10
;MESH:blade-hub-n300-flat.STL
G0 F3600 X131.834 Y110.607
G0 X131.389 Y112.197
G0 X132.227 Y114.398
G0 X132.238 Y116.121
G0 X129.866 Y123.423
G0 X128.741 Y126.183
G11
G0 X130.001 Y126.301
;TYPE:WALL-OUTER
G1 F900 X130.387 Y124.246 E26.80823
G1 F787.5 X130.421 Y123.531 E26.85491
G1 F702.3 X130.573 Y122.952 E26.89868
G1 F784.6 X130.879 Y122.321 E26.94458
G1 F892.4 X131.534 Y120.312 E27.06618
G1 F900 X132.82 Y117.568 E27.23909
G1 X134.489 Y114.93 E27.41721
G1 X136.419 Y112.585 E27.5905
G1 X138.669 Y110.462 E27.76701
G1 X141.132 Y108.661 E27.94111
G1 X143.838 Y107.159 E28.1177
G1 X146.675 Y106.025 E28.29203
G1 X149.691 Y105.236 E28.46991
G1 X152.699 Y104.844 E28.64299
G1 X155.816 Y104.83 E28.82085
G1 X158.871 Y105.202 E28.99645
G1 X161.831 Y105.944 E29.17057
G1 X164.693 Y107.06 E29.34585
G1 X164.992 Y107.281 E29.36706
G1 X165.203 Y107.638 E29.39072
G1 X165.218 Y108.15 E29.41995
G1 X165.06 Y108.491 E29.44139
G1 X164.801 Y108.729 E29.46146
G1 X164.479 Y108.857 E29.48124
G1 X164.057 Y108.848 E29.50532
G1 X161.239 Y107.756 E29.67776
G1 X158.508 Y107.069 E29.83844
G1 X155.683 Y106.727 E30.00081
G1 X152.849 Y106.739 E30.16252
G1 X150.037 Y107.107 E30.32433
G1 X147.304 Y107.821 E30.48551
G1 X144.657 Y108.877 E30.64812
G1 X142.171 Y110.253 E30.81025
G1 X139.885 Y111.925 E30.97185
G1 X137.82 Y113.874 E31.13387
G1 X136.014 Y116.064 E31.29583
G1 X134.5 Y118.46 E31.45755
G1 X133.295 Y121.024 E31.6192
G1 X132.414 Y123.746 E31.78245
G1 X131.891 Y126.517 E31.94335
G1 X131.7 Y129.502 E32.11402
G1 X131.542 Y129.878 E32.13729
G1 X131.426 Y130.017 E32.14762
G1 X131.171 Y130.198 E32.16546
G1 X130.998 Y130.262 E32.17599
G1 X130.58 Y130.28 E32.19986
G1 X130.144 Y130.07 E32.22747
G1 F869 X129.849 Y129.689 E32.25595
G1 F806.7 X129.762 Y129.42 E32.27395
G1 F767.4 X129.772 Y128.885 E32.30976
G1 F822.5 X129.884 Y128.153 E32.35599
G1 F900 X130.001 Y126.301 E32.46188
G0 F3600 X130.074 Y125.908
G10
G0 X128.837 Y125.781
G0 X129.453 Y129.864
G0 X131.248 Y130.678
G0 X135.002 Y123.656
G0 X136.555 Y120.937
G0 X138.435 Y118.435
G0 X140.614 Y116.185
G0 X143.085 Y114.203
G0 X144.794 Y114.317
G0 X144.985 Y116.234
G0 X138.878 Y122.466
G0 X138.16 Y123.968
G0 X136.917 Y127.922
G0 X139.209 Y128.533
G0 X140.219 Y128.82
G11
G1 F900 X140.346 Y128.358 E32.48922
G1 X140.567 Y127.895 E32.51849
G1 X140.857 Y127.494 E32.54673
G1 X141.212 Y127.146 E32.57509
G1 X141.568 Y126.894 E32.59998
G1 X142.043 Y126.669 E32.62997
G1 X142.553 Y126.536 E32.66004
G1 X143.051 Y126.498 E32.68854
G1 X143.487 Y126.536 E32.71351
G1 X143.967 Y126.66 E32.7418
G1 X144.453 Y126.881 E32.77226
G1 X144.828 Y127.146 E32.79846
G1 X145.183 Y127.494 E32.82683
G1 X145.493 Y127.927 E32.85721
G1 X145.686 Y128.343 E32.88338
G1 X145.821 Y128.819 E32.91161
G1 X145.87 Y129.324 E32.94056
G1 X145.821 Y129.875 E32.97212
G1 X145.707 Y130.293 E32.99685
G1 X145.505 Y130.744 E33.02504
G1 X145.183 Y131.2 E33.05689
G1 X144.828 Y131.548 E33.08526
G1 X144.417 Y131.832 E33.11376
G1 X143.993 Y132.026 E33.14037
G1 X143.52 Y132.154 E33.16833
G1 X142.989 Y132.196 E33.19872
G1 X142.519 Y132.154 E33.22565
G1 X142.033 Y132.021 E33.2544
G1 X141.594 Y131.817 E33.28202
G1 X141.212 Y131.548 E33.30868
G1 X140.836 Y131.177 E33.33881
G1 X140.535 Y130.744 E33.3689
G1 X140.331 Y130.292 E33.3972
G1 X140.219 Y129.874 E33.42189
G1 X140.171 Y129.318 E33.45373
G1 X140.203 Y128.994 E33.47231
G0 F810 X140.219 Y128.82
G0 F3600 X140.325 Y128.435
G0 X139.841 Y128.307
G0 X141.801 Y126.012
;TYPE:WALL-INNER
G1 F900 X142.408 Y125.844 E33.50825
G1 X143.073 Y125.798 E33.54628
G1 X143.548 Y125.838 E33.57348
G1 X144.149 Y125.984 E33.60877
G1 X144.316 Y126.044 E33.6189
G1 X144.819 Y126.285 E33.65072
G1 X145.232 Y126.574 E33.67948
G1 X145.74 Y127.058 E33.71952
G1 X146.104 Y127.585 E33.75606
G1 X146.322 Y128.049 E33.78532
G1 X146.382 Y128.215 E33.79539
G1 F744.7 X146.675 Y128.806 E33.84088
G1 F648.1 X146.695 Y129.275 E33.87807
G1 F648.8 X146.674 Y129.891 E33.92685
G1 F745.6 X146.383 Y130.475 E33.97179
G1 F900 X146.323 Y130.641 E33.98187
G1 X146.055 Y131.188 E34.01662
G1 X145.678 Y131.695 E34.05267
G1 X145.233 Y132.119 E34.08774
G1 X144.795 Y132.429 E34.11836
G1 X144.226 Y132.691 E34.1541
G1 X143.646 Y132.842 E34.1883
G1 X143.02 Y132.903 E34.22419
G1 X142.39 Y132.842 E34.2603
G1 X141.812 Y132.69 E34.29441
G1 X141.242 Y132.423 E34.33032
G1 X140.746 Y132.072 E34.36499
G1 X140.298 Y131.625 E34.4011
G1 X139.934 Y131.116 E34.43681
G1 X139.655 Y130.473 E34.4768
G1 X139.511 Y129.875 E34.5119
G1 X139.473 Y129.258 E34.54717
G1 X139.543 Y128.639 E34.58271
G1 X139.699 Y128.09 E34.61528
G1 X139.995 Y127.491 E34.6534
G1 X140.247 Y127.135 E34.67829
G1 X140.672 Y126.689 E34.71344
G1 X141.235 Y126.269 E34.75352
G1 X141.642 Y126.084 E34.77903
G0 F810 X141.801 Y126.012
G10
G0 F3600 X145.286 Y126.232
G0 X147.207 Y129.461
G0 X147.559 Y128.06
G0 X150.609 Y120.888
G0 X152.933 Y118.708
G0 X154.621 Y115.837
G0 X155.063 Y114.192
G0 X154.7 Y112.574
G11
G0 X154.249 Y112.783
;TYPE:WALL-OUTER
G1 F900 X154.454 Y113.234 E34.80729
G1 X154.577 Y113.692 E34.83435
G1 X154.621 Y114.194 E34.86311
G1 X154.578 Y114.685 E34.89123
G1 X154.438 Y115.193 E34.9213
G1 X154.256 Y115.588 E34.94611
G1 X153.971 Y116 E34.9747
G1 X153.578 Y116.393 E35.00641
G1 X153.188 Y116.667 E35.0336
G1 X152.751 Y116.868 E35.06105
G1 X152.237 Y117.003 E35.09137
G1 X151.739 Y117.041 E35.11987
G1 X151.252 Y116.995 E35.14778
G1 X150.823 Y116.879 E35.17314
G1 X150.317 Y116.645 E35.20495
G1 X149.955 Y116.388 E35.23028
G1 X149.588 Y116.025 E35.25973
G1 X149.305 Y115.626 E35.28765
G1 X149.081 Y115.137 E35.31834
G1 X148.966 Y114.705 E35.34384
G1 X148.921 Y114.225 E35.37135
G1 X148.962 Y113.696 E35.40163
G1 X149.091 Y113.216 E35.42999
G1 X149.317 Y112.74 E35.46005
G1 X149.607 Y112.339 E35.48829
G1 X149.962 Y111.991 E35.51665
G1 X150.373 Y111.707 E35.54516
G1 X150.824 Y111.503 E35.5734
G1 X151.288 Y111.382 E35.60076
G1 X151.801 Y111.343 E35.63012
G1 X152.297 Y111.391 E35.65855
G1 X152.716 Y111.503 E35.6833
G1 X153.167 Y111.707 E35.71154
G1 X153.6 Y112.007 E35.7416
G1 X153.971 Y112.384 E35.77178
G1 X154.149 Y112.64 E35.78957
G0 F810 X154.249 Y112.783
G0 F3600 X154.414 Y113.147
G0 X154.869 Y112.936
G0 X153.886 Y111.67
G0 X152.34 Y110.95
G0 X150.645 Y111.097
G0 X149.248 Y112.076
G0 X148.557 Y113.516
G0 X148.433 Y115.406
;TYPE:WALL-INNER
G1 F900 X148.283 Y114.858 E35.82199
G1 X148.214 Y114.2 E35.85974
G1 X148.272 Y113.578 E35.89538
G1 X148.434 Y112.974 E35.93107
G1 X148.65 Y112.501 E35.96074
G1 X148.997 Y111.98 E35.99645
G1 X149.422 Y111.534 E36.0316
G1 X149.99 Y111.11 E36.07205
G1 X150.643 Y110.827 E36.11266
G1 X151.197 Y110.688 E36.14525
G1 X151.678 Y110.645 E36.1728
G1 X152.298 Y110.683 E36.20824
G1 X152.897 Y110.827 E36.2434
G1 X153.541 Y111.106 E36.28344
G1 X154.048 Y111.469 E36.31902
G1 X154.496 Y111.911 E36.35493
G1 X154.873 Y112.465 E36.39317
G1 X155.125 Y113.034 E36.42867
G1 X155.266 Y113.566 E36.46008
G1 X155.321 Y114.2 E36.49639
G1 X155.269 Y114.798 E36.53064
G1 X155.133 Y115.321 E36.56147
G1 X154.892 Y115.881 E36.59626
