;FLAVOR:Marlin
;TIME:3683
;Filament used: 6.39865m
;Layer height: 0.4
;MINX:122.247
;MINY:5.096
;MINZ:0.52
;MAXX:197.297
;MAXY:80.332
;MAXZ:15.72
;POSTPROCESSED
;Generated with Cura_SteamEngine 5.2.1
;
;

M82 ;absolute extrusion mode
M98 P0:/sys/startprint.g

G92 E0
G92 E0
G10
;LAYER_COUNT:39
;LAYER:0
M107
G0 F3600 X123.627 Y32.27 Z0.52
;TYPE:SKIRT
G11
G1 F450 X123.886 Y31.428 E0.05026
G1 X124.097 Y30.778 E0.08926
G1 X124.331 Y30.094 E0.13051
G1 X124.597 Y29.485 E0.16843
G1 X126.251 Y25.785 E0.39968
G1 X126.609 Y24.94 E0.45204
G1 X127.341 Y23.651 E0.53662
G1 X127.802 Y22.877 E0.58802
G1 X129.769 Y20.225 E0.77642
G1 X131.024 Y18.443 E0.90079
G1 X131.614 Y17.768 E0.95194
G1 X132.606 Y16.681 E1.03591
G1 X135.069 Y14.508 E1.22332
G1 X136.71 Y12.984 E1.35111
G1 X137.954 Y12.068 E1.43925
G1 X138.623 Y11.598 E1.4859
G1 X142.585 Y9.327 E1.74647
G1 X143.368 Y8.855 E1.79864
G1 X144.025 Y8.548 E1.84002
G1 X145.554 Y7.879 E1.93525
G1 X148.633 Y6.912 E2.11939
G1 X150.776 Y6.181 E2.24859
G1 X151.612 Y5.991 E2.2975
G1 X153.092 Y5.687 E2.38371
G1 X156.327 Y5.379 E2.56913
G1 X158.568 Y5.109 E2.69793
G1 X159.399 Y5.096 E2.74535
G1 X160.112 Y5.096 E2.78603
G1 X160.984 Y5.11 E2.83579
G1 X164.273 Y5.489 E3.0247
G1 X166.441 Y5.683 E3.1489
G1 X167.931 Y5.991 E3.23571
G1 X168.756 Y6.18 E3.28401
G1 X173.111 Y7.61 E3.54555
G1 X173.965 Y7.87 E3.59649
G1 X174.626 Y8.15 E3.63745
G1 X175.407 Y8.497 E3.68621
G1 X175.997 Y8.77 E3.7233
G1 X176.631 Y9.131 E3.76493
G1 X180.105 Y11.144 E3.99403
G1 X180.899 Y11.584 E4.04582
G1 X181.566 Y12.051 E4.09228
G1 X182.824 Y12.977 E4.18141
G1 X185.268 Y15.222 E4.37077
G1 X186.916 Y16.662 E4.49564
G1 X187.543 Y17.338 E4.54825
G1 X188.397 Y18.299 E4.6216
G1 X188.758 Y18.783 E4.65606
G1 X191.16 Y22.103 E4.88987
G1 X191.732 Y22.86 E4.94401
G1 X192.194 Y23.633 E4.99539
G1 X192.921 Y24.915 E5.07949
G1 X194.784 Y29.138 E5.34285
G1 X195.163 Y29.947 E5.39382
G1 X195.426 Y30.712 E5.43998
G1 X195.641 Y31.375 E5.47975
G1 X195.867 Y32.113 E5.52379
G1 X195.992 Y32.674 E5.55659
G1 X196.822 Y36.62 E5.78667
G1 X197.051 Y37.607 E5.84448
G1 X197.218 Y39.105 E5.93048
G1 X197.294 Y39.94 E5.97832
G1 X197.28 Y44.562 E6.24205
G1 X197.297 Y45.443 E6.29233
G1 X197.227 Y46.234 E6.33764
G1 X197.069 Y47.656 E6.41927
G1 X196.926 Y48.358 E6.46015
G1 X196.073 Y52.337 E6.69235
G1 X195.904 Y53.212 E6.7432
G1 X195.455 Y54.628 E6.82796
G1 X195.218 Y55.325 E6.86996
G1 X194.935 Y55.969 E6.9101
G1 X193.299 Y59.628 E7.1388
G1 X192.939 Y60.48 E7.19157
G1 X192.53 Y61.212 E7.23942
G1 X191.763 Y62.523 E7.32608
G1 X189.731 Y65.264 E7.52077
G1 X188.518 Y66.989 E7.64109
G1 X187.958 Y67.63 E7.68966
G1 X186.938 Y68.747 E7.77597
G1 X184.498 Y70.901 E7.96168
G1 X182.916 Y72.368 E8.08478
G1 X182.283 Y72.864 E8.13067
G1 X181.445 Y73.471 E8.18971
G1 X180.894 Y73.848 E8.22781
G1 X179.351 Y74.709 E8.32863
G1 X176.901 Y76.138 E8.49046
G1 X176.152 Y76.587 E8.54029
G1 X175.406 Y76.932 E8.58719
G1 X173.998 Y77.547 E8.67485
G1 X170.912 Y78.515 E8.8594
G1 X168.771 Y79.247 E8.9885
G1 X167.938 Y79.438 E9.03727
G1 X166.456 Y79.742 E9.12359
G1 X163.205 Y80.051 E9.30992
G1 X160.98 Y80.319 E9.43779
G1 X160.141 Y80.332 E9.48567
G1 X158.613 Y80.321 E9.57286
G1 X154.029 Y79.825 E9.83594
G1 X153.138 Y79.749 E9.88697
G1 X152.345 Y79.594 E9.93307
G1 X151.615 Y79.439 E9.97565
G1 X150.927 Y79.282 E10.01592
G1 X150.337 Y79.095 E10.05123
G1 X146.413 Y77.813 E10.28678
G1 X145.58 Y77.558 E10.33648
G1 X144.849 Y77.248 E10.38179
G1 X143.547 Y76.658 E10.46335
G1 X142.912 Y76.298 E10.505
G1 X139.397 Y74.261 E10.73681
G1 X138.539 Y73.786 E10.79277
G1 X137.052 Y72.706 E10.89763
G1 X136.573 Y72.318 E10.9328
G1 X135.389 Y71.221 E11.0249
G1 X132.629 Y68.768 E11.23559
G1 X131.986 Y68.075 E11.28953
G1 X131.145 Y67.127 E11.36184
G1 X130.741 Y66.581 E11.4006
G1 X128.316 Y63.234 E11.63643
G1 X127.803 Y62.554 E11.68503
G1 X127.012 Y61.208 E11.77411
G1 X126.682 Y60.616 E11.81278
G1 X126.397 Y59.985 E11.85229
G1 X124.754 Y56.28 E12.08355
G1 X124.383 Y55.487 E12.1335
G1 X124.11 Y54.693 E12.18141
G1 X123.646 Y53.229 E12.26904
G1 X122.964 Y49.872 E12.4645
G1 X122.494 Y47.815 E12.58489
G1 X122.331 Y46.369 E12.66792
G1 X122.262 Y45.613 E12.71124
G1 X122.257 Y44.967 E12.7481
G1 X122.263 Y40.821 E12.98466
G1 X122.247 Y39.981 E13.0326
G1 X122.322 Y39.145 E13.08049
G1 X122.397 Y38.444 E13.12072
G1 X122.503 Y37.576 E13.17062
G1 X123.454 Y33.172 E13.42769
G1 X123.595 Y32.441 E13.47017
G0 F405 X123.627 Y32.27
G0 F3600 X124.305 Y32.449
G1 F450 X124.552 Y31.644 E13.51822
G1 X124.76 Y31.004 E13.55662
G1 X124.994 Y30.32 E13.59786
G1 X125.24 Y29.763 E13.63261
G1 X126.897 Y26.056 E13.86429
G1 X127.242 Y25.244 E13.91463
G1 X127.942 Y24.009 E13.99563
G1 X128.38 Y23.274 E14.04445
G1 X130.318 Y20.661 E14.23008
G1 X131.572 Y18.88 E14.35436
G1 X132.131 Y18.24 E14.40285
G1 X133.098 Y17.181 E14.48468
G1 X135.533 Y15.031 E14.67002
G1 X137.155 Y13.526 E14.79627
G1 X138.357 Y12.641 E14.88144
G1 X139.001 Y12.188 E14.92637
G1 X142.977 Y9.908 E15.18789
G1 X143.701 Y9.472 E15.23611
G1 X144.375 Y9.158 E15.27854
G1 X145.794 Y8.537 E15.36692
G1 X148.86 Y7.575 E15.55027
G1 X150.974 Y6.854 E15.67771
G1 X151.753 Y6.676 E15.72331
G1 X153.189 Y6.381 E15.80696
G1 X156.399 Y6.075 E15.99094
G1 X158.616 Y5.809 E16.11835
G1 X159.41 Y5.796 E16.16366
G1 X160.101 Y5.796 E16.20309
G1 X160.944 Y5.81 E16.2512
G1 X164.208 Y6.186 E16.43867
G1 X166.341 Y6.377 E16.56086
G1 X167.775 Y6.673 E16.64441
G1 X168.556 Y6.852 E16.69013
G1 X172.926 Y8.286 E16.95255
G1 X173.725 Y8.529 E17.00021
G1 X174.391 Y8.811 E17.04147
G1 X175.113 Y9.132 E17.08656
G1 X175.703 Y9.405 E17.12365
G1 X176.284 Y9.739 E17.16189
G1 X179.789 Y11.77 E17.39303
G1 X180.538 Y12.186 E17.44192
G1 X181.151 Y12.614 E17.48458
G1 X182.38 Y13.518 E17.57163
G1 X184.809 Y15.75 E17.75985
G1 X186.426 Y17.163 E17.88238
G1 X187.02 Y17.803 E17.9322
G1 X187.874 Y18.764 E18.00556
G1 X188.196 Y19.201 E18.03653
G1 X190.576 Y22.491 E18.26822
G1 X191.15 Y23.251 E18.32256
G1 X191.585 Y23.979 E18.37095
G1 X192.296 Y25.234 E18.45326
G1 X194.136 Y29.403 E18.71327
G1 X194.512 Y30.207 E18.76392
G1 X194.76 Y30.929 E18.80747
G1 X194.972 Y31.58 E18.84654
G1 X195.228 Y32.416 E18.89643
G1 X196.137 Y36.764 E19.14988
G1 X196.359 Y37.724 E19.2061
G1 X196.52 Y39.168 E19.28901
G1 X196.593 Y39.98 E19.33553
G1 X196.58 Y44.511 E19.59406
G1 X196.597 Y45.413 E19.64554
G1 X196.532 Y46.157 E19.68815
G1 X196.374 Y47.579 E19.76979
G1 X196.251 Y48.17 E19.80423
G1 X195.389 Y52.19 E20.03882
G1 X195.225 Y53.038 E20.0881
G1 X194.792 Y54.403 E20.16981
G1 X194.555 Y55.1 E20.21182
G1 X194.302 Y55.67 E20.2474
G1 X192.654 Y59.356 E20.47778
G1 X192.311 Y60.166 E20.52797
G1 X191.926 Y60.858 E20.57316
G1 X191.177 Y62.139 E20.65783
G1 X189.169 Y64.847 E20.85019
G1 X187.966 Y66.557 E20.96948
G1 X187.441 Y67.158 E21.01502
G1 X186.446 Y68.248 E21.09923
G1 X184.011 Y70.397 E21.28454
G1 X182.456 Y71.839 E21.40554
G1 X181.777 Y72.369 E21.45469
G1 X181.05 Y72.893 E21.50582
G1 X180.519 Y73.256 E21.54252
G1 X178.976 Y74.117 E21.64334
G1 X176.574 Y75.518 E21.80201
G1 X175.83 Y75.965 E21.85153
G1 X175.174 Y76.269 E21.89279
G1 X173.751 Y76.891 E21.9814
G1 X170.725 Y77.84 E22.16235
G1 X168.581 Y78.572 E22.29162
G1 X167.797 Y78.752 E22.33752
G1 X166.351 Y79.049 E22.42175
G1 X163.137 Y79.354 E22.60596
G1 X160.932 Y79.619 E22.73268
G1 X160.074 Y79.632 E22.78164
G1 X158.654 Y79.621 E22.86266
G1 X154.072 Y79.126 E23.12563
G1 X153.228 Y79.053 E23.17396
G1 X152.491 Y78.909 E23.21681
G1 X151.771 Y78.756 E23.25881
G1 X151.083 Y78.599 E23.29908
G1 X150.567 Y78.434 E23.32999
G1 X146.643 Y77.152 E23.56553
G1 X145.822 Y76.901 E23.61452
G1 X145.193 Y76.635 E23.65349
G1 X143.836 Y76.02 E23.73849
G1 X143.263 Y75.692 E23.77617
G1 X139.788 Y73.678 E24.00534
G1 X139.118 Y73.307 E24.04904
G1 X138.678 Y73.022 E24.07895
G1 X137.549 Y72.204 E24.1585
G1 X137.049 Y71.805 E24.195
G1 X135.838 Y70.683 E24.2892
G1 X133.53 Y68.625 E24.46564
G1 X133.04 Y68.182 E24.50333
G1 X132.51 Y67.611 E24.54778
G1 X131.669 Y66.663 E24.62009
G1 X131.316 Y66.183 E24.65409
G1 X128.848 Y62.776 E24.89413
G1 X128.38 Y62.156 E24.93846
G1 X127.623 Y60.867 E25.02375
G1 X127.293 Y60.275 E25.06242
G1 X127.043 Y59.715 E25.09742
G1 X125.4 Y56.01 E25.32867
G1 X125.033 Y55.224 E25.37817
G1 X124.796 Y54.538 E25.41958
G1 X124.323 Y53.047 E25.50883
G1 X123.655 Y49.755 E25.7005
G1 X123.186 Y47.704 E25.82055
G1 X123.022 Y46.241 E25.90455
G1 X122.959 Y45.549 E25.9442
G1 X122.957 Y44.984 E25.97643
G1 X122.963 Y40.87 E26.21117
G1 X122.947 Y40.011 E26.2602
G1 X123.018 Y39.219 E26.30557
G1 X123.091 Y38.529 E26.34516
G1 X123.192 Y37.7 E26.39281
G1 X124.141 Y33.302 E26.64953
G1 X124.272 Y32.62 E26.68915
G0 F405 X124.305 Y32.449
G10
;MESH:blade-hub-n300-flat.STL
G0 F3600 X127.535 Y32.542
G0 X131.063 Y29.383
;TYPE:WALL-OUTER
G11
G1 F901.3 X130.884 Y29.884 E26.71947
G1 F900 X130.663 Y30.286 E26.74564
G1 X130.317 Y30.717 E26.77718
G1 X129.985 Y31.013 E26.80256
G1 X129.558 Y31.284 E26.83141
G1 X129.056 Y31.49 E26.86238
G1 X128.591 Y31.593 E26.88955
G1 X128.033 Y31.618 E26.92142
G1 X127.43 Y31.521 E26.95627
G1 X127.026 Y32.761 E27.03068
G1 X127.576 Y33.037 E27.0658
G1 X128.014 Y33.387 E27.09779
G1 X128.331 Y33.746 E27.12511
G1 X128.582 Y34.149 E27.1522
G1 X128.784 Y34.638 E27.18239
G1 X128.894 Y35.138 E27.2116
G1 F858.3 X128.948 Y35.672 E27.24372
G1 F758.1 X128.956 Y36.126 E27.27447
G1 F702.3 X128.807 Y36.655 E27.31466
G1 F766.4 X128.514 Y37.062 E27.34826
G1 F873.8 X128.464 Y37.103 E27.35206
G1 F900 X128.16 Y37.508 E27.38095
G1 X127.791 Y37.858 E27.40997
G1 X127.373 Y38.136 E27.43862
G1 X126.963 Y38.318 E27.46421
G1 X126.477 Y38.451 E27.49296
G1 X125.808 Y38.513 E27.5313
G1 X125.674 Y39.786 E27.60433
G1 X126.266 Y39.942 E27.63927
G1 X126.769 Y40.196 E27.67142
G1 X127.128 Y40.46 E27.69685
G1 X127.482 Y40.819 E27.72561
G1 X127.784 Y41.258 E27.75602
G1 F887.3 X128.021 Y41.775 E27.78893
G1 F811.9 X128.195 Y42.26 E27.82152
G1 F767.4 X128.212 Y42.82 E27.85902
G1 F808.7 X128.149 Y43.193 E27.88304
G1 F870.2 X127.983 Y43.734 E27.91643
G1 F900 X127.799 Y44.143 E27.94202
G1 X127.501 Y44.589 E27.97263
G1 X127.171 Y44.931 E27.99975
G1 X126.767 Y45.234 E28.02856
G1 X126.32 Y45.465 E28.05727
G1 X125.835 Y45.618 E28.08629
G1 X125.674 Y45.643 E28.09559
G1 X125.809 Y46.922 E28.16897
G1 X126.424 Y46.969 E28.20416
G1 X126.909 Y47.092 E28.23271
G1 X127.423 Y47.323 E28.26487
G1 X127.814 Y47.588 E28.29182
G1 X128.16 Y47.921 E28.31922
G1 X128.481 Y48.349 E28.34974
G1 X128.728 Y48.858 E28.38203
G1 X128.866 Y49.34 E28.41063
G1 X128.916 Y49.739 E28.43358
G1 X128.897 Y50.272 E28.46401
G1 X128.778 Y50.815 E28.49573
G1 X128.579 Y51.287 E28.52495
G1 X128.308 Y51.711 E28.55367
G1 X128.014 Y52.043 E28.57897
G1 X127.576 Y52.392 E28.61093
G1 X127.026 Y52.668 E28.64604
G1 X127.43 Y53.908 E28.72045
G1 X128.036 Y53.809 E28.75549
G1 X128.568 Y53.829 E28.78586
G1 X129.089 Y53.948 E28.81636
G1 X129.524 Y54.126 E28.84317
G1 X129.936 Y54.38 E28.87079
G1 X130.334 Y54.732 E28.90111
G1 X130.652 Y55.13 E28.93018
G1 X130.918 Y55.623 E28.96214
G1 X131.074 Y56.093 E28.9904
G1 X131.148 Y56.607 E29.02003
G1 X131.137 Y57.081 E29.04708
G1 X131.06 Y57.521 E29.07257
G1 X130.881 Y58.031 E29.10341
G1 X130.613 Y58.49 E29.13373
G1 X130.291 Y58.876 E29.16242
G1 X129.812 Y59.258 E29.19737
G1 X130.465 Y60.388 E29.27184
G1 X131.034 Y60.166 E29.30669
G1 X131.53 Y60.08 E29.33542
G1 X132.092 Y60.083 E29.36748
G1 X132.572 Y60.169 E29.39531
G1 X133.015 Y60.329 E29.42218
G1 X133.453 Y60.573 E29.45079
G1 F901.3 X133.849 Y60.892 E29.47976
G1 X134.167 Y61.248 E29.50696
G1 F900 X134.477 Y61.754 E29.54082
G1 X134.664 Y62.26 E29.5716
G1 X134.748 Y62.7 E29.59716
G1 X134.762 Y63.228 E29.6273
G1 X134.697 Y63.691 E29.65397
G1 X134.528 Y64.211 E29.68517
G1 X134.292 Y64.655 E29.71386
G1 X133.907 Y65.126 E29.74857
G1 X134.78 Y66.095 E29.82299
G1 X135.293 Y65.758 E29.85802
G1 X135.754 Y65.573 E29.88636
G1 X136.288 Y65.46 E29.9175
G1 X136.816 Y65.447 E29.94764
G1 X137.258 Y65.507 E29.97309
G1 X137.793 Y65.677 E30.00512
G1 X138.243 Y65.914 E30.03414
G1 X138.619 Y66.203 E30.0612
G1 F790.5 X138.68 Y66.128 E30.06748
G1 F700.8 X139.06 Y66.521 E30.10754
G1 F766.4 X139.264 Y66.989 E30.14175
G1 F875 X139.449 Y67.467 E30.17183
G1 F900 X139.564 Y67.919 E30.19844
G1 X139.606 Y68.422 E30.22724
G1 X139.561 Y68.931 E30.2564
G1 X139.431 Y69.418 E30.28516
G1 X139.21 Y69.902 E30.31552
G1 X139.129 Y70.019 E30.32364
G1 X140.186 Y70.783 E30.39805
G1 X140.617 Y70.345 E30.43311
G1 X141.032 Y70.067 E30.46162
G1 X141.497 Y69.858 E30.4907
G1 X141.981 Y69.732 E30.51924
G1 X142.489 Y69.69 E30.54833
G1 X142.994 Y69.734 E30.57725
G1 F819.2 X143.54 Y69.812 E30.61182
G1 F763.6 X144.083 Y70.099 E30.65312
G1 F807.7 X144.375 Y70.341 E30.67724
G1 F869 X144.76 Y70.754 E30.7106
G1 F900 X145.051 Y71.168 E30.73948
G1 X145.25 Y71.581 E30.76564
G1 X145.392 Y72.055 E30.79387
G1 X145.453 Y72.558 E30.82278
G1 X145.42 Y73.12 E30.8549
G1 X145.259 Y73.708 E30.88969
G1 X146.45 Y74.239 E30.96409
G1 X146.782 Y73.722 E30.99915
G1 X147.13 Y73.365 E31.0276
G1 X147.536 Y73.067 E31.05633
G1 X147.993 Y72.839 E31.08547
G1 X148.56 Y72.677 E31.11912
G1 X148.979 Y72.632 E31.14317
G1 X149.517 Y72.659 E31.1739
G1 X150.031 Y72.786 E31.20411
G1 X150.454 Y72.962 E31.23025
G1 X150.881 Y73.232 E31.25908
G1 X151.289 Y73.608 E31.29074
G1 X151.587 Y73.994 E31.31856
G1 X151.806 Y74.404 E31.34509
G1 X151.985 Y74.939 E31.37728
G1 X152.051 Y75.382 E31.40283
G1 X152.043 Y76.053 E31.44112
G1 X153.295 Y76.32 E31.51416
G1 X153.512 Y75.747 E31.54913
G1 X153.795 Y75.296 E31.57951
G1 X154.159 Y74.906 E31.60994
G1 X154.53 Y74.618 E31.63674
G1 X154.981 Y74.378 E31.66589
G1 X155.518 Y74.203 E31.69812
G1 X155.935 Y74.142 E31.72217
G1 X156.472 Y74.15 E31.75281
G1 X156.935 Y74.236 E31.77968
G1 X157.414 Y74.412 E31.8088
G1 X157.849 Y74.662 E31.83743
G1 X158.242 Y74.986 E31.86649
G1 X158.571 Y75.372 E31.89543
G1 X158.829 Y75.801 E31.92399
G1 X159.029 Y76.327 E31.9561
G1 X159.119 Y76.932 E31.991
G1 X160.425 Y76.932 E32.06552
G1 X160.517 Y76.327 E32.10044
G1 X160.691 Y75.854 E32.12919
G1 X160.939 Y75.42 E32.15772
G1 X161.288 Y74.998 E32.18896
G1 X161.624 Y74.713 E32.2141
G1 X162.105 Y74.425 E32.24609
G1 X162.608 Y74.237 E32.27673
G1 X163.043 Y74.154 E32.302
G1 X163.612 Y74.142 E32.33447
G1 F901.3 X164.112 Y74.224 E32.36334
G1 X164.591 Y74.389 E32.39221
G1 F900 X165.035 Y74.632 E32.42109
G1 X165.402 Y74.919 E32.44767
G1 X165.729 Y75.274 E32.47521
G1 X166.007 Y75.701 E32.50428
G1 X166.209 Y76.165 E32.53316
G1 X166.249 Y76.319 E32.54224
G1 X167.501 Y76.053 E32.61527
G1 X167.493 Y75.384 E32.65344
G1 X167.573 Y74.884 E32.68234
G1 X167.738 Y74.404 E32.7113
G1 X167.946 Y74.013 E32.73657
G1 X168.253 Y73.611 E32.76543
G1 X168.622 Y73.265 E32.79429
G1 F891.1 X169.039 Y72.982 E32.82333
G1 F784.6 X169.506 Y72.685 E32.85956
G1 F703.9 X169.953 Y72.574 E32.89316
G1 F779.7 X170.504 Y72.621 E32.92958
G1 F887.3 X171.013 Y72.682 E32.95925
G1 F900 X171.497 Y72.818 E32.98794
G1 X172.009 Y73.067 E33.02042
G1 X172.416 Y73.366 E33.04924
G1 X172.763 Y73.725 E33.07773
G1 X173.096 Y74.24 E33.11272
G1 X174.287 Y73.707 E33.18717
G1 X174.124 Y73.12 E33.22193
G1 X174.091 Y72.56 E33.25394
G1 X174.152 Y72.053 E33.28308
G1 X174.276 Y71.628 E33.30834
G1 X174.494 Y71.168 E33.33738
G1 X174.784 Y70.755 E33.36618
G1 F886.1 X174.815 Y70.701 E33.36979
G1 F808.7 X175.142 Y70.306 E33.40235
G1 F769.2 X175.559 Y70.04 E33.43537
G1 F820.3 X175.975 Y69.879 E33.46329
G1 F878.7 X176.524 Y69.739 E33.49641
G1 F900 X177.055 Y69.69 E33.52683
G1 X177.534 Y69.726 E33.55424
G1 X177.994 Y69.84 E33.58128
G1 X178.46 Y70.038 E33.61017
G1 X178.883 Y70.31 E33.63887
G1 X179.379 Y70.77 E33.67747
G1 X180.415 Y70.018 E33.75051
G1 X180.133 Y69.472 E33.78557
G1 X179.995 Y68.989 E33.81424
G1 X179.939 Y68.486 E33.84311
G1 X179.973 Y67.95 E33.87376
G1 X180.087 Y67.488 E33.90091
G1 X180.313 Y66.97 E33.93316
G1 X180.594 Y66.55 E33.96199
G1 X180.94 Y66.188 E33.99056
G1 X181.375 Y65.87 E34.02131
G1 X181.833 Y65.645 E34.05042
G1 X182.315 Y65.501 E34.07913
G1 X182.729 Y65.446 E34.10296
G1 X183.292 Y65.465 E34.1351
G1 X183.733 Y65.556 E34.16079
G1 X184.203 Y65.735 E34.18949
G1 X184.638 Y65.992 E34.21832
G1 X184.764 Y66.095 E34.2276
G1 X185.637 Y65.126 E34.30202
