;FLAVOR:Marlin
;TIME:3675
;Filament used: 6.39963m
;Layer height: 0.4
;MINX:50.098
;MINY:5.096
;MINZ:0.52
;MAXX:125.148
;MAXY:80.332
;MAXZ:15.72
;POSTPROCESSED
;Generated with Cura_SteamEngine 5.2.1
;
;

M82 ;absolute extrusion mode
M98 P0:/sys/startprint.g

G92 E0
G92 E0
G10
;LAYER_COUNT:39
;LAYER:0
M107
G0 F3600 X54.46 Y24.94 Z0.52
;TYPE:SKIRT
G11
G1 F450 X55.192 Y23.651 E0.08458
G1 X55.653 Y22.877 E0.13598
G1 X57.62 Y20.225 E0.32438
G1 X58.875 Y18.443 E0.44875
G1 X59.465 Y17.768 E0.4999
G1 X60.457 Y16.681 E0.58387
G1 X62.92 Y14.508 E0.77128
G1 X64.562 Y12.983 E0.89915
G1 X65.807 Y12.068 E0.98731
G1 X66.489 Y11.589 E1.03486
G1 X69.25 Y10.032 E1.21572
G1 X71.197 Y8.867 E1.34518
G1 X72.04 Y8.475 E1.39823
G1 X73.404 Y7.88 E1.48314
G1 X76.48 Y6.914 E1.6671
G1 X78.636 Y6.179 E1.79707
G1 X79.444 Y5.995 E1.84436
G1 X80.168 Y5.841 E1.88659
G1 X80.969 Y5.684 E1.93317
G1 X84.178 Y5.379 E2.11709
G1 X86.419 Y5.109 E2.24589
G1 X87.25 Y5.096 E2.29331
G1 X87.963 Y5.096 E2.33399
G1 X88.693 Y5.108 E2.37565
G1 X89.296 Y5.167 E2.41022
G1 X93.352 Y5.601 E2.64297
G1 X94.249 Y5.679 E2.69435
G1 X95.013 Y5.827 E2.73875
G1 X95.78 Y5.99 E2.78349
G1 X96.599 Y6.177 E2.83142
G1 X100.995 Y7.621 E3.09544
G1 X101.825 Y7.874 E3.14495
G1 X102.481 Y8.152 E3.1856
G1 X103.257 Y8.497 E3.23406
G1 X103.846 Y8.769 E3.27108
G1 X104.482 Y9.131 E3.31283
G1 X107.956 Y11.144 E3.54193
G1 X108.75 Y11.584 E3.59372
G1 X109.417 Y12.051 E3.64018
G1 X110.675 Y12.977 E3.72931
G1 X113.119 Y15.222 E3.91867
G1 X114.767 Y16.662 E4.04354
G1 X115.394 Y17.338 E4.09615
G1 X116.248 Y18.299 E4.16951
G1 X116.609 Y18.783 E4.20396
G1 X119.011 Y22.103 E4.43777
G1 X119.583 Y22.86 E4.49191
G1 X120.045 Y23.633 E4.54329
G1 X120.772 Y24.915 E4.62739
G1 X122.635 Y29.138 E4.89075
G1 X123.014 Y29.947 E4.94173
G1 X123.277 Y30.712 E4.98788
G1 X123.492 Y31.375 E5.02765
G1 X123.718 Y32.113 E5.07169
G1 X123.843 Y32.674 E5.10449
G1 X124.673 Y36.62 E5.33457
G1 X124.902 Y37.607 E5.39238
G1 X125.069 Y39.105 E5.47838
G1 X125.145 Y39.94 E5.52622
G1 X125.131 Y44.562 E5.78995
G1 X125.148 Y45.443 E5.84023
G1 X125.078 Y46.234 E5.88554
G1 X124.92 Y47.656 E5.96718
G1 X124.777 Y48.358 E6.00805
G1 X123.924 Y52.337 E6.24025
G1 X123.755 Y53.212 E6.2911
G1 X123.306 Y54.628 E6.37586
G1 X123.069 Y55.325 E6.41786
G1 X122.786 Y55.969 E6.458
G1 X121.15 Y59.628 E6.6867
G1 X120.79 Y60.48 E6.73947
G1 X120.381 Y61.212 E6.78732
G1 X119.614 Y62.523 E6.87398
G1 X117.582 Y65.264 E7.06867
G1 X116.369 Y66.989 E7.18899
G1 X115.809 Y67.63 E7.23756
G1 X114.789 Y68.747 E7.32387
G1 X112.349 Y70.901 E7.50958
G1 X110.767 Y72.368 E7.63269
G1 X110.134 Y72.864 E7.67857
G1 X109.296 Y73.471 E7.73761
G1 X108.745 Y73.848 E7.77571
G1 X107.202 Y74.709 E7.87653
G1 X104.752 Y76.138 E8.03836
G1 X104.003 Y76.587 E8.08819
G1 X103.257 Y76.932 E8.13509
G1 X101.849 Y77.547 E8.22275
G1 X98.763 Y78.515 E8.4073
G1 X96.622 Y79.247 E8.5364
G1 X95.789 Y79.438 E8.58517
G1 X94.307 Y79.742 E8.67149
G1 X91.056 Y80.051 E8.85782
G1 X88.831 Y80.319 E8.98569
G1 X87.992 Y80.332 E9.03357
G1 X86.464 Y80.321 E9.12076
G1 X81.88 Y79.825 E9.38384
G1 X80.989 Y79.749 E9.43487
G1 X80.196 Y79.594 E9.48097
G1 X79.466 Y79.439 E9.52355
G1 X78.647 Y79.252 E9.57149
G1 X74.25 Y77.808 E9.83556
G1 X73.42 Y77.555 E9.88507
G1 X72.765 Y77.277 E9.92567
G1 X71.418 Y76.668 E10.01002
G1 X70.736 Y76.282 E10.05473
G1 X67.296 Y74.289 E10.28157
G1 X66.657 Y73.936 E10.32323
G1 X66.118 Y73.588 E10.35984
G1 X64.989 Y72.77 E10.43939
G1 X64.437 Y72.329 E10.4797
G1 X63.241 Y71.221 E10.57273
G1 X60.475 Y68.763 E10.78386
G1 X59.837 Y68.075 E10.8374
G1 X58.996 Y67.127 E10.90971
G1 X58.592 Y66.581 E10.94846
G1 X56.167 Y63.234 E11.1843
G1 X55.654 Y62.554 E11.2329
G1 X54.863 Y61.208 E11.32198
G1 X54.533 Y60.616 E11.36065
G1 X54.248 Y59.985 E11.40016
G1 X52.605 Y56.28 E11.63142
G1 X52.234 Y55.487 E11.68137
G1 X51.961 Y54.693 E11.72928
G1 X51.497 Y53.229 E11.81691
G1 X50.815 Y49.872 E12.01237
G1 X50.345 Y47.815 E12.13276
G1 X50.182 Y46.369 E12.21579
G1 X50.113 Y45.613 E12.25911
G1 X50.108 Y44.967 E12.29597
G1 X50.114 Y40.821 E12.53253
G1 X50.098 Y39.981 E12.58047
G1 X50.173 Y39.145 E12.62836
G1 X50.248 Y38.444 E12.66859
G1 X50.354 Y37.576 E12.71848
G1 X51.305 Y33.172 E12.97556
G1 X51.478 Y32.27 E13.02797
G1 X51.737 Y31.428 E13.07823
G1 X51.948 Y30.778 E13.11723
G1 X52.182 Y30.094 E13.15848
G1 X52.448 Y29.485 E13.19639
G1 X54.102 Y25.785 E13.42765
G1 X54.392 Y25.101 E13.47004
G0 F405 X54.46 Y24.94
G0 F3600 X55.093 Y25.244
G1 F450 X55.793 Y24.009 E13.55104
G1 X56.231 Y23.274 E13.59986
G1 X58.169 Y20.661 E13.78548
G1 X59.423 Y18.88 E13.90977
G1 X59.982 Y18.24 E13.95825
G1 X60.949 Y17.181 E14.04008
G1 X63.384 Y15.031 E14.22542
G1 X65.006 Y13.526 E14.35168
G1 X66.209 Y12.641 E14.43689
G1 X66.867 Y12.179 E14.48277
G1 X69.64 Y10.614 E14.66445
G1 X71.533 Y9.482 E14.7903
G1 X72.32 Y9.116 E14.83982
G1 X73.646 Y8.537 E14.92238
G1 X76.719 Y7.573 E15.10615
G1 X78.824 Y6.855 E15.23305
G1 X79.59 Y6.679 E15.2779
G1 X80.303 Y6.528 E15.31948
G1 X81.069 Y6.378 E15.36402
G1 X84.246 Y6.076 E15.54611
G1 X86.467 Y5.809 E15.67375
G1 X87.261 Y5.796 E15.71906
G1 X87.952 Y5.796 E15.75849
G1 X88.682 Y5.808 E15.80015
G1 X89.228 Y5.864 E15.83147
G1 X93.3 Y6.3 E16.06514
G1 X94.16 Y6.374 E16.11439
G1 X94.868 Y6.512 E16.15555
G1 X95.624 Y6.673 E16.19965
G1 X96.312 Y6.83 E16.23992
G1 X96.847 Y7.001 E16.27196
G1 X100.765 Y8.282 E16.50717
G1 X101.573 Y8.528 E16.55536
G1 X102.243 Y8.812 E16.59688
G1 X102.932 Y9.118 E16.6399
G1 X103.552 Y9.405 E16.67888
G1 X104.135 Y9.739 E16.71722
G1 X107.64 Y11.77 E16.94836
G1 X108.389 Y12.186 E16.99724
G1 X109.002 Y12.614 E17.0399
G1 X110.231 Y13.518 E17.12696
G1 X112.66 Y15.75 E17.31518
G1 X114.277 Y17.163 E17.43771
G1 X114.871 Y17.803 E17.48753
G1 X115.725 Y18.764 E17.56088
G1 X116.047 Y19.201 E17.59186
G1 X118.427 Y22.491 E17.82355
G1 X119.001 Y23.251 E17.87789
G1 X119.436 Y23.979 E17.92628
G1 X120.147 Y25.234 E18.00858
G1 X121.987 Y29.403 E18.2686
G1 X122.363 Y30.207 E18.31924
G1 X122.611 Y30.929 E18.3628
G1 X122.823 Y31.58 E18.40187
G1 X123.079 Y32.416 E18.45176
G1 X123.988 Y36.764 E18.70521
G1 X124.21 Y37.724 E18.76143
G1 X124.371 Y39.168 E18.84434
G1 X124.444 Y39.98 E18.89085
G1 X124.431 Y44.511 E19.14939
G1 X124.448 Y45.413 E19.20086
G1 X124.383 Y46.157 E19.24348
G1 X124.225 Y47.579 E19.32511
G1 X124.102 Y48.17 E19.35956
G1 X123.24 Y52.19 E19.59415
G1 X123.076 Y53.038 E19.64343
G1 X122.643 Y54.403 E19.72514
G1 X122.406 Y55.1 E19.76715
G1 X122.153 Y55.67 E19.80273
G1 X120.505 Y59.356 E20.03311
G1 X120.162 Y60.166 E20.0833
G1 X119.777 Y60.858 E20.12849
G1 X119.028 Y62.139 E20.21316
G1 X117.02 Y64.847 E20.40552
G1 X115.817 Y66.557 E20.52481
G1 X115.292 Y67.158 E20.57035
G1 X114.297 Y68.248 E20.65456
G1 X111.862 Y70.397 E20.83986
G1 X110.307 Y71.839 E20.96087
G1 X109.628 Y72.369 E21.01002
G1 X108.901 Y72.893 E21.06115
G1 X108.37 Y73.256 E21.09785
G1 X106.827 Y74.117 E21.19867
G1 X104.425 Y75.518 E21.35734
G1 X103.681 Y75.965 E21.40686
G1 X103.025 Y76.269 E21.44811
G1 X101.602 Y76.891 E21.53673
G1 X98.576 Y77.84 E21.71768
G1 X96.432 Y78.572 E21.84695
G1 X95.648 Y78.752 E21.89284
G1 X94.202 Y79.049 E21.97707
G1 X90.988 Y79.354 E22.16128
G1 X88.783 Y79.619 E22.288
G1 X87.925 Y79.632 E22.33697
G1 X86.505 Y79.621 E22.41799
G1 X81.923 Y79.126 E22.68096
G1 X81.079 Y79.053 E22.72929
G1 X80.342 Y78.909 E22.77214
G1 X79.622 Y78.756 E22.81414
G1 X78.934 Y78.599 E22.8544
G1 X78.399 Y78.428 E22.88645
G1 X74.481 Y77.147 E23.12165
G1 X73.671 Y76.9 E23.16997
G1 X72.989 Y76.61 E23.21226
G1 X71.706 Y76.03 E23.2926
G1 X71.098 Y75.683 E23.33254
G1 X67.623 Y73.669 E23.56171
G1 X66.996 Y73.323 E23.60258
G1 X66.528 Y73.021 E23.63436
G1 X65.399 Y72.203 E23.71391
G1 X64.913 Y71.816 E23.74936
G1 X63.691 Y70.683 E23.84444
G1 X61.408 Y68.648 E24.01894
G1 X60.89 Y68.181 E24.05874
G1 X60.361 Y67.611 E24.10311
G1 X59.52 Y66.663 E24.17542
G1 X59.167 Y66.183 E24.20942
G1 X56.699 Y62.776 E24.44946
G1 X56.231 Y62.156 E24.49378
G1 X55.474 Y60.867 E24.57908
G1 X55.144 Y60.275 E24.61775
G1 X54.894 Y59.715 E24.65274
G1 X53.251 Y56.01 E24.884
G1 X52.884 Y55.224 E24.9335
G1 X52.647 Y54.538 E24.97491
G1 X52.174 Y53.047 E25.06416
G1 X51.506 Y49.755 E25.25583
G1 X51.037 Y47.704 E25.37587
G1 X50.873 Y46.241 E25.45987
G1 X50.81 Y45.549 E25.49952
G1 X50.808 Y44.984 E25.53176
G1 X50.814 Y40.87 E25.7665
G1 X50.798 Y40.011 E25.81552
G1 X50.869 Y39.219 E25.86089
G1 X50.942 Y38.529 E25.90048
G1 X51.043 Y37.7 E25.94814
G1 X51.992 Y33.302 E26.20485
G1 X52.156 Y32.449 E26.25442
G1 X52.403 Y31.644 E26.30246
G1 X52.611 Y31.004 E26.34086
G1 X52.845 Y30.32 E26.38211
G1 X53.091 Y29.763 E26.41685
G1 X54.748 Y26.056 E26.64854
G1 X55.025 Y25.405 E26.68891
G0 F405 X55.093 Y25.244
G10
;MESH:blade-hub-n300-flat.STL
G0 F3600 X57.487 Y29.595
G0 X61.329 Y40.035
;TYPE:WALL-OUTER
G11
G1 F900 X62.491 Y37.237 E26.86178
G1 X64.039 Y34.529 E27.03976
G1 X65.888 Y32.072 E27.21521
G1 X68.008 Y29.884 E27.38905
G1 X70.392 Y27.969 E27.56353
G1 X70.639 Y27.84 E27.57943
G1 X70.945 Y27.784 E27.59718
G1 X71.09 Y27.797 E27.60548
G1 X71.46 Y27.923 E27.62778
G1 X71.679 Y28.109 E27.64418
G1 X71.854 Y28.411 E27.66409
G1 X71.907 Y28.671 E27.67923
G1 X71.858 Y29.042 E27.70059
G1 X71.639 Y29.4 E27.72453
G1 X69.293 Y31.287 E27.89632
G1 X67.318 Y33.324 E28.05821
G1 X65.616 Y35.593 E28.22005
G1 X64.213 Y38.044 E28.38119
G1 X63.116 Y40.688 E28.54453
G1 X62.368 Y43.411 E28.70565
G1 X61.963 Y46.221 E28.86765
G1 X61.913 Y49.056 E29.02943
G1 X62.217 Y51.873 E29.1911
G1 X62.87 Y54.623 E29.35237
G1 X63.867 Y57.292 E29.51494
G1 X65.184 Y59.805 E29.67683
G1 X66.806 Y62.133 E29.83872
G1 X68.707 Y64.24 E30.00065
G1 X70.855 Y66.092 E30.16247
G1 X73.375 Y67.767 E30.33513
G1 F901.3 X73.594 Y68.079 E30.35685
G1 X73.674 Y68.288 E30.3696
G1 F900 X73.658 Y68.72 E30.39426
G1 X73.615 Y68.861 E30.40267
G1 X73.349 Y69.22 E30.42817
G1 X73.001 Y69.397 E30.45045
G1 F869 X72.584 Y69.446 E30.47526
G1 F807.7 X72.304 Y69.387 E30.49345
G1 F763.6 X71.798 Y69.082 E30.53318
G1 F819.2 X71.238 Y68.627 E30.57841
G1 F900 X69.685 Y67.591 E30.68493
G1 X68.177 Y66.29 E30.79857
G1 F785.5 X67.557 Y65.891 E30.84677
G1 F700.8 X67.137 Y65.478 E30.88994
G1 F790.5 X67.204 Y65.41 E30.89614
G1 F900 X65.304 Y63.299 E31.05819
G1 X63.557 Y60.789 E31.23268
G1 X62.114 Y58.036 E31.41004
G1 X61.156 Y55.473 E31.56616
G1 X61.056 Y55.207 E31.58237
G1 X60.342 Y52.196 E31.75894
G1 X60.014 Y49.163 E31.93301
G1 X60.067 Y46.079 E32.10901
G1 X60.503 Y43.034 E32.28452
G1 X61.283 Y40.203 E32.45207
G0 F810 X61.329 Y40.035
G0 F3600 X61.482 Y39.666
G10
G0 X61.022 Y39.474
G0 X58.95 Y43.622
G0 X57.42 Y44.049
G0 X56.509 Y42.965
G0 X56.491 Y41.49
G11
G0 X56.988 Y41.521
G1 F900 X57.109 Y39.623 E32.56059
G1 X57.491 Y37.613 E32.67733
G1 F786.5 X57.524 Y36.899 E32.724
G1 F701.6 X57.676 Y36.318 E32.76796
G1 F784.6 X57.979 Y35.697 E32.81319
G1 F892.4 X58.621 Y33.719 E32.93286
G1 F900 X59.933 Y30.917 E33.1094
G1 X61.592 Y28.297 E33.28634
G1 X63.523 Y25.952 E33.45967
G1 X65.551 Y24.037 E33.61882
G1 X65.786 Y23.819 E33.63711
G1 X68.273 Y22.005 E33.81275
G1 X70.942 Y20.526 E33.98686
G1 X73.785 Y19.39 E34.16155
G1 X76.794 Y18.604 E34.339
G1 X79.802 Y18.211 E34.51209
G1 X82.92 Y18.197 E34.69
G1 X85.975 Y18.57 E34.86561
G1 X88.935 Y19.312 E35.03973
G1 X91.797 Y20.427 E35.21499
G1 X92.095 Y20.647 E35.23612
G1 X92.267 Y20.907 E35.25391
G1 X92.344 Y21.212 E35.27186
G1 X92.321 Y21.52 E35.28948
G1 X92.125 Y21.907 E35.31424
G1 X91.773 Y22.166 E35.33917
G1 X91.499 Y22.237 E35.35532
G1 X91.152 Y22.209 E35.37519
G1 X88.342 Y21.123 E35.54708
G1 X85.611 Y20.437 E35.70775
G1 X82.787 Y20.094 E35.87006
G1 X79.953 Y20.106 E36.03177
G1 X77.141 Y20.475 E36.19359
G1 X74.407 Y21.188 E36.35481
G1 X71.76 Y22.244 E36.51742
G1 X69.275 Y23.62 E36.6795
G1 X66.989 Y25.292 E36.8411
G1 X64.923 Y27.241 E37.00316
G1 X63.117 Y29.431 E37.16513
G1 X61.603 Y31.827 E37.32685
G1 X60.398 Y34.392 E37.48855
G1 X59.517 Y37.114 E37.65179
G1 X58.994 Y39.884 E37.81264
G1 X58.804 Y42.87 E37.98336
G1 X58.644 Y43.247 E38.00673
G1 X58.528 Y43.385 E38.01702
G1 X58.163 Y43.617 E38.04169
G1 X57.976 Y43.655 E38.05258
G1 X57.531 Y43.604 E38.07814
G1 X57.206 Y43.394 E38.10022
G1 F870.2 X56.952 Y43.056 E38.12517
G1 F808.7 X56.866 Y42.784 E38.14328
G1 F767.4 X56.876 Y42.252 E38.17889
G1 F822.5 X56.988 Y41.521 E38.22507
G0 F3600 X57.013 Y41.122
G10
G0 X56.516 Y41.091
G0 X56.505 Y42.858
G11
G0 X56.063 Y42.82
G1 F808.7 X56 Y43.193 E38.24909
G1 F870.2 X55.834 Y43.734 E38.28248
G1 F900 X55.645 Y44.152 E38.30866
G1 X55.352 Y44.589 E38.33868
G1 X55.022 Y44.931 E38.3658
G1 X54.618 Y45.234 E38.39461
G1 X54.171 Y45.465 E38.42332
G1 X53.686 Y45.618 E38.45234
G1 X53.525 Y45.643 E38.46163
G1 X53.66 Y46.922 E38.53502
G1 X54.275 Y46.969 E38.57021
G1 X54.76 Y47.092 E38.59876
G1 X55.274 Y47.323 E38.63091
G1 X55.691 Y47.61 E38.6598
G1 X56.048 Y47.964 E38.68849
G1 X56.345 Y48.375 E38.71742
G1 X56.578 Y48.858 E38.74802
G1 X56.717 Y49.34 E38.77664
G1 X56.767 Y49.739 E38.79958
G1 X56.748 Y50.272 E38.83002
G1 X56.629 Y50.815 E38.86173
G1 X56.43 Y51.287 E38.89096
G1 X56.159 Y51.711 E38.91967
G1 X55.865 Y52.043 E38.94498
G1 X55.427 Y52.392 E38.97693
G1 X54.877 Y52.668 E39.01204
G1 X55.281 Y53.908 E39.08646
G1 X55.887 Y53.809 E39.12149
G1 X56.419 Y53.829 E39.15187
G1 X56.94 Y53.948 E39.18236
G1 X57.375 Y54.126 E39.20918
G1 X57.787 Y54.38 E39.2368
G1 X58.185 Y54.732 E39.26712
G1 X58.503 Y55.13 E39.29618
G1 X58.769 Y55.623 E39.32815
G1 X58.925 Y56.093 E39.3564
G1 X58.998 Y56.606 E39.38597
G1 X58.988 Y57.081 E39.41308
G1 X58.911 Y57.521 E39.43857
G1 X58.741 Y58.004 E39.46778
G1 X58.464 Y58.49 E39.4997
G1 X58.142 Y58.876 E39.52838
G1 X57.663 Y59.258 E39.56334
G1 X58.316 Y60.388 E39.63781
G1 X58.885 Y60.166 E39.67266
G1 X59.381 Y60.08 E39.70138
G1 X59.942 Y60.083 E39.73339
G1 X60.423 Y60.169 E39.76127
G1 X60.866 Y60.329 E39.78815
G1 X61.304 Y60.573 E39.81676
G1 X61.725 Y60.912 E39.8476
G1 X62.086 Y61.344 E39.87972
G1 X62.328 Y61.754 E39.90688
G1 X62.515 Y62.26 E39.93766
G1 X62.599 Y62.7 E39.96322
G1 X62.613 Y63.228 E39.99336
G1 X62.548 Y63.691 E40.02004
G1 X62.379 Y64.211 E40.05124
G1 X62.143 Y64.655 E40.07993
G1 X61.758 Y65.126 E40.11464
G1 X62.631 Y66.095 E40.18906
G1 X63.144 Y65.758 E40.22408
G1 X63.605 Y65.573 E40.25242
G1 X64.139 Y65.46 E40.28357
G1 X64.667 Y65.447 E40.3137
G1 X65.109 Y65.507 E40.33915
G1 X65.644 Y65.677 E40.37118
G1 X66.094 Y65.914 E40.4002
G1 X66.47 Y66.203 E40.42726
G1 F790.5 X66.531 Y66.128 E40.43354
G1 F700.8 X66.911 Y66.521 E40.4736
G1 F766.4 X67.115 Y66.989 E40.50781
G1 F875 X67.3 Y67.467 E40.53789
G1 F900 X67.415 Y67.919 E40.5645
G1 X67.457 Y68.422 E40.5933
G1 X67.412 Y68.931 E40.62246
G1 X67.282 Y69.418 E40.65122
G1 X67.061 Y69.902 E40.68158
G1 X66.98 Y70.019 E40.6897
G1 X68.037 Y70.783 E40.76412
G1 X68.468 Y70.345 E40.79918
G1 X68.883 Y70.067 E40.82768
G1 X69.348 Y69.858 E40.85677
G1 X69.832 Y69.732 E40.88531
G1 X70.34 Y69.69 E40.91439
G1 X70.845 Y69.734 E40.94331
G1 F819.2 X71.391 Y69.812 E40.97789
G1 F763.6 X71.934 Y70.099 E41.01919
G1 F807.7 X72.225 Y70.342 E41.04329
G1 F869 X72.611 Y70.754 E41.07666
G1 F900 X72.876 Y71.124 E41.10262
G1 X73.101 Y71.58 E41.13164
G1 X73.243 Y72.055 E41.15993
G1 X73.304 Y72.558 E41.18884
G1 X73.278 Y73.068 E41.21798
G1 X73.109 Y73.708 E41.25574
G1 X74.299 Y74.24 E41.33012
G1 X74.373 Y74.094 E41.33946
G1 X74.669 Y73.68 E41.3685
G1 X74.98 Y73.365 E41.39376
G1 X75.387 Y73.067 E41.42254
G1 X75.869 Y72.828 E41.45324
G1 X76.41 Y72.677 E41.48529
G1 X76.83 Y72.632 E41.50939
G1 X77.368 Y72.659 E41.54012
G1 X77.882 Y72.786 E41.57033
G1 X78.305 Y72.962 E41.59648
G1 X78.732 Y73.232 E41.6253
G1 X79.14 Y73.608 E41.65696
G1 X79.438 Y73.994 E41.68478
G1 X79.657 Y74.404 E41.71131
G1 X79.836 Y74.939 E41.7435
G1 X79.902 Y75.382 E41.76905
G1 X79.894 Y76.053 E41.80734
G1 X81.146 Y76.32 E41.88038
G1 X81.363 Y75.747 E41.91535
G1 X81.646 Y75.296 E41.94573
G1 X82.01 Y74.906 E41.97617
G1 X82.381 Y74.618 E42.00296
G1 X82.832 Y74.378 E42.03211
G1 X83.369 Y74.203 E42.06434
G1 X83.786 Y74.142 E42.08839
G1 X84.288 Y74.148 E42.11703
G1 X84.785 Y74.236 E42.14583
G1 X85.265 Y74.412 E42.175
G1 X85.7 Y74.662 E42.20363
G1 X86.093 Y74.986 E42.23269
G1 X86.422 Y75.372 E42.26163
G1 X86.679 Y75.8 E42.29012
