;FLAVOR:Marlin
;TIME:3671
;Filament used: 6.39815m
;Layer height: 0.4
;MINX:50.097
;MINY:74.826
;MINZ:0.52
;MAXX:125.147
;MAXY:150.062
;MAXZ:15.72
;POSTPROCESSED
;Generated with Cura_SteamEngine 5.2.1
;
;

M82 ;absolute extrusion mode
M98 P0:/sys/startprint.g

G92 E0
G92 E0
G10
;LAYER_COUNT:39
;LAYER:0
M107
G0 F3600 X64.55 Y82.724 Z0.52
;TYPE:SKIRT
G11
G1 F450 X65.803 Y81.799 E0.08887
G1 X66.478 Y81.324 E0.13596
G1 X69.269 Y79.751 E0.31876
G1 X71.242 Y78.572 E0.44991
G1 X72.647 Y77.934 E0.53795
G1 X73.282 Y77.662 E0.57737
G1 X73.934 Y77.446 E0.61656
G1 X77.798 Y76.197 E0.84827
G1 X78.625 Y75.911 E0.8982
G1 X79.421 Y75.729 E0.94479
G1 X80.168 Y75.57 E0.98837
G1 X80.968 Y75.413 E1.03488
G1 X84.186 Y75.107 E1.21933
G1 X86.412 Y74.839 E1.34726
G1 X87.254 Y74.826 E1.3953
G1 X88.782 Y74.837 E1.48249
G1 X93.362 Y75.333 E1.74535
G1 X94.287 Y75.412 E1.79832
G1 X95.78 Y75.719 E1.88529
G1 X96.599 Y75.906 E1.93323
G1 X100.995 Y77.35 E2.19724
G1 X101.821 Y77.601 E2.2465
G1 X102.493 Y77.887 E2.28817
G1 X103.847 Y78.501 E2.373
G1 X104.447 Y78.838 E2.41227
G1 X107.942 Y80.866 E2.64283
G1 X108.758 Y81.318 E2.69605
G1 X109.418 Y81.78 E2.74202
G1 X110.545 Y82.61 E2.82188
G1 X111.086 Y83.088 E2.86308
G1 X114.054 Y85.77 E3.09133
G1 X114.751 Y86.374 E3.14395
G1 X115.322 Y86.987 E3.19175
G1 X115.815 Y87.536 E3.23385
G1 X116.278 Y88.067 E3.27405
G1 X116.657 Y88.581 E3.31049
G1 X119.014 Y91.836 E3.5398
G1 X119.578 Y92.584 E3.59325
G1 X119.988 Y93.266 E3.63865
G1 X120.698 Y94.514 E3.72058
G1 X120.975 Y95.118 E3.75849
G1 X122.638 Y98.871 E3.99272
G1 X123.012 Y99.671 E4.04311
G1 X123.285 Y100.466 E4.09107
G1 X123.496 Y101.118 E4.13017
G1 X123.759 Y101.972 E4.18116
G1 X124.393 Y105.109 E4.36377
G1 X124.901 Y107.334 E4.49399
G1 X125.008 Y108.248 E4.5465
G1 X125.132 Y109.526 E4.61976
G1 X125.139 Y110.133 E4.6544
G1 X125.131 Y114.324 E4.89353
G1 X125.147 Y115.185 E4.94267
G1 X125.086 Y115.89 E4.98305
G1 X124.92 Y117.385 E5.06887
G1 X124.777 Y118.087 E5.10975
G1 X123.924 Y122.066 E5.34194
G1 X123.754 Y122.947 E5.39314
G1 X123.315 Y124.329 E5.47588
G1 X123.021 Y125.193 E5.52795
G1 X121.201 Y129.241 E5.7812
G1 X120.759 Y130.279 E5.84557
G1 X120.025 Y131.559 E5.92976
G1 X119.604 Y132.262 E5.97652
G1 X116.942 Y135.902 E6.23383
G1 X116.394 Y136.685 E6.28836
G1 X115.83 Y137.336 E6.3375
G1 X114.786 Y138.481 E6.42592
G1 X112.316 Y140.66 E6.61385
G1 X110.757 Y142.106 E6.73518
G1 X110.045 Y142.66 E6.78666
G1 X109.39 Y143.135 E6.83282
G1 X108.746 Y143.577 E6.87739
G1 X107.736 Y144.149 E6.94362
G1 X107.013 Y144.546 E6.99068
G1 X104.709 Y145.892 E7.14294
G1 X104.03 Y146.303 E7.18822
G1 X103.224 Y146.676 E7.2389
G1 X101.985 Y147.217 E7.31604
G1 X101.291 Y147.448 E7.35778
G1 X98.661 Y148.279 E7.51515
G1 X96.606 Y148.981 E7.63906
G1 X95.12 Y149.309 E7.72589
G1 X94.423 Y149.446 E7.76642
G1 X93.816 Y149.515 E7.80128
G1 X89.605 Y149.952 E8.04284
G1 X88.84 Y150.048 E8.08684
G1 X87.993 Y150.062 E8.13517
G1 X86.465 Y150.051 E8.22236
G1 X81.88 Y149.555 E8.4855
G1 X80.985 Y149.478 E8.53676
G1 X80.181 Y149.321 E8.5835
G1 X79.421 Y149.159 E8.62784
G1 X78.641 Y148.979 E8.67351
G1 X75.605 Y147.96 E8.85624
G1 X73.433 Y147.29 E8.98593
G1 X72.631 Y146.948 E9.03568
G1 X71.249 Y146.32 E9.1223
G1 X68.377 Y144.624 E9.31261
G1 X66.418 Y143.531 E9.44061
G1 X65.579 Y142.931 E9.49946
G1 X64.904 Y142.434 E9.54729
G1 X64.424 Y142.048 E9.58244
G1 X63.204 Y140.918 E9.67732
G1 X60.91 Y138.871 E9.85275
G1 X60.376 Y138.385 E9.89395
G1 X59.858 Y137.828 E9.93735
G1 X58.985 Y136.842 E10.01249
G1 X58.589 Y136.307 E10.05047
G1 X56.102 Y132.875 E10.29231
G1 X55.656 Y132.285 E10.33451
G1 X55.222 Y131.559 E10.38277
G1 X54.547 Y130.372 E10.46068
G1 X54.234 Y129.683 E10.50386
G1 X52.605 Y126.008 E10.73323
G1 X52.224 Y125.197 E10.78436
G1 X51.771 Y123.836 E10.8662
G1 X51.529 Y123.05 E10.91313
G1 X51.402 Y122.481 E10.94639
G1 X50.561 Y118.483 E11.17951
G1 X50.345 Y117.549 E11.23421
G1 X50.177 Y116.053 E11.3201
G1 X50.099 Y115.188 E11.36966
G1 X50.131 Y111.843 E11.56053
G1 X50.097 Y109.694 E11.68316
G1 X50.236 Y108.272 E11.76469
G1 X50.35 Y107.32 E11.81939
G1 X51.056 Y104.16 E12.00415
G1 X51.491 Y101.948 E12.13278
G1 X51.936 Y100.544 E12.21681
G1 X52.177 Y99.835 E12.25954
G1 X52.429 Y99.258 E12.29547
G1 X54.117 Y95.483 E12.53142
G1 X54.458 Y94.677 E12.58135
G1 X54.893 Y93.899 E12.63221
G1 X55.64 Y92.627 E12.71638
G1 X58.311 Y88.977 E12.97445
G1 X58.857 Y88.196 E13.02883
G1 X59.441 Y87.524 E13.07963
G1 X60.467 Y86.403 E13.16634
G1 X62.923 Y84.234 E13.3533
G1 X64.422 Y82.843 E13.46998
G0 F405 X64.55 Y82.724
G0 F3600 X64.995 Y83.266
G1 F450 X66.206 Y82.371 E13.5559
G1 X66.852 Y81.917 E13.60095
G1 X69.628 Y80.352 E13.78279
G1 X71.572 Y79.19 E13.91201
G1 X72.876 Y78.598 E13.99373
G1 X73.558 Y78.306 E14.03606
G1 X74.144 Y78.114 E14.07124
G1 X78.007 Y76.865 E14.30289
G1 X78.814 Y76.585 E14.35163
G1 X79.567 Y76.413 E14.39571
G1 X80.303 Y76.257 E14.43863
G1 X81.069 Y76.107 E14.48317
G1 X84.254 Y75.804 E14.66572
G1 X86.459 Y75.539 E14.79244
G1 X87.321 Y75.526 E14.84163
G1 X88.742 Y75.537 E14.92272
G1 X93.319 Y76.032 E15.1854
G1 X94.191 Y76.107 E15.23534
G1 X95.624 Y76.402 E15.31881
G1 X96.312 Y76.559 E15.35908
G1 X96.847 Y76.73 E15.39113
G1 X100.765 Y78.011 E15.62633
G1 X101.579 Y78.259 E15.67488
G1 X102.271 Y78.554 E15.71781
G1 X103.558 Y79.138 E15.79845
G1 X104.062 Y79.424 E15.83151
G1 X107.604 Y81.478 E16.06514
G1 X108.389 Y81.913 E16.11635
G1 X108.955 Y82.309 E16.15576
G1 X110.13 Y83.174 E16.23901
G1 X110.605 Y83.597 E16.2753
G1 X113.596 Y86.3 E16.50533
G1 X114.27 Y86.884 E16.55622
G1 X114.801 Y87.456 E16.60075
G1 X115.287 Y87.996 E16.6422
G1 X115.75 Y88.527 E16.6824
G1 X116.074 Y88.968 E16.71363
G1 X118.464 Y92.27 E16.94621
G1 X119.006 Y92.989 E16.99758
G1 X119.38 Y93.612 E17.03904
G1 X120.09 Y94.86 E17.12097
G1 X120.345 Y95.426 E17.15639
G1 X121.998 Y99.155 E17.38913
G1 X122.363 Y99.936 E17.43832
G1 X122.619 Y100.682 E17.48332
G1 X122.827 Y101.324 E17.52183
G1 X123.08 Y102.145 E17.57085
G1 X123.71 Y105.264 E17.75241
G1 X124.211 Y107.459 E17.88087
G1 X124.311 Y108.316 E17.9301
G1 X124.435 Y109.594 E18.00337
G1 X124.439 Y110.131 E18.03401
G1 X124.431 Y114.274 E18.2704
G1 X124.447 Y115.147 E18.32022
G1 X124.383 Y115.886 E18.36255
G1 X124.225 Y117.308 E18.44419
G1 X124.102 Y117.899 E18.47863
G1 X123.24 Y121.919 E18.71322
G1 X123.076 Y122.767 E18.7625
G1 X122.652 Y124.104 E18.84253
G1 X122.37 Y124.933 E18.8925
G1 X120.562 Y128.954 E19.14406
G1 X120.134 Y129.961 E19.20649
G1 X119.424 Y131.199 E19.28792
G1 X119.069 Y131.792 E19.32736
G1 X118.763 Y132.219 E19.35733
G1 X116.341 Y135.539 E19.59182
G1 X115.835 Y136.263 E19.64222
G1 X115.312 Y136.865 E19.68772
G1 X114.294 Y137.982 E19.77395
G1 X111.85 Y140.138 E19.95991
G1 X110.308 Y141.568 E20.0799
G1 X109.702 Y142.042 E20.1238
G1 X108.927 Y142.605 E20.17846
G1 X108.374 Y142.984 E20.21671
G1 X107.399 Y143.535 E20.28061
G1 X106.694 Y143.922 E20.3265
G1 X104.317 Y145.311 E20.48359
G1 X103.701 Y145.684 E20.52468
G1 X102.944 Y146.035 E20.57229
G1 X101.595 Y146.624 E20.65628
G1 X98.445 Y147.614 E20.84468
G1 X96.417 Y148.306 E20.96695
G1 X95.04 Y148.611 E21.04742
G1 X94.288 Y148.759 E21.09115
G1 X93.697 Y148.823 E21.12507
G1 X89.576 Y149.251 E21.36147
G1 X88.795 Y149.349 E21.40639
G1 X87.926 Y149.362 E21.45598
G1 X86.506 Y149.351 E21.537
G1 X81.923 Y148.856 E21.80002
G1 X81.078 Y148.783 E21.84842
G1 X80.326 Y148.636 E21.89214
G1 X79.578 Y148.477 E21.93577
G1 X78.828 Y148.304 E21.97969
G1 X75.801 Y147.288 E22.16187
G1 X73.677 Y146.633 E22.2887
G1 X72.92 Y146.31 E22.33566
G1 X71.568 Y145.695 E22.42041
G1 X68.723 Y144.016 E22.6089
G1 X66.799 Y142.942 E22.73463
G1 X65.993 Y142.367 E22.79112
G1 X65.333 Y141.881 E22.83789
G1 X64.9 Y141.534 E22.86955
G1 X63.696 Y140.419 E22.96318
G1 X61.376 Y138.349 E23.14059
G1 X60.888 Y137.909 E23.17808
G1 X60.421 Y137.407 E23.2172
G1 X59.51 Y136.378 E23.29562
G1 X59.156 Y135.896 E23.32974
G1 X56.68 Y132.48 E23.57047
G1 X56.237 Y131.894 E23.61239
G1 X55.83 Y131.213 E23.65766
G1 X55.155 Y130.026 E23.73557
G1 X54.879 Y129.412 E23.77398
G1 X53.253 Y125.744 E24.00291
G1 X52.876 Y124.941 E24.05353
G1 X52.435 Y123.615 E24.13326
G1 X52.166 Y122.741 E24.18544
G1 X51.246 Y118.339 E24.44204
G1 X51.037 Y117.435 E24.49498
G1 X50.874 Y115.991 E24.5779
G1 X50.8 Y115.163 E24.62533
G1 X50.831 Y111.856 E24.81403
G1 X50.798 Y109.724 E24.9357
G1 X50.939 Y108.286 E25.01814
G1 X51.042 Y107.437 E25.06694
G1 X51.746 Y104.281 E25.25144
G1 X52.169 Y102.129 E25.37658
G1 X52.599 Y100.77 E25.45791
G1 X52.84 Y100.061 E25.50064
G1 X53.073 Y99.533 E25.53357
G1 X54.762 Y95.755 E25.7697
G1 X55.088 Y94.983 E25.81752
G1 X55.496 Y94.253 E25.86523
G1 X56.222 Y93.017 E25.94702
G1 X58.86 Y89.413 E26.20187
G1 X59.407 Y88.63 E26.25636
G1 X59.957 Y87.997 E26.30421
G1 X60.958 Y86.903 E26.38882
G1 X63.39 Y84.755 E26.57396
G1 X64.867 Y83.385 E26.68891
G0 F405 X64.995 Y83.266
G10
;MESH:blade-hub-n300-flat.STL
G0 F3600 X67.879 Y86.698
G0 X67.308 Y87.67
;TYPE:WALL-OUTER
G11
G1 F900 X67.11 Y88.136 E26.7178
G1 X66.839 Y88.559 E26.74647
G1 X66.514 Y88.915 E26.77397
G1 X66.069 Y89.259 E26.80606
G1 X65.639 Y89.484 E26.83375
G1 X65.137 Y89.645 E26.86383
G1 X64.629 Y89.715 E26.89309
G1 X64.101 Y89.693 E26.92325
G1 X63.662 Y89.603 E26.94882
G1 X63.191 Y89.423 E26.97759
G1 X62.615 Y89.08 E27.01584
G1 X61.757 Y90.032 E27.08897
G1 X62.145 Y90.505 E27.12387
G1 X62.38 Y90.95 E27.15259
G1 X62.538 Y91.429 E27.18137
G1 X62.617 Y91.973 E27.21273
G1 X62.595 Y92.492 E27.24237
G1 X62.506 Y92.933 E27.26804
G1 X62.327 Y93.404 E27.29679
G1 X62.018 Y93.91 E27.33062
G1 X61.707 Y94.263 E27.35747
G1 X61.302 Y94.586 E27.38702
G1 X60.837 Y94.841 E27.41728
G1 X60.386 Y94.998 E27.44453
G1 X59.942 Y95.075 E27.47024
G1 X59.381 Y95.079 E27.50225
G1 X58.937 Y95.005 E27.52794
G1 X58.307 Y94.792 E27.56588
G1 X57.665 Y95.901 E27.639
G1 X58.142 Y96.282 E27.67383
G1 X58.496 Y96.715 E27.70575
G1 X58.717 Y97.102 E27.73117
G1 X58.906 Y97.606 E27.76189
G1 X58.991 Y98.107 E27.79088
G1 X58.997 Y98.58 E27.81787
G1 F901.3 X58.904 Y99.141 E27.85027
G1 X58.735 Y99.613 E27.87884
G1 F900 X58.514 Y100.015 E27.90501
G1 X58.167 Y100.447 E27.93663
G1 X57.787 Y100.778 E27.96539
G1 X57.35 Y101.043 E27.99455
G1 X56.918 Y101.218 E28.02114
G1 X56.389 Y101.33 E28.05199
G1 X55.883 Y101.348 E28.08088
G1 X55.281 Y101.25 E28.11569
G1 X54.877 Y102.49 E28.1901
G1 X55.427 Y102.766 E28.22521
G1 X55.822 Y103.076 E28.25386
G1 X56.159 Y103.447 E28.28246
G1 X56.433 Y103.877 E28.31155
G1 X56.636 Y104.367 E28.34182
G1 X56.745 Y104.867 E28.37102
G1 F858.3 X56.799 Y105.401 E28.40313
G1 F758.1 X56.807 Y105.855 E28.43388
G1 F701.6 X56.657 Y106.384 E28.47413
G1 F765.5 X56.366 Y106.791 E28.5077
G1 F872.6 X56.048 Y107.195 E28.53796
G1 F900 X55.668 Y107.57 E28.56842
G1 X55.222 Y107.864 E28.5989
G1 X54.814 Y108.047 E28.62441
G1 X54.27 Y108.19 E28.65651
G1 X53.66 Y108.236 E28.69141
G1 X53.525 Y109.515 E28.76479
G1 X54.117 Y109.672 E28.79974
G1 X54.596 Y109.906 E28.83016
G1 X55.022 Y110.227 E28.86059
G1 X55.333 Y110.547 E28.88606
G1 X55.635 Y110.989 E28.9166
G1 F887.3 X55.872 Y111.504 E28.94941
G1 F811.9 X56.046 Y111.989 E28.982
G1 F767.4 X56.063 Y112.551 E29.01963
G1 F808.7 X56 Y112.923 E29.04359
G1 F870.2 X55.834 Y113.463 E29.07693
G1 F900 X55.646 Y113.88 E29.10303
G1 X55.352 Y114.318 E29.13313
G1 X55.022 Y114.66 E29.16024
G1 X54.618 Y114.964 E29.18909
G1 X54.111 Y115.218 E29.22145
G1 X53.525 Y115.372 E29.25602
G1 X53.662 Y116.669 E29.33044
G1 X54.275 Y116.698 E29.36545
G1 X54.76 Y116.822 E29.39402
G1 X55.223 Y117.024 E29.42284
G1 X55.665 Y117.318 E29.45313
G1 X56.048 Y117.693 E29.48371
G1 X56.345 Y118.104 E29.51265
G1 X56.578 Y118.587 E29.54325
G1 X56.717 Y119.069 E29.57187
G1 X56.767 Y119.468 E29.59481
G1 X56.748 Y120.001 E29.62525
G1 X56.629 Y120.544 E29.65696
G1 X56.433 Y121.011 E29.68586
G1 X56.192 Y121.396 E29.71178
G1 X55.864 Y121.773 E29.74029
G1 X55.427 Y122.121 E29.77217
G1 X54.877 Y122.397 E29.80728
G1 X55.281 Y123.638 E29.88175
G1 X55.887 Y123.539 E29.91678
G1 X56.384 Y123.558 E29.94516
G1 X56.872 Y123.658 E29.97358
G1 X57.375 Y123.855 E30.00441
G1 X57.813 Y124.125 E30.03377
G1 X58.227 Y124.505 E30.06583
G1 X58.535 Y124.909 E30.09482
G1 X58.769 Y125.352 E30.1234
G1 X58.925 Y125.822 E30.15166
G1 X58.998 Y126.336 E30.18128
G1 X58.988 Y126.81 E30.20833
G1 X58.895 Y127.309 E30.2373
G1 X58.717 Y127.786 E30.26635
G1 X58.464 Y128.219 E30.29496
G1 X58.136 Y128.611 E30.32413
G1 X57.664 Y128.987 E30.35856
G1 X58.318 Y130.116 E30.433
G1 X58.886 Y129.895 E30.46778
G1 X59.382 Y129.809 E30.4965
G1 X59.884 Y129.807 E30.52515
G1 X60.423 Y129.899 E30.55635
G1 X60.921 Y130.084 E30.58666
G1 X61.352 Y130.336 E30.61515
G1 X61.7 Y130.62 E30.64078
G1 X62.051 Y131.025 E30.67136
G1 X62.328 Y131.484 E30.70195
G1 X62.515 Y131.989 E30.73267
G1 X62.599 Y132.429 E30.75823
G1 X62.613 Y132.958 E30.78843
G1 X62.548 Y133.421 E30.8151
G1 X62.379 Y133.94 E30.84625
G1 X62.142 Y134.385 E30.87502
G1 X61.756 Y134.855 E30.90972
G1 X62.631 Y135.824 E30.98421
G1 X63.143 Y135.487 E31.01919
G1 X63.662 Y135.285 E31.05097
G1 X64.139 Y135.189 E31.07873
G1 X64.667 Y135.176 E31.10886
G1 X65.109 Y135.236 E31.13432
G1 X65.644 Y135.406 E31.16635
G1 X66.094 Y135.643 E31.19537
G1 X66.47 Y135.932 E31.22242
G1 F790.5 X66.531 Y135.857 E31.22871
G1 F700.8 X66.911 Y136.25 E31.26877
G1 F766.4 X67.115 Y136.718 E31.30297
G1 F875 X67.127 Y136.782 E31.30679
G1 F900 X67.318 Y137.248 E31.33553
G1 X67.416 Y137.649 E31.35908
G1 X67.457 Y138.152 E31.38788
G1 X67.412 Y138.66 E31.41698
G1 X67.282 Y139.147 E31.44574
G1 X67.062 Y139.631 E31.47608
G1 X66.98 Y139.748 E31.48423
G1 X68.037 Y140.512 E31.55864
G1 X68.468 Y140.074 E31.59371
G1 X68.883 Y139.796 E31.62221
G1 X69.343 Y139.589 E31.65099
G1 X69.892 Y139.452 E31.68327
G1 X70.339 Y139.419 E31.70885
G1 X70.846 Y139.464 E31.73789
G1 F819.2 X71.392 Y139.542 E31.77246
G1 F768.3 X71.871 Y139.79 E31.80852
G1 F820.3 X72.221 Y140.078 E31.83689
G1 F878.7 X72.611 Y140.483 E31.86975
G1 F900 X72.876 Y140.853 E31.89572
G1 X73.101 Y141.309 E31.92473
G1 X73.243 Y141.784 E31.95302
G1 X73.304 Y142.289 E31.98205
G1 X73.278 Y142.797 E32.01107
G1 X73.169 Y143.285 E32.0396
G1 X73.109 Y143.437 E32.04893
G1 X74.299 Y143.969 E32.1233
G1 X74.634 Y143.452 E32.15845
G1 X74.98 Y143.095 E32.18682
G1 X75.387 Y142.796 E32.21564
G1 X75.869 Y142.557 E32.24633
G1 X76.41 Y142.406 E32.27838
G1 X76.83 Y142.361 E32.30248
G1 X77.338 Y142.387 E32.33151
G1 X77.823 Y142.494 E32.35985
G1 X78.299 Y142.69 E32.38922
G1 X78.732 Y142.961 E32.41836
G1 X79.142 Y143.339 E32.45018
G1 X79.414 Y143.688 E32.47543
G1 X79.657 Y144.134 E32.50441
G1 X79.836 Y144.668 E32.53655
G1 X79.902 Y145.112 E32.56216
G1 X79.894 Y145.782 E32.60039
G1 X81.146 Y146.05 E32.67345
G1 X81.363 Y145.477 E32.70841
G1 X81.63 Y145.05 E32.73714
G1 X82.01 Y144.635 E32.76925
G1 X82.381 Y144.347 E32.79605
G1 X82.832 Y144.107 E32.8252
G1 X83.369 Y143.932 E32.85742
G1 X83.786 Y143.871 E32.88147
G1 X84.288 Y143.877 E32.91012
G1 X84.785 Y143.965 E32.93892
G1 X85.266 Y144.142 E32.96816
G1 X85.699 Y144.39 E32.99663
G1 X86.093 Y144.715 E33.02578
G1 X86.422 Y145.101 E33.05471
G1 X86.679 Y145.529 E33.0832
G1 X86.878 Y146.054 E33.11524
G1 X86.97 Y146.662 E33.15032
G1 X88.276 Y146.662 E33.22484
G1 X88.368 Y146.056 E33.25981
G1 X88.567 Y145.529 E33.29196
G1 X88.824 Y145.101 E33.32044
G1 X89.153 Y144.714 E33.34943
G1 X89.548 Y144.389 E33.37861
G1 X89.953 Y144.155 E33.4053
G1 F901.3 X90.459 Y143.967 E33.43606
G1 X90.894 Y143.883 E33.4613
G1 F900 X91.463 Y143.871 E33.49377
G1 F901.3 X91.963 Y143.953 E33.52264
G1 X92.442 Y144.118 E33.55151
G1 F900 X92.886 Y144.361 E33.58039
G1 X93.253 Y144.648 E33.60697
G1 X93.601 Y145.025 E33.63625
G1 X93.885 Y145.482 E33.66695
G1 X94.117 Y146.045 E33.70169
G1 X95.352 Y145.782 E33.77374
G1 X95.344 Y145.114 E33.81186
G1 X95.409 Y144.671 E33.8374
G1 X95.579 Y144.155 E33.8684
G1 X95.797 Y143.742 E33.89505
G1 X96.104 Y143.339 E33.92396
G1 X96.473 Y142.994 E33.95278
G1 X96.893 Y142.718 E33.98146
G1 X97.389 Y142.505 E34.01226
G1 F791.5 X97.357 Y142.414 E34.01852
G1 F703.9 X97.805 Y142.303 E34.05219
G1 F778.7 X98.354 Y142.35 E34.08852
G1 F887.3 X98.864 Y142.411 E34.11825
G1 F900 X99.348 Y142.547 E34.14693
G1 X99.86 Y142.796 E34.17942
