;FLAVOR:Marlin
;TIME:3667
;Filament used: 6.39625m
;Layer height: 0.4
;MINX:3.105
;MINY:45.121
;MINZ:0.52
;MAXX:78.154
;MAXY:120.357
;MAXZ:15.72
;POSTPROCESSED
;Generated with Cura_SteamEngine 5.2.1
;
;

M82 ;absolute extrusion mode
M98 P0:/sys/startprint.g

G92 E0
G92 E0
G10
;LAYER_COUNT:39
;LAYER:0
M107
G0 F3600 X24.222 Y48.881 Z0.52
;TYPE:SKIRT
G11
G1 F450 X24.888 Y48.571 E0.04192
G1 X26.399 Y47.909 E0.13604
G1 X30.619 Y46.556 E0.3889
G1 X31.629 Y46.209 E0.44984
G1 X32.416 Y46.027 E0.49593
G1 X33.179 Y45.866 E0.54042
G1 X33.98 Y45.709 E0.587
G1 X37.211 Y45.401 E0.77219
G1 X39.432 Y45.134 E0.89983
G1 X40.256 Y45.121 E0.94685
G1 X40.966 Y45.121 E0.98736
G1 X41.677 Y45.132 E1.02794
G1 X42.322 Y45.195 E1.06492
G1 X46.378 Y45.629 E1.29767
G1 X47.293 Y45.71 E1.35008
G1 X48.022 Y45.853 E1.39247
G1 X48.786 Y46.015 E1.43703
G1 X49.47 Y46.171 E1.47706
G1 X50.053 Y46.355 E1.51194
G1 X53.989 Y47.641 E1.74821
G1 X54.82 Y47.895 E1.79779
G1 X55.534 Y48.197 E1.84203
G1 X56.224 Y48.504 E1.88512
G1 X57.016 Y48.871 E1.93492
G1 X59.85 Y50.545 E2.12273
G1 X61.759 Y51.608 E2.2474
G1 X62.46 Y52.101 E2.2963
G1 X63.004 Y52.496 E2.33466
G1 X63.693 Y53.012 E2.38378
G1 X66.092 Y55.216 E2.56966
G1 X67.767 Y56.679 E2.69656
G1 X68.401 Y57.363 E2.74977
G1 X69.255 Y58.324 E2.82313
G1 X69.665 Y58.88 E2.86255
G1 X72.107 Y62.25 E3.10001
G1 X72.606 Y62.91 E3.14722
G1 X73.387 Y64.241 E3.23528
G1 X73.716 Y64.829 E3.27372
G1 X74.006 Y65.473 E3.31402
G1 X75.102 Y67.991 E3.47071
G1 X76.032 Y69.994 E3.59672
G1 X76.503 Y71.412 E3.68198
G1 X76.722 Y72.123 E3.72443
G1 X76.854 Y72.719 E3.75926
G1 X77.681 Y76.653 E3.98863
G1 X77.908 Y77.633 E4.04603
G1 X78.075 Y79.13 E4.13198
G1 X78.151 Y79.965 E4.17982
G1 X78.137 Y84.587 E4.44354
G1 X78.154 Y85.468 E4.49382
G1 X78.084 Y86.26 E4.53919
G1 X77.927 Y87.669 E4.62008
G1 X77.797 Y88.321 E4.65802
G1 X76.94 Y92.317 E4.89121
G1 X76.763 Y93.235 E4.94455
G1 X76.313 Y94.653 E5.02944
G1 X76.029 Y95.489 E5.07982
G1 X74.68 Y98.435 E5.2647
G1 X73.79 Y100.519 E5.394
G1 X73.06 Y101.806 E5.47842
G1 X72.604 Y102.571 E5.52924
G1 X70.6 Y105.274 E5.72123
G1 X69.365 Y107.029 E5.84368
G1 X68.359 Y108.162 E5.93013
G1 X67.788 Y108.78 E5.97814
G1 X65.356 Y110.926 E6.16321
G1 X63.774 Y112.393 E6.28631
G1 X63.141 Y112.889 E6.3322
G1 X62.303 Y113.496 E6.39124
G1 X61.752 Y113.873 E6.42933
G1 X60.696 Y114.468 E6.49849
G1 X60.223 Y114.725 E6.52921
G1 X57.658 Y116.221 E6.69864
G1 X57.023 Y116.605 E6.74098
G1 X56.294 Y116.943 E6.78683
G1 X54.848 Y117.575 E6.87687
G1 X51.705 Y118.562 E7.06484
G1 X49.63 Y119.272 E7.18998
G1 X48.818 Y119.458 E7.23751
G1 X48.086 Y119.614 E7.28022
G1 X47.316 Y119.766 E7.325
G1 X42.917 Y120.211 E7.57728
G1 X41.837 Y120.344 E7.63937
G1 X41.122 Y120.357 E7.68017
G1 X40.296 Y120.357 E7.7273
G1 X39.465 Y120.345 E7.77472
G1 X34.896 Y119.852 E8.03694
G1 X33.978 Y119.773 E8.08951
G1 X32.46 Y119.461 E8.17794
G1 X31.789 Y119.308 E8.21721
G1 X31.154 Y119.106 E8.25523
G1 X27.353 Y117.864 E8.48339
G1 X26.438 Y117.584 E8.53799
G1 X25.692 Y117.267 E8.58424
G1 X24.264 Y116.618 E8.67374
G1 X20.304 Y114.315 E8.93513
G1 X19.662 Y113.96 E8.97698
G1 X19.144 Y113.627 E9.01212
G1 X18.567 Y113.215 E9.05258
G1 X17.617 Y112.516 E9.11987
G1 X16.461 Y111.443 E9.20987
G1 X14.041 Y109.277 E9.39518
G1 X13.471 Y108.781 E9.43829
G1 X12.449 Y107.66 E9.52485
G1 X11.883 Y107.015 E9.57381
G1 X10.03 Y104.406 E9.75641
G1 X8.657 Y102.576 E9.88694
G1 X7.892 Y101.272 E9.97321
G1 X7.477 Y100.528 E10.02182
G1 X5.62 Y96.324 E10.28405
G1 X5.238 Y95.509 E10.33541
G1 X4.965 Y94.709 E10.38364
G1 X4.752 Y94.052 E10.42305
G1 X4.489 Y93.19 E10.47447
G1 X3.84 Y89.981 E10.66128
G1 X3.351 Y87.84 E10.78659
G1 X3.184 Y86.348 E10.87225
G1 X3.119 Y85.626 E10.91361
G1 X3.114 Y85.026 E10.94785
G1 X3.122 Y80.866 E11.18522
G1 X3.105 Y80.006 E11.2343
G1 X3.179 Y79.178 E11.28173
G1 X3.332 Y77.808 E11.36039
G1 X3.475 Y77.102 E11.40149
G1 X4.307 Y73.228 E11.62757
G1 X4.494 Y72.255 E11.68411
G1 X4.957 Y70.792 E11.77166
G1 X5.188 Y70.115 E11.81248
G1 X5.488 Y69.436 E11.85484
G1 X7.136 Y65.748 E12.08532
G1 X7.466 Y64.97 E12.13354
G1 X7.893 Y64.205 E12.18353
G1 X8.641 Y62.928 E12.26797
G1 X10.644 Y60.226 E12.45989
G1 X11.883 Y58.466 E12.5827
G1 X12.439 Y57.829 E12.63094
G1 X13.471 Y56.702 E12.71814
G1 X16.824 Y53.703 E12.97482
G1 X17.593 Y52.986 E13.03481
G1 X18.764 Y52.127 E13.11767
G1 X19.36 Y51.706 E13.15931
G1 X19.944 Y51.364 E13.19792
G1 X23.519 Y49.306 E13.43329
G1 X24.073 Y48.971 E13.47023
G0 F405 X24.222 Y48.881
G0 F3600 X24.557 Y49.496
G1 F450 X25.183 Y49.205 E13.50962
G1 X26.647 Y48.565 E13.60079
G1 X30.86 Y47.213 E13.85325
G1 X31.826 Y46.881 E13.91154
G1 X32.561 Y46.712 E13.95457
G1 X33.314 Y46.553 E13.99848
G1 X34.08 Y46.403 E14.04302
G1 X37.275 Y46.098 E14.22615
G1 X39.478 Y45.834 E14.35275
G1 X40.268 Y45.821 E14.39783
G1 X40.955 Y45.821 E14.43703
G1 X41.666 Y45.832 E14.47761
G1 X42.21 Y45.887 E14.5088
G1 X46.3 Y46.324 E14.7435
G1 X47.192 Y46.404 E14.7946
G1 X47.876 Y46.537 E14.83436
G1 X48.631 Y46.698 E14.87841
G1 X49.315 Y46.854 E14.91844
G1 X49.835 Y47.02 E14.94959
G1 X53.759 Y48.302 E15.18513
G1 X54.582 Y48.554 E15.23424
G1 X55.249 Y48.837 E15.27558
G1 X55.97 Y49.158 E15.32062
G1 X56.688 Y49.49 E15.36575
G1 X59.546 Y51.178 E15.55515
G1 X61.383 Y52.201 E15.67512
G1 X62.048 Y52.667 E15.72145
G1 X63.251 Y53.556 E15.8068
G1 X65.662 Y55.77 E15.99357
G1 X67.281 Y57.184 E16.11623
G1 X67.878 Y57.828 E16.16633
G1 X68.732 Y58.789 E16.23969
G1 X69.071 Y59.252 E16.27243
G1 X71.542 Y62.662 E16.51271
G1 X72.018 Y63.293 E16.55781
G1 X72.776 Y64.583 E16.64318
G1 X73.163 Y65.275 E16.68842
G1 X74.469 Y68.288 E16.8758
G1 X75.38 Y70.253 E16.99938
G1 X75.834 Y71.618 E17.08146
G1 X76.083 Y72.427 E17.12976
G1 X76.997 Y76.803 E17.38484
G1 X77.216 Y77.748 E17.44019
G1 X77.377 Y79.193 E17.52315
G1 X77.45 Y80.005 E17.56966
G1 X77.437 Y84.536 E17.8282
G1 X77.454 Y85.438 E17.87967
G1 X77.389 Y86.182 E17.92229
G1 X77.22 Y87.699 E18.00938
G1 X76.256 Y92.17 E18.27035
G1 X76.083 Y93.062 E18.3222
G1 X75.65 Y94.428 E18.40396
G1 X75.375 Y95.237 E18.45272
G1 X74.02 Y98.198 E18.63852
G1 X73.16 Y100.21 E18.76337
G1 X72.459 Y101.447 E18.84449
G1 X72.019 Y102.184 E18.89347
G1 X70.051 Y104.84 E19.08209
G1 X68.824 Y106.584 E19.20376
G1 X67.845 Y107.686 E19.28787
G1 X67.294 Y108.282 E19.33418
G1 X64.869 Y110.422 E19.51872
G1 X63.314 Y111.864 E19.63972
G1 X62.635 Y112.394 E19.68887
G1 X61.908 Y112.918 E19.74001
G1 X61.389 Y113.272 E19.77585
G1 X60.361 Y113.853 E19.84323
G1 X59.89 Y114.109 E19.87382
G1 X57.298 Y115.621 E20.04504
G1 X56.695 Y115.985 E20.08523
G1 X55.95 Y116.33 E20.13207
G1 X54.605 Y116.917 E20.21581
G1 X51.501 Y117.892 E20.40145
G1 X49.439 Y118.597 E20.52579
G1 X48.673 Y118.774 E20.57065
G1 X47.214 Y119.073 E20.65563
G1 X42.808 Y119.519 E20.90831
G1 X41.787 Y119.645 E20.96701
G1 X41.11 Y119.657 E21.00565
G1 X40.306 Y119.657 E21.05152
G1 X39.51 Y119.646 E21.09694
G1 X34.945 Y119.153 E21.35893
G1 X34.068 Y119.078 E21.40915
G1 X32.616 Y118.778 E21.49375
G1 X31.945 Y118.625 E21.53302
G1 X31.414 Y118.455 E21.56484
G1 X27.515 Y117.181 E21.79888
G1 X26.676 Y116.924 E21.84895
G1 X25.981 Y116.629 E21.89203
G1 X24.59 Y115.997 E21.97921
G1 X20.683 Y113.725 E22.23709
G1 X19.83 Y113.253 E22.29271
G1 X18.982 Y112.652 E22.35202
G1 X18.391 Y112.217 E22.39389
G1 X17.906 Y111.829 E22.42933
G1 X16.897 Y110.893 E22.50786
G1 X14.508 Y108.755 E22.69079
G1 X13.965 Y108.283 E22.73184
G1 X12.975 Y107.198 E22.81565
G1 X12.432 Y106.578 E22.86267
G1 X10.591 Y103.987 E23.04403
G1 X9.237 Y102.183 E23.17273
G1 X8.528 Y100.975 E23.25266
G1 X8.103 Y100.213 E23.30244
G1 X6.26 Y96.041 E23.56268
G1 X5.888 Y95.244 E23.61287
G1 X5.63 Y94.493 E23.65818
G1 X5.433 Y93.885 E23.69464
G1 X5.169 Y93.017 E23.74641
G1 X4.539 Y89.9 E23.92786
G1 X4.043 Y87.73 E24.05487
G1 X3.881 Y86.286 E24.13778
G1 X3.816 Y85.564 E24.17914
G1 X3.814 Y85.043 E24.20887
G1 X3.822 Y80.919 E24.44418
G1 X3.805 Y80.037 E24.49451
G1 X3.869 Y79.31 E24.53616
G1 X4.028 Y77.886 E24.61791
G1 X4.164 Y77.227 E24.65631
G1 X5.001 Y73.327 E24.8839
G1 X5.177 Y72.419 E24.93668
G1 X5.62 Y71.018 E25.02052
G1 X5.851 Y70.341 E25.06133
G1 X6.125 Y69.727 E25.0997
G1 X7.773 Y66.038 E25.33024
G1 X8.096 Y65.277 E25.37741
G1 X8.497 Y64.558 E25.42438
G1 X9.225 Y63.316 E25.50652
G1 X11.233 Y60.607 E25.69893
G1 X12.437 Y58.895 E25.81835
G1 X13.003 Y58.249 E25.86736
G1 X13.961 Y57.203 E25.94829
G1 X17.318 Y54.2 E26.20529
G1 X18.046 Y53.521 E26.26209
G1 X19.168 Y52.699 E26.34146
G1 X19.764 Y52.278 E26.38309
G1 X20.301 Y51.966 E26.41853
G1 X23.869 Y49.912 E26.65344
G1 X24.408 Y49.586 E26.68938
G0 F405 X24.557 Y49.496
G10
;MESH:blade-hub-n300-flat.STL
G0 F3600 X26.734 Y52.877
G0 X30.147 Y60.499
;TYPE:WALL-OUTER
G11
G1 F900 X27.414 Y61.213 E26.85056
G1 X24.767 Y62.269 E27.01317
G1 X22.281 Y63.645 E27.17529
G1 X19.995 Y65.317 E27.33689
G1 X17.93 Y67.266 E27.49891
G1 X16.124 Y69.456 E27.66088
G1 X14.61 Y71.852 E27.8226
G1 X13.405 Y74.416 E27.98425
G1 X12.523 Y77.139 E28.14757
G1 X12.001 Y79.909 E28.3084
G1 X11.81 Y82.895 E28.47913
G1 F901.3 X11.65 Y83.27 E28.50236
G1 X11.536 Y83.409 E28.5126
G1 F900 X11.281 Y83.59 E28.53044
G1 X11.108 Y83.654 E28.54097
G1 X10.69 Y83.672 E28.56484
G1 X10.254 Y83.462 E28.59245
G1 F869 X9.959 Y83.081 E28.62093
G1 F807.7 X9.872 Y82.811 E28.63897
G1 F767.4 X9.882 Y82.277 E28.67471
G1 F822.5 X9.994 Y81.545 E28.72094
G1 F900 X10.111 Y79.693 E28.82683
G1 X10.296 Y78.699 E28.88452
G1 X10.497 Y77.638 E28.94613
G1 F787.5 X10.531 Y76.923 E28.99281
G1 F702.3 X10.683 Y76.344 E29.03658
G1 F784.6 X10.99 Y75.711 E29.08263
G1 F892.4 X11.629 Y73.744 E29.20165
G1 F900 X12.94 Y70.942 E29.37816
G1 X14.599 Y68.322 E29.55511
G1 X16.529 Y65.977 E29.7284
G1 X18.779 Y63.854 E29.90491
G1 X21.279 Y62.03 E30.08149
G1 X23.948 Y60.551 E30.25559
G1 X26.792 Y59.415 E30.43034
G1 X29.801 Y58.629 E30.60779
G1 X32.809 Y58.236 E30.78088
G1 X35.927 Y58.222 E30.95879
G1 X38.981 Y58.595 E31.13434
G1 X41.941 Y59.337 E31.30846
G1 X44.899 Y60.491 E31.48963
G1 X45.161 Y60.74 E31.51025
G1 X45.346 Y61.166 E31.53675
G1 X45.328 Y61.545 E31.5584
G1 X45.132 Y61.932 E31.58315
G1 X44.78 Y62.191 E31.60809
G1 X44.504 Y62.262 E31.62435
G1 X44.158 Y62.233 E31.64416
G1 X41.349 Y61.148 E31.81598
G1 X38.619 Y60.462 E31.97659
G1 X35.793 Y60.119 E32.13903
G1 X32.959 Y60.131 E32.30073
G1 X30.32 Y60.477 E32.4526
G0 F810 X30.147 Y60.499
G0 F3600 X29.76 Y60.6
G10
G0 X29.885 Y61.083
G0 X29.478 Y64.541
G0 X29.717 Y65.731
G11
G1 F900 X30.072 Y65.383 E32.48096
G1 X30.484 Y65.099 E32.50951
G1 X30.933 Y64.896 E32.53763
G1 X31.398 Y64.774 E32.56506
G1 X31.911 Y64.735 E32.59442
G1 X32.347 Y64.773 E32.61939
G1 X32.827 Y64.897 E32.64768
G1 X33.332 Y65.131 E32.67943
G1 X33.709 Y65.399 E32.70583
G1 X34.081 Y65.776 E32.73605
G1 X34.359 Y66.175 E32.76379
G1 X34.566 Y66.635 E32.79258
G1 X34.69 Y67.102 E32.82015
G1 X34.729 Y67.613 E32.84939
G1 X34.688 Y68.077 E32.87597
G1 X34.567 Y68.53 E32.90272
G1 X34.333 Y69.036 E32.93453
G1 X34.079 Y69.394 E32.95958
G1 X33.688 Y69.785 E32.99113
G1 X33.299 Y70.059 E33.01828
G1 X32.874 Y70.255 E33.04498
G1 X32.408 Y70.385 E33.07258
G1 X31.911 Y70.433 E33.10107
G1 X31.362 Y70.387 E33.13251
G1 X30.933 Y70.272 E33.15785
G1 X30.438 Y70.045 E33.18892
G1 X30.065 Y69.78 E33.21503
G1 X29.679 Y69.392 E33.24626
G1 X29.403 Y68.998 E33.27371
G1 X29.191 Y68.529 E33.30308
G1 X29.076 Y68.097 E33.32858
G1 X29.031 Y67.617 E33.35609
G1 X29.072 Y67.088 E33.38637
G1 X29.201 Y66.608 E33.41473
G1 X29.427 Y66.132 E33.44479
G1 X29.615 Y65.873 E33.46305
G0 F810 X29.717 Y65.731
G0 F3600 X30.002 Y65.451
G0 X29.646 Y65.095
G0 X28.785 Y66.459
G0 X28.638 Y68.154
G0 X29.591 Y70.302
;TYPE:WALL-INNER
G1 F900 X29.166 Y69.872 E33.49755
G1 X29.107 Y69.796 E33.50304
G1 X28.785 Y69.327 E33.5355
G1 X28.543 Y68.798 E33.56869
G1 X28.393 Y68.25 E33.60111
G1 X28.324 Y67.592 E33.63886
G1 X28.382 Y66.97 E33.67451
G1 X28.544 Y66.366 E33.71019
G1 X28.76 Y65.893 E33.73986
G1 X29.107 Y65.372 E33.77558
G1 X29.532 Y64.926 E33.81073
G1 X30.101 Y64.502 E33.85122
G1 X30.751 Y64.22 E33.89164
G1 X31.307 Y64.08 E33.92436
G1 X31.788 Y64.037 E33.95191
G1 X32.408 Y64.075 E33.98736
G1 X33.009 Y64.221 E34.02265
G1 X33.651 Y64.498 E34.06254
G1 X34.157 Y64.861 E34.09808
G1 X34.606 Y65.303 E34.13402
G1 X34.983 Y65.857 E34.17226
G1 X35.235 Y66.427 E34.20782
G1 X35.384 Y67.01 E34.24216
G1 X35.429 Y67.642 E34.27831
G1 X35.379 Y68.191 E34.30976
G1 X35.243 Y68.713 E34.34054
G1 X34.96 Y69.368 E34.38125
G1 X34.529 Y69.941 E34.42217
G1 F742.9 X34.179 Y70.477 E34.46641
G1 F642.2 X33.699 Y70.789 E34.51219
G1 F646.8 X33.208 Y71.029 E34.55558
G1 F746.4 X32.59 Y71.063 E34.59816
G1 F897.4 X31.881 Y71.141 E34.63898
G1 F900 X31.198 Y71.068 E34.67817
G1 X30.585 Y70.887 E34.71464
G1 X30.056 Y70.631 E34.74817
G1 X29.698 Y70.378 E34.77319
G0 F810 X29.591 Y70.302
G10
G0 F3600 X28 Y67.584
G0 X25.864 Y68.125
G0 X24.365 Y67.897
;TYPE:WALL-OUTER
G11
G1 F900 X24.622 Y68.071 E34.7909
G1 X24.862 Y68.437 E34.81587
G1 X24.909 Y68.87 E34.84072
G1 X24.758 Y69.29 E34.86619
G1 X24.684 Y69.393 E34.87342
G1 X22.3 Y71.312 E35.04804
G1 X20.325 Y73.349 E35.20993
G1 X18.622 Y75.618 E35.37181
G1 X17.22 Y78.069 E35.53292
G1 X16.122 Y80.713 E35.69628
G1 X15.375 Y83.436 E35.85739
G1 X14.97 Y86.246 E36.01938
G1 X14.919 Y89.081 E36.18117
G1 X15.224 Y91.898 E36.34284
G1 X15.876 Y94.648 E36.5041
G1 X16.873 Y97.317 E36.66667
G1 X18.19 Y99.829 E36.82851
G1 X19.813 Y102.159 E36.99053
G1 X21.713 Y104.265 E37.15237
G1 X23.861 Y106.117 E37.3142
G1 X26.38 Y107.792 E37.4868
G1 X26.658 Y108.242 E37.51699
G1 X26.695 Y108.574 E37.53605
G1 X26.618 Y108.888 E37.55449
G1 X26.469 Y109.134 E37.5709
G1 X26.066 Y109.409 E37.59874
G1 F869 X25.591 Y109.471 E37.62705
G1 F807.7 X25.312 Y109.411 E37.64519
G1 F763.6 X24.804 Y109.105 E37.68508
G1 F818.2 X24.245 Y108.651 E37.73027
G1 F900 X22.691 Y107.616 E37.83681
G1 X21.147 Y106.284 E37.95316
G1 F788.5 X20.529 Y105.883 E38.00114
G1 F703.1 X20.144 Y105.503 E38.04065
G1 F790.5 X20.21 Y105.435 E38.04681
G1 F900 X18.311 Y103.325 E38.20878
G1 X16.564 Y100.814 E38.38332
G1 X15.121 Y98.061 E38.56067
G1 X14.062 Y95.232 E38.73303
G1 X13.346 Y92.203 E38.91062
G1 X13.021 Y89.188 E39.08365
G1 X13.074 Y86.094 E39.26022
G1 X13.117 Y85.787 E39.27791
G1 X13.51 Y83.06 E39.43511
G1 X14.336 Y80.06 E39.61266
G1 X15.497 Y77.262 E39.78551
G1 X17.046 Y74.554 E39.96351
G1 X18.894 Y72.097 E40.13894
G1 X21.015 Y69.909 E40.31281
G1 X23.411 Y67.985 E40.48814
G1 X23.645 Y67.865 E40.50315
G1 X23.955 Y67.809 E40.52112
G1 X24.194 Y67.861 E40.53508
G0 F810 X24.365 Y67.897
G0 F3600 X24.622 Y68.071
G0 X24.671 Y68.146
G10
G0 X25.082 Y67.857
G0 X24.71 Y70.683
G0 X22.815 Y72.233
G0 X20.985 Y74.154
G0 X19.407 Y76.282
G0 X18.053 Y78.7
G0 X17.006 Y81.314
G0 X16.353 Y83.738
G0 X15.977 Y86.468
G0 X15.939 Y89.115
G0 X16.238 Y91.792
G0 X16.867 Y94.412
G0 X17.936 Y97.17
G0 X20.55 Y102.334
G0 X26.694 Y107.474
G0 X27.066 Y108.987
G0 X25.54 Y109.903
G0 X22.712 Y108.159
G0 X20.077 Y105.939
G0 X22.574 Y78.901
G0 X22.155 Y85.419
G11
G1 F900 X21.732 Y85.224 E40.56166
G1 X21.306 Y84.929 E40.59122
G1 X20.946 Y84.569 E40.62027
G1 X20.645 Y84.136 E40.65036
G1 X20.441 Y83.684 E40.67866
G1 X20.329 Y83.267 E40.70329
G1 X20.281 Y82.71 E40.73519
G1 X20.329 Y82.212 E40.76374
G1 X20.456 Y81.75 E40.79108
G1 X20.677 Y81.287 E40.82035
G1 X20.967 Y80.886 E40.84859
G1 X21.322 Y80.538 E40.87696
G1 X21.678 Y80.286 E40.90184
G1 X22.153 Y80.061 E40.93183
G1 X22.663 Y79.928 E40.9619
G1 X23.161 Y79.89 E40.9904
G1 X23.658 Y79.939 E41.0189
G1 X24.132 Y80.072 E41.04699
G1 X24.563 Y80.273 E41.07412
G1 X24.938 Y80.538 E41.10032
G1 X25.293 Y80.886 E41.12869
G1 X25.603 Y81.319 E41.15907
G1 X25.796 Y81.735 E41.18524
G1 X25.931 Y82.211 E41.21347
G1 X25.98 Y82.716 E41.24242
G1 X25.941 Y83.208 E41.27058
G1 X25.797 Y83.74 E41.30203
G1 X25.583 Y84.191 E41.33051
G1 X25.293 Y84.592 E41.35875
G1 X24.938 Y84.941 E41.38716
G1 X24.528 Y85.224 E41.41558
G1 X24.109 Y85.417 E41.4419
G1 X23.629 Y85.546 E41.47026
G1 X23.099 Y85.588 E41.5006
G1 X22.635 Y85.547 E41.52718
G1 X22.324 Y85.464 E41.54554
G0 F810 X22.155 Y85.419
G0 F3600 X21.792 Y85.252
G0 X21.581 Y85.701
G0 X24.338 Y86.079
;TYPE:WALL-INNER
G1 F900 X23.755 Y86.235 E41.57998
G1 X23.109 Y86.293 E41.61699
